P3
128 128
255
116 116 116
124 124 124
127 127 127
86 86 86
117 117 117
124 124 124
127 127 127
50 50 50
70 70 70
75 75 75
79 79 79
80 80 80
92 92 92
97 97 97
102 102 102
106 106 106
111 111 111
115 115 115
120 120 120
127 127 127
109 109 109
113 113 113
118 118 118
127 127 127
122 122 122
111 111 111
116 116 116
127 127 127
119 119 119
109 109 109
115 115 115
127 127 127
116 116 116
106 106 106
113 113 113
127 127 127
114 114 114
84 84 84
89 89 89
104 104 104
90 90 90
77 77 77
83 83 83
100 100 100
83 83 83
75 75 75
79 79 79
96 96 96
75 75 75
74 74 74
77 77 77
95 95 95
70 70 70
73 73 73
76 76 76
94 94 94
69 69 69
73 73 73
76 76 76
94 94 94
69 69 69
73 73 73
76 76 76
94 94 94
69 69 69
73 73 73
76 76 76
94 94 94
69 69 69
73 73 73
76 76 76
94 94 94
69 69 69
73 73 73
76 76 76
94 94 94
69 69 69
73 73 73
76 76 76
94 94 94
69 69 69
73 73 73
76 76 76
94 94 94
69 69 69
73 73 73
76 76 76
94 94 94
69 69 69
73 73 73
76 76 76
94 94 94
69 69 69
73 73 73
76 76 76
94 94 94
69 69 69
73 73 73
76 76 76
94 94 94
69 69 69
73 73 73
76 76 76
94 94 94
69 69 69
73 73 73
76 76 76
94 94 94
69 69 69
73 73 73
76 76 76
94 94 94
69 69 69
73 73 73
76 76 76
94 94 94
69 69 69
73 73 73
76 76 76
94 94 94
69 69 69
73 73 73
76 76 76
94 94 94
69 69 69
74 74 74
76 76 76
95 95 95
110 110 110
118 118 118
121 121 121
79 79 79
111 111 111
118 118 118
122 122 122
44 44 44
66 66 66
71 71 71
75 75 75
75 75 75
89 89 89
94 94 94
98 98 98
102 102 102
108 108 108
113 113 113
118 118 118
124 124 124
107 107 107
111 111 111
116 116 116
125 125 125
121 121 121
100 100 100
105 105 105
115 115 115
108 108 108
93 93 93
100 100 100
112 112 112
101 101 101
87 87 87
95 95 95
108 108 108
95 95 95
81 81 81
88 88 88
105 105 105
89 89 89
75 75 75
83 83 83
101 101 101
82 82 82
73 73 73
80 80 80
97 97 97
75 75 75
72 72 72
78 78 78
96 96 96
70 70 70
70 70 70
77 77 77
96 96 96
69 69 69
70 70 70
77 77 77
96 96 96
69 69 69
70 70 70
77 77 77
96 96 96
69 69 69
70 70 70
77 77 77
96 96 96
69 69 69
70 70 70
77 77 77
96 96 96
69 69 69
70 70 70
77 77 77
96 96 96
69 69 69
70 70 70
77 77 77
96 96 96
69 69 69
70 70 70
77 77 77
96 96 96
69 69 69
70 70 70
77 77 77
96 96 96
69 69 69
70 70 70
77 77 77
96 96 96
69 69 69
70 70 70
77 77 77
96 96 96
69 69 69
70 70 70
77 77 77
96 96 96
69 69 69
70 70 70
77 77 77
96 96 96
69 69 69
70 70 70
77 77 77
96 96 96
69 69 69
70 70 70
77 77 77
96 96 96
69 69 69
70 70 70
77 77 77
96 96 96
69 69 69
70 70 70
77 77 77
96 96 96
69 69 69
70 70 70
77 77 77
96 96 96
69 69 69
70 70 70
77 77 77
96 96 96
101 101 101
110 110 110
112 112 112
71 71 71
105 105 105
112 112 112
116 116 116
37 37 37
61 61 61
67 67 67
71 71 71
71 71 71
86 86 86
91 91 91
96 96 96
75 75 75
83 83 83
88 88 88
93 93 93
99 99 99
101 101 101
105 105 105
111 111 111
120 120 120
96 96 96
100 100 100
106 106 106
117 117 117
110 110 110
96 96 96
102 102 102
115 115 115
104 104 104
91 91 91
98 98 98
113 113 113
99 99 99
86 86 86
93 93 93
110 110 110
94 94 94
80 80 80
89 89 89
108 108 108
88 88 88
79 79 79
87 87 87
105 105 105
82 82 82
79 79 79
85 85 85
104 104 104
77 77 77
77 77 77
84 84 84
104 104 104
75 75 75
77 77 77
84 84 84
104 104 104
76 76 76
77 77 77
84 84 84
104 104 104
76 76 76
77 77 77
84 84 84
104 104 104
76 76 76
77 77 77
84 84 84
104 104 104
76 76 76
77 77 77
84 84 84
104 104 104
76 76 76
77 77 77
84 84 84
104 104 104
76 76 76
77 77 77
84 84 84
104 104 104
76 76 76
77 77 77
84 84 84
104 104 104
76 76 76
77 77 77
84 84 84
104 104 104
76 76 76
77 77 77
84 84 84
104 104 104
76 76 76
77 77 77
84 84 84
104 104 104
76 76 76
77 77 77
84 84 84
104 104 104
76 76 76
77 77 77
84 84 84
104 104 104
76 76 76
77 77 77
84 84 84
104 104 104
76 76 76
77 77 77
84 84 84
104 104 104
76 76 76
77 77 77
84 84 84
104 104 104
76 76 76
77 77 77
84 84 84
104 104 104
76 76 76
77 77 77
84 84 84
104 104 104
87 87 87
97 97 97
100 100 100
56 56 56
96 96 96
105 105 105
109 109 109
30 30 30
57 57 57
64 64 64
68 68 68
44 44 44
62 62 62
68 68 68
73 73 73
76 76 76
86 86 86
91 91 91
97 97 97
104 104 104
106 106 106
111 111 111
118 118 118
127 127 127
104 104 104
108 108 108
115 115 115
127 127 127
119 119 119
105 105 105
113 113 113
127 127 127
115 115 115
102 102 102
110 110 110
127 127 127
112 112 112
99 99 99
108 108 108
127 127 127
109 109 109
95 95 95
106 106 106
127 127 127
106 106 106
97 97 97
106 106 106
127 127 127
100 100 100
98 98 98
106 106 106
127 127 127
96 96 96
96 96 96
104 104 104
127 127 127
94 94 94
96 96 96
104 104 104
127 127 127
94 94 94
96 96 96
104 104 104
127 127 127
94 94 94
96 96 96
104 104 104
127 127 127
94 94 94
96 96 96
104 104 104
127 127 127
94 94 94
96 96 96
104 104 104
127 127 127
94 94 94
96 96 96
104 104 104
127 127 127
94 94 94
96 96 96
104 104 104
127 127 127
94 94 94
96 96 96
104 104 104
127 127 127
94 94 94
96 96 96
104 104 104
127 127 127
94 94 94
96 96 96
104 104 104
127 127 127
94 94 94
96 96 96
104 104 104
127 127 127
94 94 94
96 96 96
104 104 104
127 127 127
94 94 94
96 96 96
104 104 104
127 127 127
94 94 94
96 96 96
104 104 104
127 127 127
94 94 94
96 96 96
104 104 104
127 127 127
94 94 94
96 96 96
104 104 104
127 127 127
94 94 94
96 96 96
104 104 104
127 127 127
94 94 94
96 96 96
104 104 104
127 127 127
116 116 116
125 125 125
127 127 127
56 56 56
93 93 93
101 101 101
103 103 103
24 24 24
50 50 50
55 55 55
59 59 59
33 33 33
53 53 53
56 56 56
60 60 60
62 62 62
72 72 72
77 77 77
82 82 82
86 86 86
90 90 90
95 95 95
100 100 100
107 107 107
86 86 86
90 90 90
95 95 95
104 104 104
99 99 99
86 86 86
91 91 91
102 102 102
94 94 94
81 81 81
87 87 87
100 100 100
89 89 89
76 76 76
83 83 83
98 98 98
85 85 85
71 71 71
79 79 79
96 96 96
79 79 79
71 71 71
77 77 77
95 95 95
74 74 74
72 72 72
77 77 77
94 94 94
69 69 69
70 70 70
75 75 75
94 94 94
68 68 68
70 70 70
76 76 76
94 94 94
68 68 68
70 70 70
76 76 76
94 94 94
68 68 68
70 70 70
76 76 76
94 94 94
68 68 68
70 70 70
76 76 76
94 94 94
68 68 68
70 70 70
76 76 76
94 94 94
68 68 68
70 70 70
76 76 76
94 94 94
68 68 68
70 70 70
76 76 76
94 94 94
68 68 68
70 70 70
76 76 76
94 94 94
68 68 68
70 70 70
76 76 76
94 94 94
68 68 68
70 70 70
76 76 76
94 94 94
68 68 68
70 70 70
76 76 76
94 94 94
68 68 68
70 70 70
76 76 76
94 94 94
68 68 68
70 70 70
76 76 76
94 94 94
68 68 68
70 70 70
76 76 76
94 94 94
68 68 68
70 70 70
76 76 76
94 94 94
68 68 68
70 70 70
76 76 76
94 94 94
68 68 68
70 70 70
76 76 76
94 94 94
68 68 68
70 70 70
76 76 76
94 94 94
109 109 109
117 117 117
119 119 119
47 47 47
86 86 86
94 94 94
96 96 96
17 17 17
45 45 45
49 49 49
53 53 53
27 27 27
46 46 46
51 51 51
55 55 55
56 56 56
68 68 68
72 72 72
77 77 77
81 81 81
87 87 87
91 91 91
96 96 96
102 102 102
83 83 83
87 87 87
92 92 92
101 101 101
97 97 97
83 83 83
89 89 89
99 99 99
93 93 93
94 94 94
99 99 99
112 112 112
102 102 102
85 85 85
93 93 93
108 108 108
95 95 95
78 78 78
87 87 87
104 104 104
88 88 88
73 73 73
81 81 81
98 98 98
79 79 79
73 73 73
80 80 80
97 97 97
72 72 72
70 70 70
77 77 77
96 96 96
70 70 70
70 70 70
77 77 77
96 96 96
70 70 70
70 70 70
77 77 77
96 96 96
70 70 70
70 70 70
77 77 77
96 96 96
70 70 70
70 70 70
77 77 77
96 96 96
70 70 70
70 70 70
77 77 77
96 96 96
70 70 70
70 70 70
77 77 77
96 96 96
70 70 70
70 70 70
77 77 77
96 96 96
70 70 70
70 70 70
77 77 77
96 96 96
70 70 70
70 70 70
77 77 77
96 96 96
70 70 70
70 70 70
77 77 77
96 96 96
70 70 70
70 70 70
77 77 77
96 96 96
70 70 70
70 70 70
77 77 77
96 96 96
70 70 70
70 70 70
77 77 77
96 96 96
70 70 70
70 70 70
77 77 77
96 96 96
70 70 70
70 70 70
77 77 77
96 96 96
70 70 70
70 70 70
77 77 77
96 96 96
70 70 70
70 70 70
77 77 77
96 96 96
70 70 70
70 70 70
77 77 77
96 96 96
98 98 98
107 107 107
108 108 108
37 37 37
78 78 78
85 85 85
88 88 88
8 8 8
38 38 38
43 43 43
46 46 46
19 19 19
40 40 40
46 46 46
50 50 50
51 51 51
64 64 64
70 70 70
74 74 74
77 77 77
84 84 84
89 89 89
94 94 94
100 100 100
101 101 101
105 105 105
111 111 111
120 120 120
96 96 96
100 100 100
106 106 106
117 117 117
110 110 110
94 94 94
101 101 101
114 114 114
104 104 104
88 88 88
96 96 96
112 112 112
98 98 98
82 82 82
91 91 91
109 109 109
92 92 92
78 78 78
87 87 87
106 106 106
84 84 84
81 81 81
87 87 87
105 105 105
78 78 78
77 77 77
84 84 84
104 104 104
75 75 75
77 77 77
84 84 84
104 104 104
76 76 76
77 77 77
84 84 84
104 104 104
76 76 76
77 77 77
84 84 84
104 104 104
76 76 76
77 77 77
84 84 84
104 104 104
76 76 76
77 77 77
84 84 84
104 104 104
76 76 76
77 77 77
84 84 84
104 104 104
76 76 76
77 77 77
84 84 84
104 104 104
76 76 76
77 77 77
84 84 84
104 104 104
76 76 76
77 77 77
84 84 84
104 104 104
76 76 76
77 77 77
84 84 84
104 104 104
76 76 76
77 77 77
84 84 84
104 104 104
76 76 76
77 77 77
84 84 84
104 104 104
76 76 76
77 77 77
84 84 84
104 104 104
76 76 76
77 77 77
84 84 84
104 104 104
76 76 76
77 77 77
84 84 84
104 104 104
76 76 76
77 77 77
84 84 84
104 104 104
76 76 76
77 77 77
84 84 84
104 104 104
76 76 76
77 77 77
84 84 84
104 104 104
80 80 80
90 90 90
92 92 92
16 16 16
65 65 65
74 74 74
77 77 77
0 0 0
29 29 29
37 37 37
40 40 40
12 12 12
37 37 37
44 44 44
48 48 48
47 47 47
63 63 63
69 69 69
75 75 75
78 78 78
87 87 87
92 92 92
98 98 98
104 104 104
106 106 106
111 111 111
117 117 117
127 127 127
103 103 103
107 107 107
115 115 115
127 127 127
119 119 119
104 104 104
112 112 112
127 127 127
116 116 116
100 100 100
109 109 109
127 127 127
112 112 112
97 97 97
107 107 107
127 127 127
109 109 109
95 95 95
105 105 105
127 127 127
103 103 103
99 99 99
107 107 107
127 127 127
97 97 97
96 96 96
104 104 104
127 127 127
94 94 94
96 96 96
104 104 104
127 127 127
94 94 94
96 96 96
104 104 104
127 127 127
94 94 94
96 96 96
104 104 104
127 127 127
94 94 94
96 96 96
104 104 104
127 127 127
94 94 94
96 96 96
104 104 104
127 127 127
94 94 94
96 96 96
104 104 104
127 127 127
94 94 94
96 96 96
104 104 104
127 127 127
94 94 94
96 96 96
104 104 104
127 127 127
94 94 94
96 96 96
104 104 104
127 127 127
94 94 94
96 96 96
104 104 104
127 127 127
94 94 94
96 96 96
104 104 104
127 127 127
94 94 94
96 96 96
104 104 104
127 127 127
94 94 94
96 96 96
104 104 104
127 127 127
94 94 94
96 96 96
104 104 104
127 127 127
94 94 94
96 96 96
104 104 104
127 127 127
94 94 94
96 96 96
104 104 104
127 127 127
94 94 94
96 96 96
104 104 104
127 127 127
94 94 94
96 96 96
104 104 104
127 127 127
117 117 117
126 126 126
127 127 127
20 20 20
64 64 64
72 72 72
74 74 74
0 0 0
23 23 23
30 30 30
32 32 32
2 2 2
27 27 27
32 32 32
36 36 36
33 33 33
50 50 50
55 55 55
59 59 59
60 60 60
70 70 70
75 75 75
79 79 79
83 83 83
87 87 87
91 91 91
96 96 96
103 103 103
82 82 82
86 86 86
92 92 92
101 101 101
96 96 96
81 81 81
87 87 87
99 99 99
91 91 91
76 76 76
83 83 83
96 96 96
86 86 86
71 71 71
78 78 78
94 94 94
81 81 81
68 68 68
76 76 76
94 94 94
76 76 76
72 72 72
78 78 78
94 94 94
70 70 70
70 70 70
75 75 75
94 94 94
68 68 68
70 70 70
76 76 76
94 94 94
68 68 68
70 70 70
76 76 76
94 94 94
68 68 68
70 70 70
76 76 76
94 94 94
68 68 68
70 70 70
76 76 76
94 94 94
68 68 68
70 70 70
76 76 76
94 94 94
68 68 68
70 70 70
76 76 76
94 94 94
68 68 68
70 70 70
76 76 76
94 94 94
68 68 68
70 70 70
76 76 76
94 94 94
68 68 68
70 70 70
76 76 76
94 94 94
68 68 68
70 70 70
76 76 76
94 94 94
68 68 68
70 70 70
76 76 76
94 94 94
68 68 68
70 70 70
76 76 76
94 94 94
68 68 68
70 70 70
76 76 76
94 94 94
68 68 68
70 70 70
76 76 76
94 94 94
68 68 68
70 70 70
76 76 76
94 94 94
68 68 68
70 70 70
76 76 76
94 94 94
68 68 68
70 70 70
76 76 76
94 94 94
68 68 68
70 70 70
76 76 76
94 94 94
108 108 108
117 117 117
118 118 118
9 9 9
56 56 56
64 64 64
65 65 65
0 0 0
16 16 16
23 23 23
25 25 25
0 0 0
22 22 22
26 26 26
29 29 29
26 26 26
44 44 44
49 49 49
52 52 52
53 53 53
66 66 66
69 69 69
73 73 73
77 77 77
83 83 83
87 87 87
92 92 92
98 98 98
78 78 78
82 82 82
88 88 88
96 96 96
93 93 93
77 77 77
85 85 85
94 94 94
88 88 88
75 75 75
80 80 80
93 93 93
85 85 85
85 85 85
92 92 92
107 107 107
95 95 95
76 76 76
86 86 86
103 103 103
87 87 87
75 75 75
82 82 82
98 98 98
76 76 76
71 71 71
78 78 78
96 96 96
71 71 71
70 70 70
77 77 77
96 96 96
70 70 70
70 70 70
77 77 77
96 96 96
70 70 70
70 70 70
77 77 77
96 96 96
70 70 70
70 70 70
77 77 77
96 96 96
70 70 70
70 70 70
77 77 77
96 96 96
70 70 70
70 70 70
77 77 77
96 96 96
70 70 70
70 70 70
77 77 77
96 96 96
70 70 70
70 70 70
77 77 77
96 96 96
70 70 70
70 70 70
77 77 77
96 96 96
70 70 70
70 70 70
77 77 77
96 96 96
70 70 70
70 70 70
77 77 77
96 96 96
70 70 70
70 70 70
77 77 77
96 96 96
70 70 70
70 70 70
77 77 77
96 96 96
70 70 70
70 70 70
77 77 77
96 96 96
70 70 70
70 70 70
77 77 77
96 96 96
70 70 70
70 70 70
77 77 77
96 96 96
70 70 70
70 70 70
77 77 77
96 96 96
70 70 70
70 70 70
77 77 77
96 96 96
95 95 95
104 104 104
104 104 104
1 1 1
46 46 46
53 53 53
55 55 55
0 0 0
7 7 7
15 15 15
17 17 17
0 0 0
13 13 13
19 19 19
22 22 22
17 17 17
38 38 38
44 44 44
47 47 47
47 47 47
61 61 61
66 66 66
70 70 70
78 78 78
85 85 85
90 90 90
94 94 94
100 100 100
102 102 102
106 106 106
112 112 112
120 120 120
95 95 95
100 100 100
106 106 106
117 117 117
112 112 112
93 93 93
101 101 101
114 114 114
106 106 106
86 86 86
95 95 95
111 111 111
99 99 99
80 80 80
90 90 90
108 108 108
91 91 91
81 81 81
88 88 88
105 105 105
82 82 82
79 79 79
85 85 85
105 105 105
77 77 77
77 77 77
84 84 84
104 104 104
75 75 75
77 77 77
84 84 84
104 104 104
76 76 76
77 77 77
84 84 84
104 104 104
76 76 76
77 77 77
84 84 84
104 104 104
76 76 76
77 77 77
84 84 84
104 104 104
76 76 76
77 77 77
84 84 84
104 104 104
76 76 76
77 77 77
84 84 84
104 104 104
76 76 76
77 77 77
84 84 84
104 104 104
76 76 76
77 77 77
84 84 84
104 104 104
76 76 76
77 77 77
84 84 84
104 104 104
76 76 76
77 77 77
84 84 84
104 104 104
76 76 76
77 77 77
84 84 84
104 104 104
76 76 76
77 77 77
84 84 84
104 104 104
76 76 76
77 77 77
84 84 84
104 104 104
76 76 76
77 77 77
84 84 84
104 104 104
76 76 76
77 77 77
84 84 84
104 104 104
76 76 76
77 77 77
84 84 84
104 104 104
76 76 76
77 77 77
84 84 84
104 104 104
73 73 73
83 83 83
83 83 83
0 0 0
29 29 29
38 38 38
40 40 40
0 0 0
0 0 0
5 5 5
7 7 7
0 0 0
5 5 5
13 13 13
16 16 16
10 10 10
34 34 34
41 41 41
45 45 45
50 50 50
65 65 65
71 71 71
76 76 76
79 79 79
87 87 87
92 92 92
98 98 98
104 104 104
106 106 106
111 111 111
118 118 118
127 127 127
102 102 102
107 107 107
115 115 115
127 127 127
121 121 121
103 103 103
112 112 112
127 127 127
117 117 117
98 98 98
109 109 109
127 127 127
113 113 113
95 95 95
106 106 106
127 127 127
108 108 108
98 98 98
107 107 107
127 127 127
100 100 100
97 97 97
105 105 105
127 127 127
96 96 96
96 96 96
104 104 104
127 127 127
94 94 94
96 96 96
104 104 104
127 127 127
94 94 94
96 96 96
104 104 104
127 127 127
94 94 94
96 96 96
104 104 104
127 127 127
94 94 94
96 96 96
104 104 104
127 127 127
94 94 94
96 96 96
104 104 104
127 127 127
94 94 94
96 96 96
104 104 104
127 127 127
94 94 94
96 96 96
104 104 104
127 127 127
94 94 94
96 96 96
104 104 104
127 127 127
94 94 94
96 96 96
104 104 104
127 127 127
94 94 94
96 96 96
104 104 104
127 127 127
94 94 94
96 96 96
104 104 104
127 127 127
94 94 94
96 96 96
104 104 104
127 127 127
94 94 94
96 96 96
104 104 104
127 127 127
94 94 94
96 96 96
104 104 104
127 127 127
94 94 94
96 96 96
104 104 104
127 127 127
94 94 94
96 96 96
104 104 104
127 127 127
94 94 94
96 96 96
104 104 104
127 127 127
118 118 118
127 127 127
126 126 126
67 67 67
119 119 119
127 127 127
127 127 127
0 0 0
0 0 0
2 2 2
4 4 4
0 0 0
0 0 0
4 4 4
6 6 6
0 0 0
22 22 22
28 28 28
31 31 31
34 34 34
50 50 50
55 55 55
58 58 58
59 59 59
69 69 69
73 73 73
77 77 77
81 81 81
86 86 86
90 90 90
95 95 95
101 101 101
79 79 79
84 84 84
90 90 90
98 98 98
96 96 96
77 77 77
84 84 84
96 96 96
91 91 91
71 71 71
79 79 79
93 93 93
85 85 85
67 67 67
75 75 75
92 92 92
78 78 78
70 70 70
76 76 76
93 93 93
73 73 73
72 72 72
77 77 77
94 94 94
69 69 69
70 70 70
75 75 75
94 94 94
67 67 67
70 70 70
76 76 76
94 94 94
68 68 68
70 70 70
76 76 76
94 94 94
68 68 68
70 70 70
76 76 76
94 94 94
68 68 68
70 70 70
76 76 76
94 94 94
68 68 68
70 70 70
76 76 76
94 94 94
68 68 68
70 70 70
76 76 76
94 94 94
68 68 68
70 70 70
76 76 76
94 94 94
68 68 68
70 70 70
76 76 76
94 94 94
68 68 68
70 70 70
76 76 76
94 94 94
68 68 68
70 70 70
76 76 76
94 94 94
68 68 68
70 70 70
76 76 76
94 94 94
68 68 68
70 70 70
76 76 76
94 94 94
68 68 68
70 70 70
76 76 76
94 94 94
68 68 68
70 70 70
76 76 76
94 94 94
68 68 68
70 70 70
76 76 76
94 94 94
68 68 68
70 70 70
76 76 76
94 94 94
68 68 68
70 70 70
76 76 76
94 94 94
108 108 108
117 117 117
116 116 116
56 56 56
110 110 110
118 118 118
117 117 117
0 0 0
0 0 0
0 0 0
0 0 0
0 0 0
0 0 0
0 0 0
0 0 0
0 0 0
15 15 15
20 20 20
23 23 23
26 26 26
44 44 44
48 48 48
51 51 51
50 50 50
63 63 63
67 67 67
70 70 70
73 73 73
80 80 80
84 84 84
89 89 89
94 94 94
75 75 75
79 79 79
85 85 85
93 93 93
70 70 70
73 73 73
80 80 80
91 91 91
65 65 65
68 68 68
77 77 77
89 89 89
82 82 82
83 83 83
91 91 91
107 107 107
95 95 95
75 75 75
84 84 84
100 100 100
82 82 82
74 74 74
81 81 81
97 97 97
74 74 74
71 71 71
77 77 77
96 96 96
70 70 70
70 70 70
77 77 77
96 96 96
70 70 70
70 70 70
77 77 77
96 96 96
70 70 70
70 70 70
77 77 77
96 96 96
70 70 70
70 70 70
77 77 77
96 96 96
70 70 70
70 70 70
77 77 77
96 96 96
70 70 70
70 70 70
77 77 77
96 96 96
70 70 70
70 70 70
77 77 77
96 96 96
70 70 70
70 70 70
77 77 77
96 96 96
70 70 70
70 70 70
77 77 77
96 96 96
70 70 70
70 70 70
77 77 77
96 96 96
70 70 70
70 70 70
77 77 77
96 96 96
70 70 70
70 70 70
77 77 77
96 96 96
70 70 70
70 70 70
77 77 77
96 96 96
70 70 70
70 70 70
77 77 77
96 96 96
70 70 70
70 70 70
77 77 77
96 96 96
70 70 70
70 70 70
77 77 77
96 96 96
70 70 70
70 70 70
77 77 77
96 96 96
93 93 93
102 102 102
100 100 100
38 38 38
96 96 96
105 105 105
104 104 104
0 0 0
0 0 0
0 0 0
0 0 0
0 0 0
0 0 0
0 0 0
0 0 0
0 0 0
7 7 7
13 13 13
15 15 15
16 16 16
37 37 37
42 42 42
45 45 45
43 43 43
57 57 57
62 62 62
65 65 65
67 67 67
76 76 76
80 80 80
85 85 85
71 71 71
75 75 75
80 80 80
86 86 86
94 94 94
94 94 94
100 100 100
107 107 107
118 118 118
86 86 86
91 91 91
100 100 100
114 114 114
107 107 107
84 84 84
93 93 93
110 110 110
98 98 98
80 80 80
89 89 89
107 107 107
88 88 88
81 81 81
87 87 87
105 105 105
79 79 79
77 77 77
84 84 84
104 104 104
76 76 76
77 77 77
84 84 84
104 104 104
76 76 76
77 77 77
84 84 84
104 104 104
76 76 76
77 77 77
84 84 84
104 104 104
76 76 76
77 77 77
84 84 84
104 104 104
76 76 76
77 77 77
84 84 84
104 104 104
76 76 76
77 77 77
84 84 84
104 104 104
76 76 76
77 77 77
84 84 84
104 104 104
76 76 76
77 77 77
84 84 84
104 104 104
76 76 76
77 77 77
84 84 84
104 104 104
76 76 76
77 77 77
84 84 84
104 104 104
76 76 76
77 77 77
84 84 84
104 104 104
76 76 76
77 77 77
84 84 84
104 104 104
76 76 76
77 77 77
84 84 84
104 104 104
76 76 76
77 77 77
84 84 84
104 104 104
76 76 76
77 77 77
84 84 84
104 104 104
76 76 76
77 77 77
84 84 84
104 104 104
76 76 76
77 77 77
84 84 84
104 104 104
65 65 65
76 76 76
74 74 74
9 9 9
75 75 75
84 84 84
84 84 84
0 0 0
0 0 0
0 0 0
0 0 0
0 0 0
0 0 0
0 0 0
0 0 0
0 0 0
0 0 0
6 6 6
8 8 8
8 8 8
32 32 32
38 38 38
41 41 41
39 39 39
55 55 55
60 60 60
64 64 64
47 47 47
57 57 57
63 63 63
68 68 68
73 73 73
78 78 78
84 84 84
90 90 90
99 99 99
100 100 100
107 107 107
115 115 115
127 127 127
95 95 95
101 101 101
111 111 111
127 127 127
120 120 120
97 97 97
108 108 108
127 127 127
114 114 114
96 96 96
106 106 106
127 127 127
106 106 106
99 99 99
107 107 107
127 127 127
98 98 98
96 96 96
104 104 104
127 127 127
95 95 95
96 96 96
104 104 104
127 127 127
94 94 94
96 96 96
104 104 104
127 127 127
94 94 94
96 96 96
104 104 104
127 127 127
94 94 94
96 96 96
104 104 104
127 127 127
94 94 94
96 96 96
104 104 104
127 127 127
94 94 94
96 96 96
104 104 104
127 127 127
94 94 94
96 96 96
104 104 104
127 127 127
94 94 94
96 96 96
104 104 104
127 127 127
94 94 94
96 96 96
104 104 104
127 127 127
94 94 94
96 96 96
104 104 104
127 127 127
94 94 94
96 96 96
104 104 104
127 127 127
94 94 94
96 96 96
104 104 104
127 127 127
94 94 94
96 96 96
104 104 104
127 127 127
94 94 94
96 96 96
104 104 104
127 127 127
94 94 94
96 96 96
104 104 104
127 127 127
94 94 94
96 96 96
104 104 104
127 127 127
94 94 94
96 96 96
104 104 104
127 127 127
118 118 118
127 127 127
124 124 124
60 60 60
119 119 119
127 127 127
126 126 126
71 71 71
120 120 120
127 127 127
127 127 127
0 0 0
0 0 0
0 0 0
0 0 0
0 0 0
0 0 0
0 0 0
0 0 0
0 0 0
20 20 20
24 24 24
26 26 26
22 22 22
39 39 39
44 44 44
46 46 46
27 27 27
39 39 39
43 43 43
47 47 47
49 49 49
57 57 57
62 62 62
67 67 67
72 72 72
77 77 77
82 82 82
88 88 88
97 97 97
68 68 68
74 74 74
82 82 82
94 94 94
91 91 91
68 68 68
77 77 77
91 91 91
83 83 83
67 67 67
75 75 75
92 92 92
78 78 78
72 72 72
77 77 77
93 93 93
71 71 71
70 70 70
76 76 76
94 94 94
68 68 68
70 70 70
76 76 76
94 94 94
68 68 68
70 70 70
76 76 76
94 94 94
68 68 68
70 70 70
76 76 76
94 94 94
68 68 68
70 70 70
76 76 76
94 94 94
68 68 68
70 70 70
76 76 76
94 94 94
68 68 68
70 70 70
76 76 76
94 94 94
68 68 68
70 70 70
76 76 76
94 94 94
68 68 68
70 70 70
76 76 76
94 94 94
68 68 68
70 70 70
76 76 76
94 94 94
68 68 68
70 70 70
76 76 76
94 94 94
68 68 68
70 70 70
76 76 76
94 94 94
68 68 68
70 70 70
76 76 76
94 94 94
68 68 68
70 70 70
76 76 76
94 94 94
68 68 68
70 70 70
76 76 76
94 94 94
68 68 68
70 70 70
76 76 76
94 94 94
68 68 68
70 70 70
76 76 76
94 94 94
68 68 68
70 70 70
76 76 76
94 94 94
108 108 108
117 117 117
114 114 114
48 48 48
109 109 109
117 117 117
115 115 115
60 60 60
111 111 111
118 118 118
117 117 117
0 0 0
0 0 0
0 0 0
0 0 0
0 0 0
0 0 0
0 0 0
0 0 0
0 0 0
11 11 11
16 16 16
18 18 18
12 12 12
31 31 31
36 36 36
38 38 38
17 17 17
35 35 35
36 36 36
39 39 39
40 40 40
50 50 50
55 55 55
60 60 60
64 64 64
70 70 70
76 76 76
83 83 83
90 90 90
64 64 64
70 70 70
78 78 78
88 88 88
60 60 60
64 64 64
74 74 74
87 87 87
81 81 81
82 82 82
90 90 90
107 107 107
94 94 94
76 76 76
83 83 83
99 99 99
79 79 79
73 73 73
79 79 79
97 97 97
72 72 72
70 70 70
77 77 77
96 96 96
70 70 70
70 70 70
77 77 77
96 96 96
70 70 70
70 70 70
77 77 77
96 96 96
70 70 70
70 70 70
77 77 77
96 96 96
70 70 70
70 70 70
77 77 77
96 96 96
70 70 70
70 70 70
77 77 77
96 96 96
70 70 70
70 70 70
77 77 77
96 96 96
70 70 70
70 70 70
77 77 77
96 96 96
70 70 70
70 70 70
77 77 77
96 96 96
70 70 70
70 70 70
77 77 77
96 96 96
70 70 70
70 70 70
77 77 77
96 96 96
70 70 70
70 70 70
77 77 77
96 96 96
70 70 70
70 70 70
77 77 77
96 96 96
70 70 70
70 70 70
77 77 77
96 96 96
70 70 70
70 70 70
77 77 77
96 96 96
70 70 70
70 70 70
77 77 77
96 96 96
70 70 70
70 70 70
77 77 77
96 96 96
91 91 91
100 100 100
96 96 96
28 28 28
94 94 94
102 102 102
100 100 100
43 43 43
97 97 97
104 104 104
103 103 103
0 0 0
0 0 0
0 0 0
0 0 0
0 0 0
0 0 0
0 0 0
0 0 0
0 0 0
3 3 3
8 8 8
9 9 9
2 2 2
24 24 24
28 28 28
31 31 31
9 9 9
25 25 25
29 29 29
33 33 33
33 33 33
45 45 45
50 50 50
55 55 55
59 59 59
67 67 67
39 39 39
46 46 46
53 53 53
57 57 57
64 64 64
72 72 72
83 83 83
83 83 83
90 90 90
99 99 99
114 114 114
76 76 76
83 83 83
93 93 93
110 110 110
98 98 98
81 81 81
88 88 88
106 106 106
85 85 85
81 81 81
86 86 86
105 105 105
78 78 78
77 77 77
84 84 84
104 104 104
75 75 75
77 77 77
84 84 84
104 104 104
76 76 76
77 77 77
84 84 84
104 104 104
76 76 76
77 77 77
84 84 84
104 104 104
76 76 76
77 77 77
84 84 84
104 104 104
76 76 76
77 77 77
84 84 84
104 104 104
76 76 76
77 77 77
84 84 84
104 104 104
76 76 76
77 77 77
84 84 84
104 104 104
76 76 76
77 77 77
84 84 84
104 104 104
76 76 76
77 77 77
84 84 84
104 104 104
76 76 76
77 77 77
84 84 84
104 104 104
76 76 76
77 77 77
84 84 84
104 104 104
76 76 76
77 77 77
84 84 84
104 104 104
76 76 76
77 77 77
84 84 84
104 104 104
76 76 76
77 77 77
84 84 84
104 104 104
76 76 76
77 77 77
84 84 84
104 104 104
76 76 76
77 77 77
84 84 84
104 104 104
58 58 58
69 69 69
64 64 64
0 0 0
68 68 68
77 77 77
74 74 74
14 14 14
76 76 76
84 84 84
83 83 83
0 0 0
0 0 0
0 0 0
0 0 0
0 0 0
0 0 0
0 0 0
0 0 0
0 0 0
0 0 0
0 0 0
0 0 0
0 0 0
17 17 17
22 22 22
25 25 25
2 2 2
21 21 21
26 26 26
30 30 30
0 0 0
11 11 11
16 16 16
22 22 22
26 26 26
35 35 35
42 42 42
49 49 49
57 57 57
63 63 63
70 70 70
79 79 79
92 92 92
92 92 92
100 100 100
111 111 111
127 127 127
89 89 89
96 96 96
108 108 108
127 127 127
113 113 113
97 97 97
107 107 107
127 127 127
104 104 104
99 99 99
107 107 107
127 127 127
97 97 97
96 96 96
104 104 104
127 127 127
94 94 94
96 96 96
104 104 104
127 127 127
94 94 94
96 96 96
104 104 104
127 127 127
94 94 94
96 96 96
104 104 104
127 127 127
94 94 94
96 96 96
104 104 104
127 127 127
94 94 94
96 96 96
104 104 104
127 127 127
94 94 94
96 96 96
104 104 104
127 127 127
94 94 94
96 96 96
104 104 104
127 127 127
94 94 94
96 96 96
104 104 104
127 127 127
94 94 94
96 96 96
104 104 104
127 127 127
94 94 94
96 96 96
104 104 104
127 127 127
94 94 94
96 96 96
104 104 104
127 127 127
94 94 94
96 96 96
104 104 104
127 127 127
94 94 94
96 96 96
104 104 104
127 127 127
94 94 94
96 96 96
104 104 104
127 127 127
94 94 94
96 96 96
104 104 104
127 127 127
94 94 94
96 96 96
104 104 104
127 127 127
119 119 119
127 127 127
122 122 122
53 53 53
119 119 119
127 127 127
124 124 124
64 64 64
120 120 120
127 127 127
125 125 125
74 74 74
121 121 121
127 127 127
126 126 126
0 0 0
0 0 0
0 0 0
0 0 0
0 0 0
0 0 0
0 0 0
0 0 0
0 0 0
6 6 6
10 10 10
11 11 11
0 0 0
6 6 6
10 10 10
12 12 12
0 0 0
0 0 0
0 0 0
1 1 1
2 2 2
14 14 14
20 20 20
25 25 25
30 30 30
38 38 38
45 45 45
52 52 52
60 60 60
65 65 65
72 72 72
80 80 80
92 92 92
59 59 59
66 66 66
75 75 75
90 90 90
83 83 83
68 68 68
76 76 76
92 92 92
76 76 76
73 73 73
78 78 78
94 94 94
70 70 70
70 70 70
75 75 75
94 94 94
67 67 67
70 70 70
76 76 76
94 94 94
68 68 68
70 70 70
76 76 76
94 94 94
68 68 68
70 70 70
76 76 76
94 94 94
68 68 68
70 70 70
76 76 76
94 94 94
68 68 68
70 70 70
76 76 76
94 94 94
68 68 68
70 70 70
76 76 76
94 94 94
68 68 68
70 70 70
76 76 76
94 94 94
68 68 68
70 70 70
76 76 76
94 94 94
68 68 68
70 70 70
76 76 76
94 94 94
68 68 68
70 70 70
76 76 76
94 94 94
68 68 68
70 70 70
76 76 76
94 94 94
68 68 68
70 70 70
76 76 76
94 94 94
68 68 68
70 70 70
76 76 76
94 94 94
68 68 68
70 70 70
76 76 76
94 94 94
68 68 68
70 70 70
76 76 76
94 94 94
68 68 68
70 70 70
76 76 76
94 94 94
108 108 108
117 117 117
111 111 111
41 41 41
109 109 109
117 117 117
113 113 113
52 52 52
110 110 110
117 117 117
114 114 114
62 62 62
111 111 111
117 117 117
115 115 115
0 0 0
0 0 0
0 0 0
0 0 0
0 0 0
0 0 0
0 0 0
0 0 0
0 0 0
0 0 0
1 1 1
1 1 1
0 0 0
0 0 0
1 1 1
3 3 3
0 0 0
0 0 0
0 0 0
0 0 0
0 0 0
10 10 10
12 12 12
17 17 17
21 21 21
31 31 31
38 38 38
45 45 45
52 52 52
60 60 60
67 67 67
75 75 75
86 86 86
56 56 56
62 62 62
73 73 73
86 86 86
80 80 80
81 81 81
88 88 88
105 105 105
91 91 91
77 77 77
83 83 83
98 98 98
77 77 77
71 71 71
78 78 78
97 97 97
71 71 71
70 70 70
77 77 77
96 96 96
70 70 70
70 70 70
77 77 77
96 96 96
70 70 70
70 70 70
77 77 77
96 96 96
70 70 70
70 70 70
77 77 77
96 96 96
70 70 70
70 70 70
77 77 77
96 96 96
70 70 70
70 70 70
77 77 77
96 96 96
70 70 70
70 70 70
77 77 77
96 96 96
70 70 70
70 70 70
77 77 77
96 96 96
70 70 70
70 70 70
77 77 77
96 96 96
70 70 70
70 70 70
77 77 77
96 96 96
70 70 70
70 70 70
77 77 77
96 96 96
70 70 70
70 70 70
77 77 77
96 96 96
70 70 70
70 70 70
77 77 77
96 96 96
70 70 70
70 70 70
77 77 77
96 96 96
70 70 70
70 70 70
77 77 77
96 96 96
70 70 70
70 70 70
77 77 77
96 96 96
89 89 89
98 98 98
92 92 92
19 19 19
92 92 92
100 100 100
95 95 95
32 32 32
95 95 95
102 102 102
98 98 98
45 45 45
97 97 97
103 103 103
101 101 101
0 0 0
0 0 0
0 0 0
0 0 0
0 0 0
0 0 0
0 0 0
0 0 0
0 0 0
0 0 0
0 0 0
0 0 0
0 0 0
0 0 0
0 0 0
0 0 0
0 0 0
0 0 0
0 0 0
0 0 0
0 0 0
1 1 1
6 6 6
11 11 11
14 14 14
27 27 27
34 34 34
41 41 41
42 42 42
50 50 50
58 58 58
67 67 67
78 78 78
80 80 80
88 88 88
98 98 98
113 113 113
75 75 75
81 81 81
92 92 92
109 109 109
95 95 95
82 82 82
89 89 89
106 106 106
82 82 82
79 79 79
85 85 85
105 105 105
77 77 77
77 77 77
84 84 84
104 104 104
75 75 75
77 77 77
84 84 84
104 104 104
76 76 76
77 77 77
84 84 84
104 104 104
76 76 76
77 77 77
84 84 84
104 104 104
76 76 76
77 77 77
84 84 84
104 104 104
76 76 76
77 77 77
84 84 84
104 104 104
76 76 76
77 77 77
84 84 84
104 104 104
76 76 76
77 77 77
84 84 84
104 104 104
76 76 76
77 77 77
84 84 84
104 104 104
76 76 76
77 77 77
84 84 84
104 104 104
76 76 76
77 77 77
84 84 84
104 104 104
76 76 76
77 77 77
84 84 84
104 104 104
76 76 76
77 77 77
84 84 84
104 104 104
76 76 76
77 77 77
84 84 84
104 104 104
76 76 76
77 77 77
84 84 84
104 104 104
76 76 76
77 77 77
84 84 84
104 104 104
52 52 52
62 62 62
55 55 55
0 0 0
60 60 60
69 69 69
64 64 64
0 0 0
68 68 68
76 76 76
72 72 72
16 16 16
75 75 75
82 82 82
79 79 79
0 0 0
0 0 0
0 0 0
0 0 0
0 0 0
0 0 0
0 0 0
0 0 0
0 0 0
0 0 0
0 0 0
0 0 0
0 0 0
0 0 0
0 0 0
0 0 0
0 0 0
0 0 0
0 0 0
0 0 0
0 0 0
0 0 0
4 4 4
10 10 10
7 7 7
22 22 22
30 30 30
38 38 38
46 46 46
55 55 55
64 64 64
74 74 74
87 87 87
90 90 90
99 99 99
110 110 110
127 127 127
88 88 88
96 96 96
108 108 108
127 127 127
112 112 112
99 99 99
108 108 108
127 127 127
101 101 101
97 97 97
105 105 105
127 127 127
96 96 96
96 96 96
104 104 104
127 127 127
94 94 94
96 96 96
104 104 104
127 127 127
94 94 94
96 96 96
104 104 104
127 127 127
94 94 94
96 96 96
104 104 104
127 127 127
94 94 94
96 96 96
104 104 104
127 127 127
94 94 94
96 96 96
104 104 104
127 127 127
94 94 94
96 96 96
104 104 104
127 127 127
94 94 94
96 96 96
104 104 104
127 127 127
94 94 94
96 96 96
104 104 104
127 127 127
94 94 94
96 96 96
104 104 104
127 127 127
94 94 94
96 96 96
104 104 104
127 127 127
94 94 94
96 96 96
104 104 104
127 127 127
94 94 94
96 96 96
104 104 104
127 127 127
94 94 94
96 96 96
104 104 104
127 127 127
94 94 94
96 96 96
104 104 104
127 127 127
94 94 94
96 96 96
104 104 104
127 127 127
119 119 119
127 127 127
120 120 120
47 47 47
120 120 120
127 127 127
121 121 121
57 57 57
121 121 121
127 127 127
123 123 123
67 67 67
121 121 121
127 127 127
123 123 123
76 76 76
122 122 122
127 127 127
124 124 124
0 0 0
0 0 0
0 0 0
0 0 0
0 0 0
0 0 0
0 0 0
0 0 0
0 0 0
0 0 0
0 0 0
0 0 0
0 0 0
0 0 0
0 0 0
0 0 0
0 0 0
0 0 0
0 0 0
0 0 0
0 0 0
0 0 0
7 7 7
14 14 14
18 18 18
30 30 30
38 38 38
46 46 46
54 54 54
61 61 61
69 69 69
78 78 78
91 91 91
57 57 57
64 64 64
75 75 75
90 90 90
82 82 82
71 71 71
77 77 77
93 93 93
74 74 74
72 72 72
77 77 77
94 94 94
69 69 69
70 70 70
75 75 75
94 94 94
68 68 68
70 70 70
76 76 76
94 94 94
68 68 68
70 70 70
76 76 76
94 94 94
68 68 68
70 70 70
76 76 76
94 94 94
68 68 68
70 70 70
76 76 76
94 94 94
68 68 68
70 70 70
76 76 76
94 94 94
68 68 68
70 70 70
76 76 76
94 94 94
68 68 68
70 70 70
76 76 76
94 94 94
68 68 68
70 70 70
76 76 76
94 94 94
68 68 68
70 70 70
76 76 76
94 94 94
68 68 68
70 70 70
76 76 76
94 94 94
68 68 68
70 70 70
76 76 76
94 94 94
68 68 68
70 70 70
76 76 76
94 94 94
68 68 68
70 70 70
76 76 76
94 94 94
68 68 68
70 70 70
76 76 76
94 94 94
68 68 68
70 70 70
76 76 76
94 94 94
109 109 109
117 117 117
109 109 109
34 34 34
110 110 110
116 116 116
110 110 110
45 45 45
110 110 110
116 116 116
111 111 111
55 55 55
111 111 111
116 116 116
112 112 112
64 64 64
112 112 112
117 117 117
113 113 113
0 0 0
0 0 0
0 0 0
0 0 0
0 0 0
0 0 0
0 0 0
0 0 0
0 0 0
0 0 0
0 0 0
0 0 0
0 0 0
0 0 0
0 0 0
0 0 0
0 0 0
0 0 0
0 0 0
0 0 0
0 0 0
0 0 0
0 0 0
5 5 5
8 8 8
23 23 23
31 31 31
38 38 38
46 46 46
56 56 56
64 64 64
73 73 73
84 84 84
54 54 54
64 64 64
71 71 71
86 86 86
80 80 80
77 77 77
86 86 86
101 101 101
85 85 85
75 75 75
81 81 81
98 98 98
74 74 74
70 70 70
77 77 77
96 96 96
70 70 70
70 70 70
77 77 77
96 96 96
70 70 70
70 70 70
77 77 77
96 96 96
70 70 70
70 70 70
77 77 77
96 96 96
70 70 70
70 70 70
77 77 77
96 96 96
70 70 70
70 70 70
77 77 77
96 96 96
70 70 70
70 70 70
77 77 77
96 96 96
70 70 70
70 70 70
77 77 77
96 96 96
70 70 70
70 70 70
77 77 77
96 96 96
70 70 70
70 70 70
77 77 77
96 96 96
70 70 70
70 70 70
77 77 77
96 96 96
70 70 70
70 70 70
77 77 77
96 96 96
70 70 70
70 70 70
77 77 77
96 96 96
70 70 70
70 70 70
77 77 77
96 96 96
70 70 70
70 70 70
77 77 77
96 96 96
70 70 70
70 70 70
77 77 77
96 96 96
88 88 88
96 96 96
88 88 88
10 10 10
90 90 90
97 97 97
91 91 91
23 23 23
92 92 92
99 99 99
93 93 93
35 35 35
95 95 95
101 101 101
96 96 96
45 45 45
97 97 97
102 102 102
98 98 98
0 0 0
0 0 0
0 0 0
0 0 0
0 0 0
0 0 0
0 0 0
0 0 0
0 0 0
0 0 0
0 0 0
0 0 0
0 0 0
0 0 0
0 0 0
0 0 0
0 0 0
0 0 0
0 0 0
0 0 0
0 0 0
0 0 0
0 0 0
0 0 0
1 1 1
18 18 18
26 26 26
34 34 34
33 33 33
44 44 44
53 53 53
63 63 63
74 74 74
78 78 78
87 87 87
97 97 97
113 113 113
74 74 74
81 81 81
90 90 90
107 107 107
91 91 91
83 83 83
88 88 88
105 105 105
80 80 80
77 77 77
84 84 84
104 104 104
76 76 76
77 77 77
84 84 84
104 104 104
76 76 76
77 77 77
84 84 84
104 104 104
76 76 76
77 77 77
84 84 84
104 104 104
76 76 76
77 77 77
84 84 84
104 104 104
76 76 76
77 77 77
84 84 84
104 104 104
76 76 76
77 77 77
84 84 84
104 104 104
76 76 76
77 77 77
84 84 84
104 104 104
76 76 76
77 77 77
84 84 84
104 104 104
76 76 76
77 77 77
84 84 84
104 104 104
76 76 76
77 77 77
84 84 84
104 104 104
76 76 76
77 77 77
84 84 84
104 104 104
76 76 76
77 77 77
84 84 84
104 104 104
76 76 76
77 77 77
84 84 84
104 104 104
76 76 76
77 77 77
84 84 84
104 104 104
76 76 76
77 77 77
84 84 84
104 104 104
46 46 46
55 55 55
45 45 45
0 0 0
53 53 53
61 61 61
54 54 54
0 0 0
60 60 60
68 68 68
61 61 61
0 0 0
67 67 67
74 74 74
68 68 68
13 13 13
73 73 73
79 79 79
74 74 74
0 0 0
0 0 0
0 0 0
0 0 0
0 0 0
0 0 0
0 0 0
0 0 0
0 0 0
0 0 0
0 0 0
0 0 0
0 0 0
0 0 0
0 0 0
0 0 0
0 0 0
0 0 0
0 0 0
0 0 0
0 0 0
0 0 0
0 0 0
0 0 0
0 0 0
11 11 11
20 20 20
29 29 29
37 37 37
50 50 50
60 60 60
71 71 71
84 84 84
88 88 88
98 98 98
110 110 110
127 127 127
88 88 88
96 96 96
107 107 107
127 127 127
110 110 110
101 101 101
108 108 108
127 127 127
99 99 99
96 96 96
104 104 104
127 127 127
95 95 95
96 96 96
104 104 104
127 127 127
94 94 94
96 96 96
104 104 104
127 127 127
94 94 94
96 96 96
104 104 104
127 127 127
94 94 94
96 96 96
104 104 104
127 127 127
94 94 94
96 96 96
104 104 104
127 127 127
94 94 94
96 96 96
104 104 104
127 127 127
94 94 94
96 96 96
104 104 104
127 127 127
94 94 94
96 96 96
104 104 104
127 127 127
94 94 94
96 96 96
104 104 104
127 127 127
94 94 94
96 96 96
104 104 104
127 127 127
94 94 94
96 96 96
104 104 104
127 127 127
94 94 94
96 96 96
104 104 104
127 127 127
94 94 94
96 96 96
104 104 104
127 127 127
94 94 94
96 96 96
104 104 104
127 127 127
94 94 94
96 96 96
104 104 104
127 127 127
120 120 120
127 127 127
117 117 117
40 40 40
121 121 121
127 127 127
119 119 119
51 51 51
121 121 121
127 127 127
120 120 120
60 60 60
122 122 122
127 127 127
121 121 121
68 68 68
122 122 122
127 127 127
122 122 122
76 76 76
123 123 123
127 127 127
123 123 123
0 0 0
0 0 0
0 0 0
0 0 0
0 0 0
0 0 0
0 0 0
0 0 0
0 0 0
0 0 0
0 0 0
0 0 0
0 0 0
0 0 0
0 0 0
0 0 0
0 0 0
0 0 0
0 0 0
0 0 0
0 0 0
0 0 0
0 0 0
4 4 4
8 8 8
23 23 23
32 32 32
41 41 41
49 49 49
58 58 58
66 66 66
76 76 76
89 89 89
56 56 56
64 64 64
75 75 75
91 91 91
81 81 81
73 73 73
78 78 78
93 93 93
72 72 72
70 70 70
76 76 76
94 94 94
68 68 68
70 70 70
76 76 76
94 94 94
68 68 68
70 70 70
76 76 76
94 94 94
68 68 68
70 70 70
76 76 76
94 94 94
68 68 68
70 70 70
76 76 76
94 94 94
68 68 68
70 70 70
76 76 76
94 94 94
68 68 68
70 70 70
76 76 76
94 94 94
68 68 68
70 70 70
76 76 76
94 94 94
68 68 68
70 70 70
76 76 76
94 94 94
68 68 68
70 70 70
76 76 76
94 94 94
68 68 68
70 70 70
76 76 76
94 94 94
68 68 68
70 70 70
76 76 76
94 94 94
68 68 68
70 70 70
76 76 76
94 94 94
68 68 68
70 70 70
76 76 76
94 94 94
68 68 68
70 70 70
76 76 76
94 94 94
68 68 68
70 70 70
76 76 76
94 94 94
109 109 109
116 116 116
106 106 106
27 27 27
110 110 110
116 116 116
108 108 108
38 38 38
110 110 110
116 116 116
109 109 109
47 47 47
111 111 111
116 116 116
110 110 110
55 55 55
112 112 112
116 116 116
110 110 110
63 63 63
112 112 112
116 116 116
111 111 111
0 0 0
0 0 0
0 0 0
0 0 0
0 0 0
0 0 0
0 0 0
0 0 0
0 0 0
0 0 0
0 0 0
0 0 0
0 0 0
0 0 0
0 0 0
0 0 0
0 0 0
0 0 0
0 0 0
0 0 0
0 0 0
0 0 0
0 0 0
0 0 0
0 0 0
15 15 15
24 24 24
33 33 33
40 40 40
52 52 52
61 61 61
70 70 70
82 82 82
53 53 53
63 63 63
71 71 71
86 86 86
79 79 79
79 79 79
85 85 85
100 100 100
82 82 82
74 74 74
80 80 80
97 97 97
73 73 73
70 70 70
77 77 77
96 96 96
70 70 70
70 70 70
77 77 77
96 96 96
70 70 70
70 70 70
77 77 77
96 96 96
70 70 70
70 70 70
77 77 77
96 96 96
70 70 70
70 70 70
77 77 77
96 96 96
70 70 70
70 70 70
77 77 77
96 96 96
70 70 70
70 70 70
77 77 77
96 96 96
70 70 70
70 70 70
77 77 77
96 96 96
70 70 70
70 70 70
77 77 77
96 96 96
70 70 70
70 70 70
77 77 77
96 96 96
70 70 70
70 70 70
77 77 77
96 96 96
70 70 70
70 70 70
77 77 77
96 96 96
70 70 70
70 70 70
77 77 77
96 96 96
70 70 70
70 70 70
77 77 77
96 96 96
70 70 70
70 70 70
77 77 77
96 96 96
86 86 86
94 94 94
82 82 82
0 0 0
89 89 89
95 95 95
86 86 86
14 14 14
91 91 91
96 96 96
88 88 88
25 25 25
93 93 93
98 98 98
91 91 91
35 35 35
94 94 94
99 99 99
93 93 93
44 44 44
96 96 96
100 100 100
95 95 95
0 0 0
0 0 0
0 0 0
0 0 0
0 0 0
0 0 0
0 0 0
0 0 0
0 0 0
0 0 0
0 0 0
0 0 0
0 0 0
0 0 0
0 0 0
0 0 0
0 0 0
0 0 0
0 0 0
0 0 0
0 0 0
0 0 0
0 0 0
0 0 0
0 0 0
10 10 10
19 19 19
28 28 28
28 28 28
41 41 41
50 50 50
61 61 61
73 73 73
77 77 77
86 86 86
97 97 97
113 113 113
107 107 107
82 82 82
90 90 90
107 107 107
88 88 88
82 82 82
87 87 87
105 105 105
78 78 78
77 77 77
84 84 84
104 104 104
75 75 75
77 77 77
84 84 84
104 104 104
76 76 76
77 77 77
84 84 84
104 104 104
76 76 76
77 77 77
84 84 84
104 104 104
76 76 76
77 77 77
84 84 84
104 104 104
76 76 76
77 77 77
84 84 84
104 104 104
76 76 76
77 77 77
84 84 84
104 104 104
76 76 76
77 77 77
84 84 84
104 104 104
76 76 76
77 77 77
84 84 84
104 104 104
76 76 76
77 77 77
84 84 84
104 104 104
76 76 76
77 77 77
84 84 84
104 104 104
76 76 76
77 77 77
84 84 84
104 104 104
76 76 76
77 77 77
84 84 84
104 104 104
76 76 76
77 77 77
84 84 84
104 104 104
76 76 76
77 77 77
84 84 84
104 104 104
37 37 37
47 47 47
34 34 34
0 0 0
47 47 47
54 54 54
43 43 43
0 0 0
53 53 53
60 60 60
50 50 50
0 0 0
59 59 59
65 65 65
57 57 57
0 0 0
65 65 65
70 70 70
63 63 63
8 8 8
70 70 70
74 74 74
68 68 68
0 0 0
0 0 0
0 0 0
0 0 0
0 0 0
0 0 0
0 0 0
0 0 0
0 0 0
0 0 0
0 0 0
0 0 0
0 0 0
0 0 0
0 0 0
0 0 0
0 0 0
0 0 0
0 0 0
0 0 0
0 0 0
0 0 0
0 0 0
0 0 0
0 0 0
3 3 3
13 13 13
23 23 23
31 31 31
46 46 46
57 57 57
69 69 69
82 82 82
87 87 87
97 97 97
109 109 109
127 127 127
120 120 120
97 97 97
107 107 107
127 127 127
107 107 107
100 100 100
107 107 107
127 127 127
97 97 97
95 95 95
104 104 104
127 127 127
94 94 94
96 96 96
104 104 104
127 127 127
94 94 94
96 96 96
104 104 104
127 127 127
94 94 94
96 96 96
104 104 104
127 127 127
94 94 94
96 96 96
104 104 104
127 127 127
94 94 94
96 96 96
104 104 104
127 127 127
94 94 94
96 96 96
104 104 104
127 127 127
94 94 94
96 96 96
104 104 104
127 127 127
94 94 94
96 96 96
104 104 104
127 127 127
94 94 94
96 96 96
104 104 104
127 127 127
94 94 94
96 96 96
104 104 104
127 127 127
94 94 94
96 96 96
104 104 104
127 127 127
94 94 94
96 96 96
104 104 104
127 127 127
94 94 94
96 96 96
104 104 104
127 127 127
94 94 94
96 96 96
104 104 104
127 127 127
119 119 119
127 127 127
115 115 115
31 31 31
121 121 121
127 127 127
117 117 117
44 44 44
122 122 122
127 127 127
118 118 118
53 53 53
122 122 122
127 127 127
119 119 119
61 61 61
123 123 123
127 127 127
120 120 120
68 68 68
124 124 124
127 127 127
120 120 120
74 74 74
124 124 124
127 127 127
122 122 122
78 78 78
123 123 123
127 127 127
123 123 123
0 0 0
0 0 0
0 0 0
0 0 0
0 0 0
0 0 0
0 0 0
0 0 0
0 0 0
0 0 0
0 0 0
0 0 0
0 0 0
0 0 0
0 0 0
0 0 0
0 0 0
0 0 0
0 0 0
0 0 0
0 0 0
18 18 18
27 27 27
37 37 37
46 46 46
55 55 55
64 64 64
74 74 74
88 88 88
87 87 87
65 65 65
75 75 75
91 91 91
79 79 79
74 74 74
78 78 78
93 93 93
70 70 70
70 70 70
75 75 75
94 94 94
67 67 67
70 70 70
76 76 76
94 94 94
68 68 68
70 70 70
76 76 76
94 94 94
68 68 68
70 70 70
76 76 76
94 94 94
68 68 68
70 70 70
76 76 76
94 94 94
68 68 68
70 70 70
76 76 76
94 94 94
68 68 68
70 70 70
76 76 76
94 94 94
68 68 68
70 70 70
76 76 76
94 94 94
68 68 68
70 70 70
76 76 76
94 94 94
68 68 68
70 70 70
76 76 76
94 94 94
68 68 68
70 70 70
76 76 76
94 94 94
68 68 68
70 70 70
76 76 76
94 94 94
68 68 68
70 70 70
76 76 76
94 94 94
68 68 68
70 70 70
76 76 76
94 94 94
68 68 68
70 70 70
76 76 76
94 94 94
105 105 105
113 113 113
101 101 101
16 16 16
110 110 110
116 116 116
105 105 105
31 31 31
111 111 111
116 116 116
106 106 106
39 39 39
111 111 111
116 116 116
107 107 107
47 47 47
112 112 112
115 115 115
108 108 108
55 55 55
112 112 112
115 115 115
108 108 108
60 60 60
112 112 112
116 116 116
109 109 109
65 65 65
112 112 112
116 116 116
111 111 111
0 0 0
0 0 0
0 0 0
0 0 0
0 0 0
0 0 0
0 0 0
0 0 0
0 0 0
0 0 0
0 0 0
0 0 0
0 0 0
0 0 0
0 0 0
0 0 0
0 0 0
0 0 0
0 0 0
0 0 0
0 0 0
9 9 9
19 19 19
28 28 28
36 36 36
49 49 49
58 58 58
68 68 68
81 81 81
55 55 55
64 64 64
71 71 71
86 86 86
78 78 78
79 79 79
85 85 85
100 100 100
80 80 80
73 73 73
79 79 79
97 97 97
72 72 72
70 70 70
77 77 77
95 95 95
70 70 70
70 70 70
77 77 77
96 96 96
70 70 70
70 70 70
77 77 77
96 96 96
70 70 70
70 70 70
77 77 77
96 96 96
70 70 70
70 70 70
77 77 77
96 96 96
70 70 70
70 70 70
77 77 77
96 96 96
70 70 70
70 70 70
77 77 77
96 96 96
70 70 70
70 70 70
77 77 77
96 96 96
70 70 70
70 70 70
77 77 77
96 96 96
70 70 70
70 70 70
77 77 77
96 96 96
70 70 70
70 70 70
77 77 77
96 96 96
70 70 70
70 70 70
77 77 77
96 96 96
70 70 70
70 70 70
77 77 77
96 96 96
70 70 70
70 70 70
77 77 77
96 96 96
76 76 76
85 85 85
73 73 73
0 0 0
86 86 86
92 92 92
80 80 80
3 3 3
89 89 89
94 94 94
84 84 84
15 15 15
90 90 90
95 95 95
85 85 85
24 24 24
92 92 92
96 96 96
87 87 87
33 33 33
94 94 94
97 97 97
89 89 89
40 40 40
95 95 95
98 98 98
91 91 91
45 45 45
95 95 95
99 99 99
94 94 94
0 0 0
0 0 0
0 0 0
0 0 0
0 0 0
0 0 0
0 0 0
0 0 0
0 0 0
0 0 0
0 0 0
0 0 0
0 0 0
0 0 0
0 0 0
0 0 0
0 0 0
0 0 0
0 0 0
0 0 0
0 0 0
4 4 4
14 14 14
23 23 23
26 26 26
40 40 40
50 50 50
61 61 61
73 73 73
77 77 77
86 86 86
97 97 97
113 113 113
105 105 105
83 83 83
90 90 90
107 107 107
87 87 87
81 81 81
87 87 87
105 105 105
78 78 78
77 77 77
84 84 84
104 104 104
75 75 75
77 77 77
84 84 84
104 104 104
75 75 75
77 77 77
84 84 84
104 104 104
76 76 76
77 77 77
84 84 84
104 104 104
76 76 76
77 77 77
84 84 84
104 104 104
76 76 76
77 77 77
84 84 84
104 104 104
76 76 76
77 77 77
84 84 84
104 104 104
76 76 76
77 77 77
84 84 84
104 104 104
76 76 76
77 77 77
84 84 84
104 104 104
76 76 76
77 77 77
84 84 84
104 104 104
76 76 76
77 77 77
84 84 84
104 104 104
76 76 76
77 77 77
84 84 84
104 104 104
76 76 76
77 77 77
84 84 84
104 104 104
76 76 76
77 77 77
84 84 84
104 104 104
18 18 18
29 29 29
16 16 16
0 0 0
37 37 37
45 45 45
31 31 31
0 0 0
46 46 46
52 52 52
40 40 40
0 0 0
51 51 51
57 57 57
46 46 46
0 0 0
57 57 57
61 61 61
51 51 51
0 0 0
61 61 61
66 66 66
56 56 56
1 1 1
65 65 65
69 69 69
62 62 62
10 10 10
69 69 69
73 73 73
68 68 68
0 0 0
0 0 0
0 0 0
0 0 0
0 0 0
0 0 0
0 0 0
0 0 0
0 0 0
0 0 0
0 0 0
0 0 0
0 0 0
0 0 0
0 0 0
0 0 0
0 0 0
0 0 0
0 0 0
0 0 0
0 0 0
0 0 0
11 11 11
21 21 21
29 29 29
46 46 46
57 57 57
69 69 69
83 83 83
88 88 88
97 97 97
109 109 109
127 127 127
119 119 119
97 97 97
107 107 107
127 127 127
106 106 106
100 100 100
107 107 107
127 127 127
96 96 96
95 95 95
104 104 104
127 127 127
94 94 94
96 96 96
104 104 104
127 127 127
94 94 94
96 96 96
104 104 104
127 127 127
94 94 94
96 96 96
104 104 104
127 127 127
94 94 94
96 96 96
104 104 104
127 127 127
94 94 94
96 96 96
104 104 104
127 127 127
94 94 94
96 96 96
104 104 104
127 127 127
94 94 94
96 96 96
104 104 104
127 127 127
94 94 94
96 96 96
104 104 104
127 127 127
94 94 94
96 96 96
104 104 104
127 127 127
94 94 94
96 96 96
104 104 104
127 127 127
94 94 94
96 96 96
104 104 104
127 127 127
94 94 94
96 96 96
104 104 104
127 127 127
94 94 94
96 96 96
104 104 104
127 127 127
117 117 117
127 127 127
116 116 116
16 16 16
120 120 120
127 127 127
115 115 115
33 33 33
122 122 122
127 127 127
115 115 115
45 45 45
123 123 123
127 127 127
117 117 117
54 54 54
124 124 124
127 127 127
117 117 117
61 61 61
124 124 124
127 127 127
118 118 118
66 66 66
124 124 124
127 127 127
119 119 119
70 70 70
123 123 123
127 127 127
121 121 121
72 72 72
123 123 123
127 127 127
123 123 123
75 75 75
121 121 121
127 127 127
125 125 125
0 0 0
0 0 0
0 0 0
0 0 0
0 0 0
0 0 0
0 0 0
0 0 0
0 0 0
0 0 0
0 0 0
0 0 0
0 0 0
0 0 0
0 0 0
0 0 0
0 0 0
15 15 15
25 25 25
35 35 35
44 44 44
53 53 53
62 62 62
73 73 73
87 87 87
85 85 85
65 65 65
74 74 74
90 90 90
77 77 77
73 73 73
77 77 77
93 93 93
70 70 70
70 70 70
75 75 75
94 94 94
67 67 67
70 70 70
75 75 75
94 94 94
68 68 68
70 70 70
76 76 76
94 94 94
68 68 68
70 70 70
76 76 76
94 94 94
68 68 68
70 70 70
76 76 76
94 94 94
68 68 68
70 70 70
76 76 76
94 94 94
68 68 68
70 70 70
76 76 76
94 94 94
68 68 68
70 70 70
76 76 76
94 94 94
68 68 68
70 70 70
76 76 76
94 94 94
68 68 68
70 70 70
76 76 76
94 94 94
68 68 68
70 70 70
76 76 76
94 94 94
68 68 68
70 70 70
76 76 76
94 94 94
68 68 68
70 70 70
76 76 76
94 94 94
68 68 68
70 70 70
76 76 76
94 94 94
100 100 100
110 110 110
98 98 98
0 0 0
105 105 105
112 112 112
100 100 100
16 16 16
110 110 110
115 115 115
103 103 103
31 31 31
112 112 112
116 116 116
104 104 104
40 40 40
112 112 112
115 115 115
105 105 105
47 47 47
112 112 112
115 115 115
106 106 106
52 52 52
112 112 112
115 115 115
107 107 107
56 56 56
112 112 112
115 115 115
108 108 108
58 58 58
111 111 111
115 115 115
111 111 111
61 61 61
110 110 110
115 115 115
113 113 113
0 0 0
0 0 0
0 0 0
0 0 0
0 0 0
0 0 0
0 0 0
0 0 0
0 0 0
0 0 0
0 0 0
0 0 0
0 0 0
0 0 0
0 0 0
0 0 0
0 0 0
7 7 7
16 16 16
25 25 25
33 33 33
46 46 46
55 55 55
65 65 65
78 78 78
55 55 55
60 60 60
71 71 71
85 85 85
75 75 75
79 79 79
85 85 85
101 101 101
80 80 80
73 73 73
79 79 79
97 97 97
72 72 72
70 70 70
76 76 76
95 95 95
69 69 69
70 70 70
77 77 77
96 96 96
70 70 70
70 70 70
77 77 77
96 96 96
70 70 70
70 70 70
77 77 77
96 96 96
70 70 70
70 70 70
77 77 77
96 96 96
70 70 70
70 70 70
77 77 77
96 96 96
70 70 70
70 70 70
77 77 77
96 96 96
70 70 70
70 70 70
77 77 77
96 96 96
70 70 70
70 70 70
77 77 77
96 96 96
70 70 70
70 70 70
77 77 77
96 96 96
70 70 70
70 70 70
77 77 77
96 96 96
70 70 70
70 70 70
77 77 77
96 96 96
70 70 70
70 70 70
77 77 77
96 96 96
68 68 68
78 78 78
65 65 65
0 0 0
75 75 75
83 83 83
70 70 70
0 0 0
84 84 84
90 90 90
77 77 77
3 3 3
90 90 90
94 94 94
81 81 81
14 14 14
91 91 91
94 94 94
83 83 83
23 23 23
92 92 92
95 95 95
84 84 84
29 29 29
92 92 92
96 96 96
86 86 86
34 34 34
93 93 93
97 97 97
89 89 89
38 38 38
93 93 93
98 98 98
92 92 92
41 41 41
94 94 94
99 99 99
96 96 96
0 0 0
0 0 0
0 0 0
0 0 0
0 0 0
0 0 0
0 0 0
0 0 0
0 0 0
0 0 0
0 0 0
0 0 0
0 0 0
0 0 0
0 0 0
0 0 0
0 0 0
0 0 0
10 10 10
19 19 19
29 29 29
43 43 43
53 53 53
64 64 64
77 77 77
80 80 80
88 88 88
99 99 99
114 114 114
106 106 106
82 82 82
90 90 90
107 107 107
88 88 88
81 81 81
87 87 87
105 105 105
78 78 78
77 77 77
84 84 84
104 104 104
75 75 75
77 77 77
84 84 84
104 104 104
75 75 75
77 77 77
84 84 84
104 104 104
75 75 75
77 77 77
84 84 84
104 104 104
76 76 76
77 77 77
84 84 84
104 104 104
76 76 76
77 77 77
84 84 84
104 104 104
76 76 76
77 77 77
84 84 84
104 104 104
76 76 76
77 77 77
84 84 84
104 104 104
76 76 76
77 77 77
84 84 84
104 104 104
76 76 76
77 77 77
84 84 84
104 104 104
76 76 76
77 77 77
84 84 84
104 104 104
76 76 76
77 77 77
84 84 84
104 104 104
76 76 76
77 77 77
84 84 84
104 104 104
3 3 3
15 15 15
0 0 0
0 0 0
16 16 16
26 26 26
11 11 11
0 0 0
33 33 33
40 40 40
26 26 26
0 0 0
45 45 45
50 50 50
35 35 35
0 0 0
50 50 50
53 53 53
40 40 40
0 0 0
53 53 53
57 57 57
45 45 45
0 0 0
57 57 57
60 60 60
50 50 50
0 0 0
60 60 60
65 65 65
56 56 56
0 0 0
64 64 64
69 69 69
63 63 63
8 8 8
68 68 68
74 74 74
71 71 71
0 0 0
0 0 0
0 0 0
0 0 0
0 0 0
0 0 0
0 0 0
0 0 0
0 0 0
0 0 0
0 0 0
0 0 0
0 0 0
0 0 0
0 0 0
0 0 0
0 0 0
1 1 1
13 13 13
24 24 24
31 31 31
49 49 49
60 60 60
72 72 72
85 85 85
90 90 90
99 99 99
110 110 110
127 127 127
119 119 119
95 95 95
107 107 107
127 127 127
107 107 107
100 100 100
107 107 107
127 127 127
97 97 97
96 96 96
104 104 104
127 127 127
94 94 94
96 96 96
104 104 104
127 127 127
94 94 94
96 96 96
104 104 104
127 127 127
94 94 94
96 96 96
104 104 104
127 127 127
94 94 94
96 96 96
104 104 104
127 127 127
94 94 94
96 96 96
104 104 104
127 127 127
94 94 94
96 96 96
104 104 104
127 127 127
94 94 94
96 96 96
104 104 104
127 127 127
94 94 94
96 96 96
104 104 104
127 127 127
94 94 94
96 96 96
104 104 104
127 127 127
94 94 94
96 96 96
104 104 104
127 127 127
94 94 94
96 96 96
104 104 104
127 127 127
94 94 94
96 96 96
104 104 104
127 127 127
117 117 117
127 127 127
113 113 113
1 1 1
118 118 118
127 127 127
114 114 114
16 16 16
121 121 121
127 127 127
114 114 114
32 32 32
123 123 123
127 127 127
114 114 114
45 45 45
124 124 124
127 127 127
115 115 115
53 53 53
125 125 125
127 127 127
116 116 116
58 58 58
124 124 124
127 127 127
117 117 117
62 62 62
124 124 124
127 127 127
118 118 118
64 64 64
123 123 123
127 127 127
120 120 120
67 67 67
122 122 122
127 127 127
122 122 122
69 69 69
121 121 121
127 127 127
125 125 125
0 0 0
0 0 0
0 0 0
0 0 0
0 0 0
0 0 0
0 0 0
0 0 0
0 0 0
0 0 0
0 0 0
0 0 0
0 0 0
0 0 0
0 0 0
0 0 0
0 0 0
15 15 15
25 25 25
34 34 34
43 43 43
53 53 53
62 62 62
71 71 71
84 84 84
84 84 84
62 62 62
72 72 72
88 88 88
77 77 77
72 72 72
77 77 77
91 91 91
69 69 69
69 69 69
75 75 75
93 93 93
67 67 67
70 70 70
75 75 75
94 94 94
67 67 67
70 70 70
75 75 75
94 94 94
67 67 67
70 70 70
76 76 76
94 94 94
68 68 68
70 70 70
76 76 76
94 94 94
68 68 68
70 70 70
76 76 76
94 94 94
68 68 68
70 70 70
76 76 76
94 94 94
68 68 68
70 70 70
76 76 76
94 94 94
68 68 68
70 70 70
76 76 76
94 94 94
68 68 68
70 70 70
76 76 76
94 94 94
68 68 68
70 70 70
76 76 76
94 94 94
68 68 68
70 70 70
76 76 76
94 94 94
68 68 68
70 70 70
76 76 76
94 94 94
98 98 98
108 108 108
93 93 93
0 0 0
101 101 101
109 109 109
96 96 96
0 0 0
104 104 104
111 111 111
98 98 98
14 14 14
109 109 109
113 113 113
100 100 100
29 29 29
112 112 112
115 115 115
102 102 102
38 38 38
113 113 113
115 115 115
103 103 103
44 44 44
112 112 112
115 115 115
104 104 104
47 47 47
112 112 112
115 115 115
106 106 106
50 50 50
111 111 111
115 115 115
108 108 108
52 52 52
110 110 110
115 115 115
110 110 110
55 55 55
109 109 109
115 115 115
112 112 112
0 0 0
0 0 0
0 0 0
0 0 0
0 0 0
0 0 0
0 0 0
0 0 0
0 0 0
0 0 0
0 0 0
0 0 0
0 0 0
0 0 0
0 0 0
0 0 0
0 0 0
6 6 6
14 14 14
23 23 23
30 30 30
44 44 44
52 52 52
62 62 62
74 74 74
50 50 50
55 55 55
65 65 65
81 81 81
72 72 72
67 67 67
74 74 74
87 87 87
69 69 69
76 76 76
84 84 84
101 101 101
77 77 77
70 70 70
77 77 77
96 96 96
70 70 70
69 69 69
76 76 76
94 94 94
68 68 68
68 68 68
75 75 75
94 94 94
68 68 68
68 68 68
75 75 75
94 94 94
68 68 68
69 69 69
75 75 75
94 94 94
68 68 68
69 69 69
76 76 76
94 94 94
68 68 68
69 69 69
76 76 76
94 94 94
68 68 68
69 69 69
76 76 76
95 95 95
69 69 69
70 70 70
76 76 76
95 95 95
69 69 69
70 70 70
77 77 77
96 96 96
70 70 70
70 70 70
77 77 77
96 96 96
70 70 70
70 70 70
77 77 77
96 96 96
61 61 61
71 71 71
55 55 55
0 0 0
66 66 66
75 75 75
61 61 61
0 0 0
73 73 73
80 80 80
66 66 66
0 0 0
80 80 80
86 86 86
72 72 72
0 0 0
88 88 88
91 91 91
78 78 78
11 11 11
91 91 91
93 93 93
80 80 80
19 19 19
91 91 91
93 93 93
82 82 82
23 23 23
91 91 91
94 94 94
84 84 84
26 26 26
91 91 91
95 95 95
87 87 87
30 30 30
91 91 91
96 96 96
90 90 90
33 33 33
91 91 91
98 98 98
94 94 94
0 0 0
0 0 0
0 0 0
0 0 0
0 0 0
0 0 0
0 0 0
0 0 0
0 0 0
0 0 0
0 0 0
0 0 0
0 0 0
0 0 0
0 0 0
0 0 0
0 0 0
0 0 0
7 7 7
15 15 15
21 21 21
37 37 37
59 59 59
69 69 69
80 80 80
85 85 85
93 93 93
104 104 104
119 119 119
112 112 112
90 90 90
97 97 97
113 113 113
95 95 95
81 81 81
89 89 89
108 108 108
84 84 84
78 78 78
85 85 85
105 105 105
78 78 78
77 77 77
84 84 84
104 104 104
75 75 75
76 76 76
83 83 83
104 104 104
75 75 75
76 76 76
83 83 83
104 104 104
75 75 75
76 76 76
83 83 83
104 104 104
75 75 75
77 77 77
84 84 84
104 104 104
75 75 75
77 77 77
84 84 84
104 104 104
75 75 75
77 77 77
84 84 84
104 104 104
75 75 75
77 77 77
84 84 84
104 104 104
75 75 75
77 77 77
84 84 84
104 104 104
75 75 75
77 77 77
84 84 84
104 104 104
75 75 75
77 77 77
84 84 84
104 104 104
0 0 0
0 0 0
0 0 0
0 0 0
0 0 0
10 10 10
0 0 0
0 0 0
12 12 12
20 20 20
4 4 4
0 0 0
25 25 25
32 32 32
17 17 17
0 0 0
40 40 40
44 44 44
28 28 28
0 0 0
46 46 46
49 49 49
34 34 34
0 0 0
49 49 49
52 52 52
39 39 39
0 0 0
52 52 52
56 56 56
44 44 44
0 0 0
55 55 55
60 60 60
50 50 50
0 0 0
59 59 59
65 65 65
58 58 58
0 0 0
63 63 63
70 70 70
66 66 66
0 0 0
0 0 0
0 0 0
0 0 0
0 0 0
0 0 0
0 0 0
0 0 0
0 0 0
0 0 0
0 0 0
0 0 0
0 0 0
0 0 0
0 0 0
0 0 0
0 0 0
7 7 7
19 19 19
29 29 29
35 35 35
53 53 53
64 64 64
75 75 75
86 86 86
92 92 92
101 101 101
111 111 111
127 127 127
120 120 120
99 99 99
108 108 108
127 127 127
109 109 109
96 96 96
106 106 106
127 127 127
102 102 102
97 97 97
105 105 105
127 127 127
97 97 97
96 96 96
104 104 104
127 127 127
94 94 94
95 95 95
104 104 104
127 127 127
94 94 94
95 95 95
104 104 104
127 127 127
94 94 94
95 95 95
104 104 104
127 127 127
94 94 94
95 95 95
104 104 104
127 127 127
94 94 94
95 95 95
104 104 104
127 127 127
94 94 94
96 96 96
104 104 104
127 127 127
94 94 94
96 96 96
104 104 104
127 127 127
94 94 94
96 96 96
104 104 104
127 127 127
94 94 94
96 96 96
104 104 104
127 127 127
94 94 94
96 96 96
104 104 104
127 127 127
117 117 117
127 127 127
110 110 110
0 0 0
118 118 118
127 127 127
111 111 111
0 0 0
120 120 120
127 127 127
112 112 112
15 15 15
121 121 121
127 127 127
114 114 114
29 29 29
123 123 123
127 127 127
113 113 113
42 42 42
125 125 125
127 127 127
113 113 113
50 50 50
125 125 125
127 127 127
115 115 115
54 54 54
124 124 124
127 127 127
116 116 116
56 56 56
124 124 124
127 127 127
118 118 118
58 58 58
123 123 123
127 127 127
120 120 120
61 61 61
121 121 121
127 127 127
122 122 122
64 64 64
120 120 120
127 127 127
125 125 125
0 0 0
0 0 0
0 0 0
0 0 0
0 0 0
0 0 0
0 0 0
0 0 0
0 0 0
0 0 0
0 0 0
0 0 0
0 0 0
0 0 0
0 0 0
0 0 0
0 0 0
17 17 17
27 27 27
35 35 35
41 41 41
53 53 53
61 61 61
70 70 70
80 80 80
82 82 82
61 61 61
70 70 70
84 84 84
75 75 75
64 64 64
71 71 71
87 87 87
71 71 71
68 68 68
73 73 73
90 90 90
67 67 67
68 68 68
73 73 73
91 91 91
65 65 65
67 67 67
73 73 73
92 92 92
65 65 65
68 68 68
73 73 73
92 92 92
65 65 65
68 68 68
73 73 73
92 92 92
65 65 65
68 68 68
73 73 73
92 92 92
65 65 65
68 68 68
74 74 74
92 92 92
66 66 66
68 68 68
74 74 74
93 93 93
66 66 66
69 69 69
75 75 75
94 94 94
67 67 67
70 70 70
75 75 75
94 94 94
67 67 67
70 70 70
75 75 75
94 94 94
67 67 67
70 70 70
76 76 76
94 94 94
96 96 96
105 105 105
87 87 87
0 0 0
98 98 98
107 107 107
90 90 90
0 0 0
100 100 100
108 108 108
92 92 92
0 0 0
103 103 103
109 109 109
95 95 95
8 8 8
107 107 107
111 111 111
96 96 96
23 23 23
110 110 110
112 112 112
98 98 98
33 33 33
112 112 112
114 114 114
101 101 101
38 38 38
112 112 112
115 115 115
103 103 103
41 41 41
111 111 111
115 115 115
105 105 105
43 43 43
110 110 110
114 114 114
106 106 106
46 46 46
109 109 109
114 114 114
108 108 108
49 49 49
107 107 107
114 114 114
110 110 110
0 0 0
0 0 0
0 0 0
0 0 0
0 0 0
0 0 0
0 0 0
0 0 0
0 0 0
0 0 0
0 0 0
0 0 0
0 0 0
0 0 0
0 0 0
0 0 0
0 0 0
6 6 6
13 13 13
21 21 21
26 26 26
41 41 41
49 49 49
57 57 57
66 66 66
44 44 44
50 50 50
59 59 59
72 72 72
67 67 67
55 55 55
63 63 63
78 78 78
65 65 65
60 60 60
67 67 67
83 83 83
64 64 64
62 62 62
69 69 69
86 86 86
63 63 63
63 63 63
70 70 70
87 87 87
63 63 63
63 63 63
71 71 71
88 88 88
63 63 63
64 64 64
71 71 71
88 88 88
63 63 63
64 64 64
71 71 71
89 89 89
64 64 64
67 67 67
71 71 71
89 89 89
65 65 65
81 81 81
88 88 88
106 106 106
81 81 81
75 75 75
83 83 83
101 101 101
76 76 76
71 71 71
78 78 78
96 96 96
71 71 71
70 70 70
77 77 77
95 95 95
70 70 70
70 70 70
77 77 77
96 96 96
52 52 52
63 63 63
43 43 43
0 0 0
58 58 58
68 68 68
50 50 50
0 0 0
64 64 64
72 72 72
55 55 55
0 0 0
69 69 69
76 76 76
60 60 60
0 0 0
75 75 75
79 79 79
63 63 63
0 0 0
81 81 81
85 85 85
69 69 69
2 2 2
87 87 87
90 90 90
76 76 76
11 11 11
90 90 90
93 93 93
80 80 80
16 16 16
90 90 90
93 93 93
82 82 82
19 19 19
89 89 89
93 93 93
84 84 84
22 22 22
88 88 88
94 94 94
87 87 87
25 25 25
88 88 88
95 95 95
91 91 91
0 0 0
0 0 0
0 0 0
0 0 0
0 0 0
0 0 0
0 0 0
0 0 0
0 0 0
0 0 0
0 0 0
0 0 0
0 0 0
0 0 0
0 0 0
0 0 0
0 0 0
0 0 0
3 3 3
11 11 11
14 14 14
32 32 32
41 41 41
49 49 49
31 31 31
37 37 37
44 44 44
53 53 53
64 64 64
92 92 92
97 97 97
106 106 106
120 120 120
108 108 108
95 95 95
102 102 102
118 118 118
99 99 99
92 92 92
99 99 99
116 116 116
93 93 93
90 90 90
96 96 96
114 114 114
89 89 89
89 89 89
95 95 95
114 114 114
88 88 88
88 88 88
95 95 95
113 113 113
87 87 87
88 88 88
94 94 94
113 113 113
87 87 87
86 86 86
93 93 93
112 112 112
86 86 86
84 84 84
91 91 91
110 110 110
84 84 84
80 80 80
87 87 87
107 107 107
81 81 81
78 78 78
85 85 85
105 105 105
78 78 78
79 79 79
85 85 85
104 104 104
75 75 75
77 77 77
84 84 84
104 104 104
0 0 0
0 0 0
0 0 0
0 0 0
0 0 0
0 0 0
0 0 0
0 0 0
0 0 0
4 4 4
0 0 0
0 0 0
5 5 5
13 13 13
0 0 0
0 0 0
15 15 15
20 20 20
2 2 2
0 0 0
26 26 26
30 30 30
13 13 13
0 0 0
37 37 37
41 41 41
25 25 25
0 0 0
45 45 45
48 48 48
33 33 33
0 0 0
48 48 48
51 51 51
39 39 39
0 0 0
50 50 50
55 55 55
45 45 45
0 0 0
53 53 53
60 60 60
52 52 52
0 0 0
57 57 57
65 65 65
60 60 60
0 0 0
0 0 0
0 0 0
0 0 0
0 0 0
0 0 0
0 0 0
0 0 0
0 0 0
0 0 0
0 0 0
0 0 0
0 0 0
0 0 0
0 0 0
0 0 0
0 0 0
0 0 0
0 0 0
8 8 8
41 41 41
63 63 63
73 73 73
82 82 82
90 90 90
99 99 99
107 107 107
115 115 115
127 127 127
97 97 97
103 103 103
112 112 112
127 127 127
115 115 115
102 102 102
110 110 110
127 127 127
108 108 108
101 101 101
108 108 108
127 127 127
103 103 103
100 100 100
107 107 107
127 127 127
100 100 100
100 100 100
107 107 107
127 127 127
99 99 99
99 99 99
107 107 107
127 127 127
99 99 99
99 99 99
106 106 106
127 127 127
99 99 99
98 98 98
106 106 106
127 127 127
99 99 99
97 97 97
105 105 105
127 127 127
99 99 99
95 95 95
104 104 104
127 127 127
99 99 99
96 96 96
105 105 105
127 127 127
97 97 97
97 97 97
105 105 105
127 127 127
94 94 94
96 96 96
104 104 104
127 127 127
117 117 117
127 127 127
106 106 106
0 0 0
118 118 118
127 127 127
108 108 108
0 0 0
119 119 119
127 127 127
109 109 109
0 0 0
121 121 121
127 127 127
110 110 110
12 12 12
122 122 122
127 127 127
111 111 111
24 24 24
123 123 123
127 127 127
112 112 112
33 33 33
123 123 123
127 127 127
113 113 113
41 41 41
124 124 124
127 127 127
113 113 113
47 47 47
124 124 124
127 127 127
115 115 115
50 50 50
123 123 123
127 127 127
117 117 117
53 53 53
122 122 122
127 127 127
119 119 119
56 56 56
121 121 121
127 127 127
121 121 121
60 60 60
120 120 120
127 127 127
124 124 124
0 0 0
0 0 0
0 0 0
0 0 0
0 0 0
0 0 0
0 0 0
0 0 0
0 0 0
0 0 0
0 0 0
0 0 0
0 0 0
0 0 0
0 0 0
0 0 0
0 0 0
25 25 25
33 33 33
40 40 40
43 43 43
57 57 57
64 64 64
71 71 71
78 78 78
56 56 56
61 61 61
68 68 68
77 77 77
74 74 74
62 62 62
68 68 68
79 79 79
69 69 69
63 63 63
68 68 68
81 81 81
66 66 66
64 64 64
68 68 68
82 82 82
64 64 64
64 64 64
68 68 68
83 83 83
63 63 63
64 64 64
68 68 68
83 83 83
63 63 63
64 64 64
68 68 68
84 84 84
63 63 63
64 64 64
69 69 69
85 85 85
65 65 65
63 63 63
69 69 69
86 86 86
66 66 66
63 63 63
70 70 70
88 88 88
68 68 68
66 66 66
73 73 73
91 91 91
68 68 68
70 70 70
75 75 75
93 93 93
67 67 67
70 70 70
75 75 75
94 94 94
92 92 92
102 102 102
80 80 80
0 0 0
94 94 94
103 103 103
83 83 83
0 0 0
97 97 97
105 105 105
86 86 86
0 0 0
100 100 100
106 106 106
88 88 88
0 0 0
102 102 102
107 107 107
90 90 90
0 0 0
104 104 104
108 108 108
92 92 92
10 10 10
106 106 106
109 109 109
95 95 95
20 20 20
108 108 108
110 110 110
96 96 96
28 28 28
109 109 109
112 112 112
100 100 100
33 33 33
110 110 110
114 114 114
103 103 103
37 37 37
109 109 109
114 114 114
105 105 105
40 40 40
108 108 108
113 113 113
106 106 106
43 43 43
106 106 106
112 112 112
108 108 108
0 0 0
0 0 0
0 0 0
0 0 0
0 0 0
0 0 0
0 0 0
0 0 0
0 0 0
0 0 0
0 0 0
0 0 0
0 0 0
0 0 0
0 0 0
0 0 0
0 0 0
10 10 10
18 18 18
23 23 23
24 24 24
42 42 42
49 49 49
55 55 55
60 60 60
42 42 42
47 47 47
53 53 53
61 61 61
62 62 62
48 48 48
54 54 54
64 64 64
57 57 57
51 51 51
55 55 55
67 67 67
54 54 54
52 52 52
57 57 57
69 69 69
53 53 53
53 53 53
57 57 57
70 70 70
53 53 53
53 53 53
58 58 58
71 71 71
53 53 53
54 54 54
58 58 58
72 72 72
54 54 54
54 54 54
60 60 60
74 74 74
57 57 57
54 54 54
61 61 61
77 77 77
59 59 59
55 55 55
63 63 63
81 81 81
63 63 63
60 60 60
69 69 69
85 85 85
66 66 66
80 80 80
87 87 87
105 105 105
82 82 82
73 73 73
80 80 80
98 98 98
43 43 43
53 53 53
29 29 29
0 0 0
49 49 49
58 58 58
36 36 36
0 0 0
55 55 55
63 63 63
42 42 42
0 0 0
60 60 60
67 67 67
48 48 48
0 0 0
65 65 65
71 71 71
52 52 52
0 0 0
70 70 70
74 74 74
56 56 56
0 0 0
73 73 73
76 76 76
60 60 60
0 0 0
76 76 76
80 80 80
64 64 64
0 0 0
81 81 81
85 85 85
72 72 72
3 3 3
85 85 85
90 90 90
78 78 78
10 10 10
87 87 87
92 92 92
82 82 82
14 14 14
86 86 86
91 91 91
84 84 84
18 18 18
85 85 85
91 91 91
86 86 86
0 0 0
0 0 0
0 0 0
0 0 0
0 0 0
0 0 0
0 0 0
0 0 0
0 0 0
0 0 0
0 0 0
0 0 0
0 0 0
0 0 0
0 0 0
0 0 0
0 0 0
0 0 0
4 4 4
10 10 10
8 8 8
30 30 30
38 38 38
44 44 44
20 20 20
32 32 32
38 38 38
43 43 43
50 50 50
36 36 36
40 40 40
45 45 45
54 54 54
49 49 49
43 43 43
48 48 48
58 58 58
47 47 47
45 45 45
49 49 49
61 61 61
47 47 47
46 46 46
51 51 51
63 63 63
46 46 46
48 48 48
51 51 51
64 64 64
47 47 47
48 48 48
52 52 52
65 65 65
49 49 49
100 100 100
106 106 106
120 120 120
103 103 103
97 97 97
104 104 104
119 119 119
103 103 103
93 93 93
101 101 101
118 118 118
101 101 101
89 89 89
97 97 97
115 115 115
97 97 97
82 82 82
90 90 90
109 109 109
87 87 87
80 80 80
87 87 87
106 106 106
0 0 0
0 0 0
0 0 0
0 0 0
0 0 0
0 0 0
0 0 0
0 0 0
0 0 0
0 0 0
0 0 0
0 0 0
0 0 0
0 0 0
0 0 0
0 0 0
0 0 0
3 3 3
0 0 0
0 0 0
5 5 5
9 9 9
0 0 0
0 0 0
11 11 11
15 15 15
0 0 0
0 0 0
18 18 18
22 22 22
5 5 5
0 0 0
28 28 28
33 33 33
18 18 18
0 0 0
38 38 38
43 43 43
30 30 30
0 0 0
45 45 45
50 50 50
39 39 39
0 0 0
48 48 48
54 54 54
45 45 45
0 0 0
51 51 51
58 58 58
52 52 52
0 0 0
0 0 0
0 0 0
0 0 0
0 0 0
0 0 0
0 0 0
0 0 0
0 0 0
0 0 0
0 0 0
0 0 0
0 0 0
0 0 0
0 0 0
0 0 0
0 0 0
0 0 0
0 0 0
2 2 2
0 0 0
26 26 26
35 35 35
14 14 14
70 70 70
84 84 84
91 91 91
97 97 97
104 104 104
108 108 108
113 113 113
118 118 118
127 127 127
123 123 123
111 111 111
116 116 116
127 127 127
116 116 116
110 110 110
115 115 115
127 127 127
112 112 112
109 109 109
114 114 114
127 127 127
110 110 110
109 109 109
114 114 114
127 127 127
109 109 109
108 108 108
113 113 113
127 127 127
109 109 109
106 106 106
112 112 112
127 127 127
110 110 110
103 103 103
111 111 111
127 127 127
110 110 110
100 100 100
109 109 109
127 127 127
110 110 110
97 97 97
107 107 107
127 127 127
108 108 108
94 94 94
105 105 105
127 127 127
104 104 104
97 97 97
106 106 106
127 127 127
117 117 117
127 127 127
102 102 102
0 0 0
118 118 118
127 127 127
104 104 104
0 0 0
119 119 119
127 127 127
105 105 105
0 0 0
121 121 121
127 127 127
107 107 107
0 0 0
122 122 122
127 127 127
107 107 107
7 7 7
123 123 123
127 127 127
108 108 108
17 17 17
124 124 124
127 127 127
110 110 110
24 24 24
123 123 123
127 127 127
111 111 111
29 29 29
123 123 123
127 127 127
113 113 113
34 34 34
123 123 123
127 127 127
115 115 115
41 41 41
123 123 123
127 127 127
115 115 115
47 47 47
122 122 122
127 127 127
118 118 118
51 51 51
121 121 121
127 127 127
120 120 120
55 55 55
120 120 120
127 127 127
122 122 122
0 0 0
0 0 0
0 0 0
0 0 0
0 0 0
0 0 0
0 0 0
0 0 0
0 0 0
0 0 0
0 0 0
0 0 0
0 0 0
0 0 0
0 0 0
0 0 0
0 0 0
0 0 0
0 0 0
0 0 0
23 23 23
44 44 44
49 49 49
53 53 53
53 53 53
65 65 65
69 69 69
73 73 73
75 75 75
79 79 79
68 68 68
71 71 71
75 75 75
74 74 74
67 67 67
70 70 70
76 76 76
70 70 70
67 67 67
70 70 70
76 76 76
69 69 69
67 67 67
70 70 70
77 77 77
68 68 68
66 66 66
70 70 70
78 78 78
69 69 69
65 65 65
69 69 69
78 78 78
70 70 70
65 65 65
69 69 69
79 79 79
71 71 71
62 62 62
68 68 68
80 80 80
71 71 71
61 61 61
68 68 68
82 82 82
72 72 72
61 61 61
69 69 69
87 87 87
73 73 73
68 68 68
74 74 74
91 91 91
88 88 88
98 98 98
72 72 72
0 0 0
90 90 90
100 100 100
75 75 75
0 0 0
93 93 93
101 101 101
78 78 78
0 0 0
96 96 96
102 102 102
81 81 81
0 0 0
98 98 98
103 103 103
82 82 82
0 0 0
100 100 100
104 104 104
84 84 84
0 0 0
101 101 101
105 105 105
87 87 87
0 0 0
102 102 102
106 106 106
89 89 89
3 3 3
102 102 102
107 107 107
92 92 92
10 10 10
103 103 103
108 108 108
95 95 95
18 18 18
105 105 105
109 109 109
97 97 97
26 26 26
106 106 106
111 111 111
101 101 101
32 32 32
107 107 107
112 112 112
104 104 104
37 37 37
105 105 105
111 111 111
105 105 105
0 0 0
0 0 0
0 0 0
0 0 0
0 0 0
0 0 0
0 0 0
0 0 0
0 0 0
0 0 0
0 0 0
0 0 0
0 0 0
0 0 0
0 0 0
0 0 0
0 0 0
0 0 0
0 0 0
0 0 0
2 2 2
26 26 26
32 32 32
35 35 35
32 32 32
48 48 48
52 52 52
55 55 55
55 55 55
63 63 63
52 52 52
54 54 54
56 56 56
58 58 58
52 52 52
54 54 54
57 57 57
55 55 55
52 52 52
54 54 54
59 59 59
54 54 54
53 53 53
55 55 55
60 60 60
54 54 54
53 53 53
55 55 55
61 61 61
56 56 56
53 53 53
56 56 56
63 63 63
58 58 58
52 52 52
56 56 56
64 64 64
59 59 59
50 50 50
55 55 55
66 66 66
61 61 61
50 50 50
58 58 58
71 71 71
64 64 64
52 52 52
61 61 61
78 78 78
67 67 67
62 62 62
71 71 71
86 86 86
32 32 32
42 42 42
13 13 13
0 0 0
37 37 37
47 47 47
20 20 20
0 0 0
43 43 43
52 52 52
27 27 27
0 0 0
50 50 50
57 57 57
33 33 33
0 0 0
55 55 55
60 60 60
38 38 38
0 0 0
59 59 59
64 64 64
42 42 42
0 0 0
63 63 63
66 66 66
46 46 46
0 0 0
65 65 65
69 69 69
50 50 50
0 0 0
67 67 67
71 71 71
55 55 55
0 0 0
69 69 69
74 74 74
59 59 59
0 0 0
73 73 73
78 78 78
65 65 65
0 0 0
79 79 79
84 84 84
74 74 74
3 3 3
83 83 83
89 89 89
79 79 79
9 9 9
82 82 82
88 88 88
81 81 81
0 0 0
0 0 0
0 0 0
0 0 0
0 0 0
0 0 0
0 0 0
0 0 0
0 0 0
0 0 0
0 0 0
0 0 0
0 0 0
0 0 0
0 0 0
0 0 0
0 0 0
0 0 0
0 0 0
0 0 0
0 0 0
11 11 11
16 16 16
19 19 19
14 14 14
34 34 34
38 38 38
41 41 41
39 39 39
50 50 50
39 39 39
41 41 41
41 41 41
46 46 46
40 40 40
42 42 42
43 43 43
44 44 44
41 41 41
43 43 43
45 45 45
44 44 44
42 42 42
44 44 44
47 47 47
45 45 45
44 44 44
45 45 45
50 50 50
46 46 46
44 44 44
46 46 46
52 52 52
49 49 49
43 43 43
47 47 47
55 55 55
52 52 52
42 42 42
48 48 48
58 58 58
55 55 55
100 100 100
107 107 107
120 120 120
87 87 87
93 93 93
103 103 103
119 119 119
110 110 110
88 88 88
97 97 97
114 114 114
0 0 0
0 0 0
0 0 0
0 0 0
0 0 0
0 0 0
0 0 0
0 0 0
0 0 0
0 0 0
0 0 0
0 0 0
0 0 0
0 0 0
0 0 0
0 0 0
0 0 0
0 0 0
0 0 0
0 0 0
0 0 0
0 0 0
0 0 0
0 0 0
0 0 0
0 0 0
0 0 0
0 0 0
0 0 0
1 1 1
0 0 0
0 0 0
2 2 2
7 7 7
0 0 0
0 0 0
7 7 7
13 13 13
0 0 0
0 0 0
17 17 17
23 23 23
8 8 8
0 0 0
29 29 29
36 36 36
24 24 24
0 0 0
40 40 40
47 47 47
36 36 36
0 0 0
44 44 44
51 51 51
43 43 43
0 0 0
0 0 0
0 0 0
0 0 0
0 0 0
0 0 0
0 0 0
0 0 0
0 0 0
0 0 0
0 0 0
0 0 0
0 0 0
0 0 0
0 0 0
0 0 0
0 0 0
0 0 0
0 0 0
0 0 0
0 0 0
0 0 0
7 7 7
9 9 9
3 3 3
27 27 27
32 32 32
34 34 34
17 17 17
31 31 31
34 34 34
36 36 36
36 36 36
35 35 35
37 37 37
39 39 39
40 40 40
38 38 38
39 39 39
41 41 41
43 43 43
42 42 42
41 41 41
43 43 43
46 46 46
44 44 44
42 42 42
44 44 44
49 49 49
46 46 46
118 118 118
121 121 121
127 127 127
111 111 111
114 114 114
119 119 119
127 127 127
105 105 105
110 110 110
116 116 116
127 127 127
99 99 99
105 105 105
113 113 113
127 127 127
93 93 93
100 100 100
110 110 110
127 127 127
118 118 118
96 96 96
107 107 107
127 127 127
118 118 118
127 127 127
97 97 97
0 0 0
118 118 118
127 127 127
99 99 99
0 0 0
119 119 119
127 127 127
101 101 101
0 0 0
121 121 121
127 127 127
102 102 102
0 0 0
122 122 122
127 127 127
103 103 103
0 0 0
123 123 123
127 127 127
104 104 104
0 0 0
124 124 124
127 127 127
105 105 105
5 5 5
124 124 124
127 127 127
107 107 107
11 11 11
123 123 123
127 127 127
109 109 109
16 16 16
122 122 122
127 127 127
111 111 111
21 21 21
122 122 122
127 127 127
113 113 113
27 27 27
121 121 121
127 127 127
116 116 116
35 35 35
122 122 122
127 127 127
116 116 116
43 43 43
122 122 122
127 127 127
118 118 118
50 50 50
121 121 121
127 127 127
120 120 120
0 0 0
0 0 0
0 0 0
0 0 0
0 0 0
0 0 0
0 0 0
0 0 0
0 0 0
0 0 0
0 0 0
0 0 0
0 0 0
0 0 0
0 0 0
0 0 0
0 0 0
0 0 0
0 0 0
0 0 0
0 0 0
0 0 0
0 0 0
0 0 0
0 0 0
0 0 0
0 0 0
0 0 0
0 0 0
0 0 0
0 0 0
0 0 0
0 0 0
0 0 0
1 1 1
0 0 0
0 0 0
5 5 5
3 3 3
3 3 3
1 1 1
7 7 7
5 5 5
5 5 5
4 4 4
9 9 9
80 80 80
82 82 82
82 82 82
74 74 74
77 77 77
79 79 79
82 82 82
67 67 67
71 71 71
76 76 76
81 81 81
60 60 60
66 66 66
72 72 72
80 80 80
54 54 54
60 60 60
68 68 68
80 80 80
80 80 80
59 59 59
68 68 68
83 83 83
85 85 85
94 94 94
63 63 63
0 0 0
86 86 86
95 95 95
66 66 66
0 0 0
88 88 88
96 96 96
69 69 69
0 0 0
91 91 91
98 98 98
71 71 71
0 0 0
94 94 94
99 99 99
74 74 74
0 0 0
96 96 96
100 100 100
76 76 76
0 0 0
97 97 97
101 101 101
78 78 78
0 0 0
98 98 98
101 101 101
80 80 80
0 0 0
98 98 98
102 102 102
83 83 83
0 0 0
98 98 98
102 102 102
85 85 85
0 0 0
98 98 98
103 103 103
88 88 88
0 0 0
98 98 98
104 104 104
91 91 91
7 7 7
99 99 99
105 105 105
93 93 93
17 17 17
101 101 101
107 107 107
97 97 97
26 26 26
102 102 102
108 108 108
101 101 101
0 0 0
0 0 0
0 0 0
0 0 0
0 0 0
0 0 0
0 0 0
0 0 0
0 0 0
0 0 0
0 0 0
0 0 0
0 0 0
0 0 0
0 0 0
0 0 0
0 0 0
0 0 0
0 0 0
0 0 0
0 0 0
0 0 0
0 0 0
0 0 0
0 0 0
0 0 0
0 0 0
0 0 0
0 0 0
0 0 0
0 0 0
0 0 0
0 0 0
0 0 0
0 0 0
0 0 0
0 0 0
0 0 0
0 0 0
0 0 0
0 0 0
0 0 0
0 0 0
0 0 0
0 0 0
0 0 0
66 66 66
66 66 66
65 65 65
60 60 60
63 63 63
65 65 65
65 65 65
54 54 54
58 58 58
62 62 62
65 65 65
48 48 48
53 53 53
59 59 59
65 65 65
42 42 42
49 49 49
56 56 56
66 66 66
44 44 44
48 48 48
58 58 58
71 71 71
20 20 20
30 30 30
0 0 0
0 0 0
24 24 24
34 34 34
2 2 2
0 0 0
30 30 30
39 39 39
9 9 9
0 0 0
36 36 36
43 43 43
15 15 15
0 0 0
42 42 42
48 48 48
20 20 20
0 0 0
47 47 47
51 51 51
25 25 25
0 0 0
51 51 51
54 54 54
29 29 29
0 0 0
53 53 53
57 57 57
33 33 33
0 0 0
55 55 55
59 59 59
38 38 38
0 0 0
56 56 56
61 61 61
42 42 42
0 0 0
58 58 58
63 63 63
47 47 47
0 0 0
59 59 59
66 66 66
52 52 52
0 0 0
63 63 63
69 69 69
56 56 56
0 0 0
69 69 69
75 75 75
65 65 65
0 0 0
75 75 75
82 82 82
73 73 73
0 0 0
0 0 0
0 0 0
0 0 0
0 0 0
0 0 0
0 0 0
0 0 0
0 0 0
0 0 0
0 0 0
0 0 0
0 0 0
0 0 0
0 0 0
0 0 0
0 0 0
0 0 0
0 0 0
0 0 0
0 0 0
0 0 0
0 0 0
0 0 0
0 0 0
0 0 0
0 0 0
0 0 0
0 0 0
0 0 0
0 0 0
0 0 0
0 0 0
0 0 0
0 0 0
0 0 0
0 0 0
0 0 0
0 0 0
0 0 0
0 0 0
0 0 0
0 0 0
0 0 0
0 0 0
0 0 0
53 53 53
53 53 53
36 36 36
48 48 48
51 51 51
53 53 53
32 32 32
44 44 44
48 48 48
51 51 51
28 28 28
38 38 38
44 44 44
50 50 50
26 26 26
35 35 35
41 41 41
49 49 49
58 58 58
34 34 34
42 42 42
52 52 52
65 65 65
0 0 0
0 0 0
0 0 0
0 0 0
0 0 0
0 0 0
0 0 0
0 0 0
0 0 0
0 0 0
0 0 0
0 0 0
0 0 0
0 0 0
0 0 0
0 0 0
0 0 0
0 0 0
0 0 0
0 0 0
0 0 0
0 0 0
0 0 0
0 0 0
0 0 0
0 0 0
0 0 0
0 0 0
0 0 0
0 0 0
0 0 0
0 0 0
0 0 0
0 0 0
0 0 0
0 0 0
0 0 0
0 0 0
0 0 0
0 0 0
0 0 0
0 0 0
0 0 0
0 0 0
0 0 0
1 1 1
0 0 0
0 0 0
2 2 2
9 9 9
0 0 0
0 0 0
15 15 15
23 23 23
11 11 11
0 0 0
29 29 29
37 37 37
28 28 28
0 0 0
0 0 0
0 0 0
0 0 0
0 0 0
0 0 0
0 0 0
0 0 0
0 0 0
0 0 0
0 0 0
0 0 0
0 0 0
0 0 0
0 0 0
0 0 0
0 0 0
0 0 0
0 0 0
0 0 0
0 0 0
0 0 0
0 0 0
0 0 0
0 0 0
0 0 0
0 0 0
0 0 0
0 0 0
0 0 0
0 0 0
0 0 0
0 0 0
0 0 0
0 0 0
0 0 0
0 0 0
0 0 0
0 0 0
0 0 0
0 0 0
0 0 0
0 0 0
0 0 0
0 0 0
0 0 0
46 46 46
46 46 46
28 28 28
42 42 42
46 46 46
47 47 47
26 26 26
40 40 40
44 44 44
24 24 24
24 24 24
36 36 36
43 43 43
49 49 49
54 54 54
64 64 64
71 71 71
80 80 80
89 89 89
95 95 95
103 103 103
114 114 114
127 127 127
119 119 119
127 127 127
91 91 91
0 0 0
119 119 119
127 127 127
93 93 93
0 0 0
119 119 119
127 127 127
96 96 96
0 0 0
120 120 120
127 127 127
97 97 97
0 0 0
122 122 122
127 127 127
98 98 98
0 0 0
123 123 123
127 127 127
99 99 99
0 0 0
124 124 124
127 127 127
100 100 100
0 0 0
124 124 124
127 127 127
102 102 102
0 0 0
124 124 124
127 127 127
104 104 104
0 0 0
123 123 123
127 127 127
106 106 106
2 2 2
122 122 122
127 127 127
108 108 108
7 7 7
122 122 122
127 127 127
110 110 110
13 13 13
121 121 121
127 127 127
113 113 113
19 19 19
120 120 120
127 127 127
115 115 115
27 27 27
120 120 120
127 127 127
117 117 117
37 37 37
121 121 121
127 127 127
117 117 117
0 0 0
0 0 0
0 0 0
0 0 0
0 0 0
0 0 0
0 0 0
0 0 0
0 0 0
0 0 0
0 0 0
0 0 0
0 0 0
0 0 0
0 0 0
0 0 0
0 0 0
0 0 0
0 0 0
0 0 0
0 0 0
0 0 0
0 0 0
0 0 0
0 0 0
0 0 0
0 0 0
0 0 0
0 0 0
0 0 0
0 0 0
0 0 0
0 0 0
0 0 0
0 0 0
0 0 0
0 0 0
0 0 0
0 0 0
0 0 0
0 0 0
0 0 0
19 19 19
17 17 17
0 0 0
15 15 15
18 18 18
18 18 18
0 0 0
11 11 11
15 15 15
0 0 0
0 0 0
5 5 5
10 10 10
14 14 14
14 14 14
29 29 29
35 35 35
41 41 41
45 45 45
57 57 57
64 64 64
72 72 72
80 80 80
83 83 83
91 91 91
53 53 53
0 0 0
83 83 83
91 91 91
56 56 56
0 0 0
84 84 84
92 92 92
59 59 59
0 0 0
86 86 86
93 93 93
61 61 61
0 0 0
89 89 89
94 94 94
63 63 63
0 0 0
91 91 91
95 95 95
65 65 65
0 0 0
93 93 93
96 96 96
67 67 67
0 0 0
93 93 93
96 96 96
70 70 70
0 0 0
93 93 93
97 97 97
72 72 72
0 0 0
93 93 93
97 97 97
74 74 74
0 0 0
93 93 93
97 97 97
77 77 77
0 0 0
92 92 92
97 97 97
79 79 79
0 0 0
92 92 92
98 98 98
82 82 82
0 0 0
92 92 92
99 99 99
85 85 85
0 0 0
93 93 93
100 100 100
88 88 88
4 4 4
95 95 95
101 101 101
90 90 90
0 0 0
0 0 0
0 0 0
0 0 0
0 0 0
0 0 0
0 0 0
0 0 0
0 0 0
0 0 0
0 0 0
0 0 0
0 0 0
0 0 0
0 0 0
0 0 0
0 0 0
0 0 0
0 0 0
0 0 0
0 0 0
0 0 0
0 0 0
0 0 0
0 0 0
0 0 0
0 0 0
0 0 0
0 0 0
0 0 0
0 0 0
0 0 0
0 0 0
0 0 0
0 0 0
0 0 0
0 0 0
0 0 0
0 0 0
0 0 0
0 0 0
0 0 0
4 4 4
2 2 2
0 0 0
1 1 1
4 4 4
3 3 3
0 0 0
0 0 0
1 1 1
0 0 0
0 0 0
0 0 0
0 0 0
0 0 0
0 0 0
16 16 16
22 22 22
27 27 27
29 29 29
44 44 44
52 52 52
59 59 59
65 65 65
11 11 11
19 19 19
0 0 0
0 0 0
13 13 13
22 22 22
0 0 0
0 0 0
17 17 17
25 25 25
0 0 0
0 0 0
23 23 23
30 30 30
0 0 0
0 0 0
29 29 29
34 34 34
0 0 0
0 0 0
34 34 34
37 37 37
5 5 5
0 0 0
37 37 37
40 40 40
9 9 9
0 0 0
40 40 40
43 43 43
14 14 14
0 0 0
41 41 41
45 45 45
18 18 18
0 0 0
43 43 43
47 47 47
22 22 22
0 0 0
44 44 44
49 49 49
26 26 26
0 0 0
46 46 46
51 51 51
31 31 31
0 0 0
47 47 47
53 53 53
35 35 35
0 0 0
49 49 49
56 56 56
40 40 40
0 0 0
51 51 51
59 59 59
46 46 46
0 0 0
57 57 57
64 64 64
52 52 52
0 0 0
0 0 0
0 0 0
0 0 0
0 0 0
0 0 0
0 0 0
0 0 0
0 0 0
0 0 0
0 0 0
0 0 0
0 0 0
0 0 0
0 0 0
0 0 0
0 0 0
0 0 0
0 0 0
0 0 0
0 0 0
0 0 0
0 0 0
0 0 0
0 0 0
0 0 0
0 0 0
0 0 0
0 0 0
0 0 0
0 0 0
0 0 0
0 0 0
0 0 0
0 0 0
0 0 0
0 0 0
0 0 0
0 0 0
0 0 0
0 0 0
0 0 0
0 0 0
0 0 0
0 0 0
0 0 0
0 0 0
0 0 0
0 0 0
0 0 0
0 0 0
0 0 0
0 0 0
0 0 0
0 0 0
0 0 0
0 0 0
6 6 6
12 12 12
17 17 17
18 18 18
35 35 35
43 43 43
50 50 50
55 55 55
0 0 0
0 0 0
0 0 0
0 0 0
0 0 0
0 0 0
0 0 0
0 0 0
0 0 0
0 0 0
0 0 0
0 0 0
0 0 0
0 0 0
0 0 0
0 0 0
0 0 0
0 0 0
0 0 0
0 0 0
0 0 0
0 0 0
0 0 0
0 0 0
0 0 0
0 0 0
0 0 0
0 0 0
0 0 0
0 0 0
0 0 0
0 0 0
0 0 0
0 0 0
0 0 0
0 0 0
0 0 0
0 0 0
0 0 0
0 0 0
0 0 0
0 0 0
0 0 0
0 0 0
0 0 0
0 0 0
0 0 0
0 0 0
0 0 0
0 0 0
0 0 0
0 0 0
0 0 0
0 0 0
0 0 0
0 0 0
0 0 0
0 0 0
0 0 0
0 0 0
0 0 0
5 5 5
0 0 0
0 0 0
0 0 0
0 0 0
0 0 0
0 0 0
0 0 0
0 0 0
0 0 0
0 0 0
0 0 0
0 0 0
0 0 0
0 0 0
0 0 0
0 0 0
0 0 0
0 0 0
0 0 0
0 0 0
0 0 0
0 0 0
0 0 0
0 0 0
0 0 0
0 0 0
0 0 0
0 0 0
0 0 0
0 0 0
0 0 0
0 0 0
0 0 0
0 0 0
0 0 0
0 0 0
0 0 0
0 0 0
0 0 0
0 0 0
0 0 0
0 0 0
0 0 0
0 0 0
0 0 0
0 0 0
0 0 0
0 0 0
0 0 0
0 0 0
0 0 0
0 0 0
0 0 0
0 0 0
0 0 0
0 0 0
0 0 0
0 0 0
1 1 1
8 8 8
13 13 13
85 85 85
105 105 105
114 114 114
122 122 122
127 127 127
121 121 121
127 127 127
83 83 83
0 0 0
120 120 120
127 127 127
86 86 86
0 0 0
120 120 120
127 127 127
90 90 90
0 0 0
121 121 121
127 127 127
91 91 91
0 0 0
122 122 122
127 127 127
92 92 92
0 0 0
124 124 124
127 127 127
93 93 93
0 0 0
125 125 125
127 127 127
94 94 94
0 0 0
125 125 125
127 127 127
96 96 96
0 0 0
124 124 124
127 127 127
98 98 98
0 0 0
124 124 124
127 127 127
100 100 100
0 0 0
123 123 123
127 127 127
102 102 102
0 0 0
123 123 123
127 127 127
104 104 104
0 0 0
122 122 122
127 127 127
106 106 106
0 0 0
121 121 121
127 127 127
109 109 109
2 2 2
120 120 120
127 127 127
111 111 111
9 9 9
120 120 120
127 127 127
114 114 114
17 17 17
119 119 119
127 127 127
116 116 116
27 27 27
120 120 120
127 127 127
118 118 118
0 0 0
0 0 0
0 0 0
0 0 0
0 0 0
0 0 0
0 0 0
0 0 0
0 0 0
0 0 0
0 0 0
0 0 0
0 0 0
0 0 0
0 0 0
0 0 0
0 0 0
0 0 0
0 0 0
0 0 0
0 0 0
0 0 0
0 0 0
0 0 0
0 0 0
0 0 0
0 0 0
0 0 0
0 0 0
0 0 0
0 0 0
0 0 0
0 0 0
0 0 0
0 0 0
0 0 0
0 0 0
0 0 0
0 0 0
0 0 0
0 0 0
0 0 0
0 0 0
0 0 0
0 0 0
0 0 0
0 0 0
0 0 0
0 0 0
0 0 0
0 0 0
0 0 0
52 52 52
75 75 75
82 82 82
87 87 87
87 87 87
85 85 85
91 91 91
45 45 45
0 0 0
83 83 83
89 89 89
47 47 47
0 0 0
82 82 82
89 89 89
50 50 50
0 0 0
83 83 83
89 89 89
51 51 51
0 0 0
85 85 85
90 90 90
53 53 53
0 0 0
87 87 87
90 90 90
55 55 55
0 0 0
89 89 89
91 91 91
56 56 56
0 0 0
89 89 89
91 91 91
58 58 58
0 0 0
89 89 89
92 92 92
61 61 61
0 0 0
89 89 89
92 92 92
63 63 63
0 0 0
88 88 88
92 92 92
65 65 65
0 0 0
88 88 88
92 92 92
67 67 67
0 0 0
87 87 87
92 92 92
70 70 70
0 0 0
87 87 87
92 92 92
72 72 72
0 0 0
86 86 86
93 93 93
75 75 75
0 0 0
86 86 86
94 94 94
79 79 79
0 0 0
87 87 87
95 95 95
83 83 83
0 0 0
89 89 89
97 97 97
87 87 87
0 0 0
0 0 0
0 0 0
0 0 0
0 0 0
0 0 0
0 0 0
0 0 0
0 0 0
0 0 0
0 0 0
0 0 0
0 0 0
0 0 0
0 0 0
0 0 0
0 0 0
0 0 0
0 0 0
0 0 0
0 0 0
0 0 0
0 0 0
0 0 0
0 0 0
0 0 0
0 0 0
0 0 0
0 0 0
0 0 0
0 0 0
0 0 0
0 0 0
0 0 0
0 0 0
0 0 0
0 0 0
0 0 0
0 0 0
0 0 0
0 0 0
0 0 0
0 0 0
0 0 0
0 0 0
0 0 0
0 0 0
0 0 0
0 0 0
0 0 0
0 0 0
0 0 0
37 37 37
62 62 62
69 69 69
73 73 73
71 71 71
9 9 9
14 14 14
0 0 0
0 0 0
7 7 7
13 13 13
0 0 0
0 0 0
8 8 8
15 15 15
0 0 0
0 0 0
12 12 12
18 18 18
0 0 0
0 0 0
16 16 16
21 21 21
0 0 0
0 0 0
21 21 21
24 24 24
0 0 0
0 0 0
24 24 24
27 27 27
0 0 0
0 0 0
27 27 27
29 29 29
0 0 0
0 0 0
28 28 28
30 30 30
0 0 0
0 0 0
29 29 29
32 32 32
0 0 0
0 0 0
31 31 31
34 34 34
4 4 4
0 0 0
32 32 32
36 36 36
8 8 8
0 0 0
33 33 33
38 38 38
12 12 12
0 0 0
34 34 34
40 40 40
17 17 17
0 0 0
36 36 36
42 42 42
23 23 23
0 0 0
38 38 38
46 46 46
29 29 29
0 0 0
41 41 41
50 50 50
35 35 35
0 0 0
46 46 46
54 54 54
42 42 42
0 0 0
0 0 0
0 0 0
0 0 0
0 0 0
0 0 0
0 0 0
0 0 0
0 0 0
0 0 0
0 0 0
0 0 0
0 0 0
0 0 0
0 0 0
0 0 0
0 0 0
0 0 0
0 0 0
0 0 0
0 0 0
0 0 0
0 0 0
0 0 0
0 0 0
0 0 0
0 0 0
0 0 0
0 0 0
0 0 0
0 0 0
0 0 0
0 0 0
0 0 0
0 0 0
0 0 0
0 0 0
0 0 0
0 0 0
0 0 0
0 0 0
0 0 0
0 0 0
0 0 0
0 0 0
0 0 0
0 0 0
0 0 0
0 0 0
0 0 0
0 0 0
0 0 0
24 24 24
51 51 51
58 58 58
61 61 61
58 58 58
0 0 0
0 0 0
0 0 0
0 0 0
0 0 0
0 0 0
0 0 0
0 0 0
0 0 0
0 0 0
0 0 0
0 0 0
0 0 0
0 0 0
0 0 0
0 0 0
0 0 0
0 0 0
0 0 0
0 0 0
0 0 0
0 0 0
0 0 0
0 0 0
0 0 0
0 0 0
0 0 0
0 0 0
0 0 0
0 0 0
0 0 0
0 0 0
0 0 0
0 0 0
0 0 0
0 0 0
0 0 0
0 0 0
0 0 0
0 0 0
0 0 0
0 0 0
0 0 0
0 0 0
0 0 0
0 0 0
0 0 0
0 0 0
0 0 0
0 0 0
0 0 0
0 0 0
0 0 0
0 0 0
0 0 0
0 0 0
0 0 0
0 0 0
0 0 0
0 0 0
0 0 0
0 0 0
0 0 0
0 0 0
0 0 0
0 0 0
0 0 0
0 0 0
0 0 0
0 0 0
0 0 0
0 0 0
0 0 0
0 0 0
0 0 0
0 0 0
0 0 0
0 0 0
0 0 0
0 0 0
0 0 0
0 0 0
0 0 0
0 0 0
0 0 0
0 0 0
0 0 0
0 0 0
0 0 0
0 0 0
0 0 0
0 0 0
0 0 0
0 0 0
0 0 0
0 0 0
0 0 0
0 0 0
0 0 0
0 0 0
0 0 0
0 0 0
0 0 0
0 0 0
0 0 0
0 0 0
0 0 0
0 0 0
0 0 0
0 0 0
0 0 0
0 0 0
0 0 0
0 0 0
0 0 0
0 0 0
0 0 0
0 0 0
0 0 0
0 0 0
0 0 0
0 0 0
0 0 0
11 11 11
42 42 42
50 50 50
54 54 54
50 50 50
124 124 124
127 127 127
75 75 75
0 0 0
123 123 123
127 127 127
79 79 79
0 0 0
122 122 122
127 127 127
82 82 82
0 0 0
122 122 122
127 127 127
84 84 84
0 0 0
123 123 123
127 127 127
85 85 85
0 0 0
125 125 125
127 127 127
86 86 86
0 0 0
126 126 126
127 127 127
87 87 87
0 0 0
126 126 126
127 127 127
89 89 89
0 0 0
126 126 126
127 127 127
91 91 91
0 0 0
125 125 125
127 127 127
93 93 93
0 0 0
125 125 125
127 127 127
95 95 95
0 0 0
124 124 124
127 127 127
97 97 97
0 0 0
123 123 123
127 127 127
99 99 99
0 0 0
122 122 122
127 127 127
102 102 102
0 0 0
121 121 121
127 127 127
104 104 104
0 0 0
120 120 120
127 127 127
107 107 107
0 0 0
120 120 120
127 127 127
110 110 110
0 0 0
119 119 119
127 127 127
112 112 112
7 7 7
120 120 120
127 127 127
114 114 114
19 19 19
120 120 120
127 127 127
115 115 115
31 31 31
121 121 121
127 127 127
116 116 116
42 42 42
123 123 123
127 127 127
116 116 116
53 53 53
124 124 124
127 127 127
117 117 117
61 61 61
125 125 125
127 127 127
117 117 117
68 68 68
125 125 125
127 127 127
118 118 118
0 0 0
0 0 0
0 0 0
0 0 0
0 0 0
0 0 0
0 0 0
0 0 0
0 0 0
0 0 0
0 0 0
0 0 0
0 0 0
0 0 0
0 0 0
0 0 0
0 0 0
0 0 0
0 0 0
0 0 0
0 0 0
0 0 0
0 0 0
0 0 0
0 0 0
24 24 24
30 30 30
31 31 31
23 23 23
94 94 94
96 96 96
42 42 42
0 0 0
89 89 89
92 92 92
41 41 41
0 0 0
85 85 85
90 90 90
43 43 43
0 0 0
84 84 84
88 88 88
43 43 43
0 0 0
85 85 85
88 88 88
44 44 44
0 0 0
86 86 86
88 88 88
45 45 45
0 0 0
87 87 87
88 88 88
46 46 46
0 0 0
87 87 87
88 88 88
48 48 48
0 0 0
87 87 87
88 88 88
50 50 50
0 0 0
87 87 87
88 88 88
52 52 52
0 0 0
86 86 86
88 88 88
53 53 53
0 0 0
85 85 85
88 88 88
55 55 55
0 0 0
84 84 84
88 88 88
58 58 58
0 0 0
84 84 84
88 88 88
60 60 60
0 0 0
83 83 83
88 88 88
63 63 63
0 0 0
82 82 82
88 88 88
67 67 67
0 0 0
82 82 82
89 89 89
70 70 70
0 0 0
83 83 83
90 90 90
74 74 74
0 0 0
85 85 85
92 92 92
78 78 78
0 0 0
88 88 88
95 95 95
81 81 81
0 0 0
91 91 91
97 97 97
85 85 85
7 7 7
95 95 95
99 99 99
88 88 88
20 20 20
98 98 98
101 101 101
90 90 90
31 31 31
101 101 101
103 103 103
93 93 93
40 40 40
103 103 103
106 106 106
96 96 96
0 0 0
0 0 0
0 0 0
0 0 0
0 0 0
0 0 0
0 0 0
0 0 0
0 0 0
0 0 0
0 0 0
0 0 0
0 0 0
0 0 0
0 0 0
0 0 0
0 0 0
0 0 0
0 0 0
0 0 0
0 0 0
0 0 0
0 0 0
0 0 0
0 0 0
11 11 11
17 17 17
17 17 17
7 7 7
19 19 19
20 20 20
0 0 0
0 0 0
12 12 12
15 15 15
0 0 0
0 0 0
8 8 8
13 13 13
0 0 0
0 0 0
7 7 7
11 11 11
0 0 0
0 0 0
9 9 9
13 13 13
0 0 0
0 0 0
12 12 12
14 14 14
0 0 0
0 0 0
15 15 15
16 16 16
0 0 0
0 0 0
17 17 17
18 18 18
0 0 0
0 0 0
18 18 18
19 19 19
0 0 0
0 0 0
19 19 19
20 20 20
0 0 0
0 0 0
19 19 19
21 21 21
0 0 0
0 0 0
20 20 20
23 23 23
0 0 0
0 0 0
21 21 21
24 24 24
0 0 0
0 0 0
22 22 22
26 26 26
0 0 0
0 0 0
22 22 22
28 28 28
1 1 1
0 0 0
24 24 24
31 31 31
7 7 7
0 0 0
27 27 27
34 34 34
13 13 13
0 0 0
31 31 31
39 39 39
20 20 20
0 0 0
36 36 36
44 44 44
27 27 27
0 0 0
42 42 42
49 49 49
34 34 34
0 0 0
48 48 48
55 55 55
41 41 41
0 0 0
55 55 55
60 60 60
47 47 47
0 0 0
61 61 61
65 65 65
52 52 52
0 0 0
67 67 67
70 70 70
58 58 58
2 2 2
73 73 73
76 76 76
65 65 65
0 0 0
0 0 0
0 0 0
0 0 0
0 0 0
0 0 0
0 0 0
0 0 0
0 0 0
0 0 0
0 0 0
0 0 0
0 0 0
0 0 0
0 0 0
0 0 0
0 0 0
0 0 0
0 0 0
0 0 0
0 0 0
0 0 0
0 0 0
0 0 0
0 0 0
0 0 0
4 4 4
4 4 4
0 0 0
0 0 0
0 0 0
0 0 0
0 0 0
0 0 0
0 0 0
0 0 0
0 0 0
0 0 0
0 0 0
0 0 0
0 0 0
0 0 0
0 0 0
0 0 0
0 0 0
0 0 0
0 0 0
0 0 0
0 0 0
0 0 0
0 0 0
0 0 0
0 0 0
0 0 0
0 0 0
0 0 0
0 0 0
0 0 0
0 0 0
0 0 0
0 0 0
0 0 0
0 0 0
0 0 0
0 0 0
0 0 0
0 0 0
0 0 0
0 0 0
0 0 0
0 0 0
0 0 0
0 0 0
0 0 0
0 0 0
0 0 0
0 0 0
0 0 0
0 0 0
0 0 0
0 0 0
0 0 0
0 0 0
0 0 0
0 0 0
0 0 0
0 0 0
0 0 0
0 0 0
0 0 0
0 0 0
0 0 0
0 0 0
0 0 0
0 0 0
0 0 0
0 0 0
0 0 0
0 0 0
0 0 0
0 0 0
0 0 0
0 0 0
0 0 0
0 0 0
0 0 0
0 0 0
0 0 0
0 0 0
0 0 0
0 0 0
0 0 0
0 0 0
0 0 0
1 1 1
0 0 0
0 0 0
6 6 6
11 11 11
0 0 0
0 0 0
16 16 16
20 20 20
6 6 6
0 0 0
27 27 27
31 31 31
18 18 18
0 0 0
0 0 0
0 0 0
0 0 0
0 0 0
0 0 0
0 0 0
0 0 0
0 0 0
0 0 0
0 0 0
0 0 0
0 0 0
0 0 0
0 0 0
0 0 0
0 0 0
0 0 0
0 0 0
0 0 0
0 0 0
0 0 0
0 0 0
0 0 0
0 0 0
0 0 0
0 0 0
0 0 0
0 0 0
127 127 127
125 125 125
66 66 66
0 0 0
127 127 127
127 127 127
70 70 70
0 0 0
125 125 125
127 127 127
74 74 74
0 0 0
125 125 125
127 127 127
76 76 76
0 0 0
125 125 125
127 127 127
78 78 78
0 0 0
126 126 126
127 127 127
79 79 79
0 0 0
127 127 127
127 127 127
80 80 80
0 0 0
127 127 127
127 127 127
81 81 81
0 0 0
127 127 127
127 127 127
83 83 83
0 0 0
127 127 127
127 127 127
85 85 85
0 0 0
126 126 126
127 127 127
87 87 87
0 0 0
126 126 126
127 127 127
89 89 89
0 0 0
125 125 125
127 127 127
91 91 91
0 0 0
124 124 124
127 127 127
93 93 93
0 0 0
123 123 123
127 127 127
96 96 96
0 0 0
121 121 121
127 127 127
99 99 99
0 0 0
120 120 120
127 127 127
103 103 103
0 0 0
119 119 119
127 127 127
105 105 105
0 0 0
119 119 119
127 127 127
108 108 108
0 0 0
120 120 120
127 127 127
109 109 109
0 0 0
121 121 121
127 127 127
111 111 111
12 12 12
122 122 122
127 127 127
112 112 112
23 23 23
123 123 123
127 127 127
113 113 113
33 33 33
123 123 123
127 127 127
114 114 114
40 40 40
123 123 123
127 127 127
115 115 115
46 46 46
123 123 123
127 127 127
117 117 117
50 50 50
122 122 122
127 127 127
119 119 119
55 55 55
122 122 122
127 127 127
121 121 121
61 61 61
122 122 122
127 127 127
121 121 121
69 69 69
122 122 122
127 127 127
122 122 122
0 0 0
0 0 0
0 0 0
0 0 0
0 0 0
0 0 0
0 0 0
0 0 0
0 0 0
99 99 99
98 98 98
36 36 36
0 0 0
98 98 98
97 97 97
39 39 39
0 0 0
95 95 95
96 96 96
41 41 41
0 0 0
92 92 92
93 93 93
40 40 40
0 0 0
90 90 90
91 91 91
39 39 39
0 0 0
89 89 89
89 89 89
39 39 39
0 0 0
89 89 89
89 89 89
39 39 39
0 0 0
89 89 89
88 88 88
40 40 40
0 0 0
88 88 88
88 88 88
41 41 41
0 0 0
87 87 87
87 87 87
43 43 43
0 0 0
87 87 87
87 87 87
44 44 44
0 0 0
86 86 86
87 87 87
46 46 46
0 0 0
85 85 85
87 87 87
48 48 48
0 0 0
84 84 84
86 86 86
50 50 50
0 0 0
82 82 82
86 86 86
53 53 53
0 0 0
81 81 81
86 86 86
56 56 56
0 0 0
80 80 80
86 86 86
60 60 60
0 0 0
80 80 80
87 87 87
64 64 64
0 0 0
81 81 81
89 89 89
67 67 67
0 0 0
83 83 83
90 90 90
71 71 71
0 0 0
85 85 85
92 92 92
74 74 74
0 0 0
88 88 88
94 94 94
77 77 77
0 0 0
91 91 91
96 96 96
80 80 80
0 0 0
94 94 94
98 98 98
84 84 84
6 6 6
96 96 96
100 100 100
88 88 88
14 14 14
98 98 98
103 103 103
92 92 92
22 22 22
100 100 100
105 105 105
96 96 96
29 29 29
101 101 101
107 107 107
100 100 100
38 38 38
104 104 104
109 109 109
103 103 103
48 48 48
107 107 107
112 112 112
107 107 107
0 0 0
0 0 0
0 0 0
0 0 0
0 0 0
0 0 0
0 0 0
0 0 0
0 0 0
21 21 21
19 19 19
0 0 0
0 0 0
22 22 22
21 21 21
0 0 0
0 0 0
20 20 20
21 21 21
0 0 0
0 0 0
16 16 16
17 17 17
0 0 0
0 0 0
13 13 13
14 14 14
0 0 0
0 0 0
12 12 12
12 12 12
0 0 0
0 0 0
12 12 12
12 12 12
0 0 0
0 0 0
13 13 13
12 12 12
0 0 0
0 0 0
13 13 13
13 13 13
0 0 0
0 0 0
13 13 13
13 13 13
0 0 0
0 0 0
14 14 14
14 14 14
0 0 0
0 0 0
14 14 14
15 15 15
0 0 0
0 0 0
14 14 14
16 16 16
0 0 0
0 0 0
15 15 15
17 17 17
0 0 0
0 0 0
15 15 15
19 19 19
0 0 0
0 0 0
15 15 15
21 21 21
0 0 0
0 0 0
17 17 17
23 23 23
0 0 0
0 0 0
19 19 19
27 27 27
1 1 1
0 0 0
24 24 24
32 32 32
8 8 8
0 0 0
29 29 29
37 37 37
15 15 15
0 0 0
35 35 35
42 42 42
22 22 22
0 0 0
42 42 42
48 48 48
29 29 29
0 0 0
48 48 48
53 53 53
35 35 35
0 0 0
53 53 53
58 58 58
41 41 41
0 0 0
58 58 58
62 62 62
48 48 48
0 0 0
62 62 62
67 67 67
55 55 55
0 0 0
67 67 67
73 73 73
62 62 62
0 0 0
71 71 71
78 78 78
70 70 70
5 5 5
77 77 77
83 83 83
77 77 77
20 20 20
84 84 84
90 90 90
85 85 85
0 0 0
0 0 0
0 0 0
0 0 0
0 0 0
0 0 0
0 0 0
0 0 0
0 0 0
0 0 0
0 0 0
0 0 0
0 0 0
0 0 0
0 0 0
0 0 0
0 0 0
0 0 0
0 0 0
0 0 0
0 0 0
0 0 0
0 0 0
0 0 0
0 0 0
0 0 0
0 0 0
0 0 0
0 0 0
0 0 0
0 0 0
0 0 0
0 0 0
0 0 0
0 0 0
0 0 0
0 0 0
0 0 0
0 0 0
0 0 0
0 0 0
0 0 0
0 0 0
0 0 0
0 0 0
0 0 0
0 0 0
0 0 0
0 0 0
0 0 0
0 0 0
0 0 0
0 0 0
0 0 0
0 0 0
0 0 0
0 0 0
0 0 0
0 0 0
0 0 0
0 0 0
0 0 0
0 0 0
0 0 0
0 0 0
0 0 0
0 0 0
0 0 0
0 0 0
0 0 0
0 0 0
0 0 0
0 0 0
0 0 0
0 0 0
0 0 0
0 0 0
0 0 0
0 0 0
0 0 0
0 0 0
0 0 0
0 0 0
0 0 0
0 0 0
0 0 0
0 0 0
0 0 0
0 0 0
0 0 0
0 0 0
0 0 0
0 0 0
0 0 0
0 0 0
0 0 0
0 0 0
0 0 0
0 0 0
0 0 0
0 0 0
0 0 0
0 0 0
0 0 0
0 0 0
0 0 0
4 4 4
0 0 0
0 0 0
7 7 7
13 13 13
0 0 0
0 0 0
16 16 16
22 22 22
10 10 10
0 0 0
25 25 25
32 32 32
22 22 22
0 0 0
35 35 35
43 43 43
35 35 35
0 0 0
49 49 49
56 56 56
50 50 50
0 0 0
0 0 0
0 0 0
0 0 0
0 0 0
0 0 0
0 0 0
0 0 0
0 0 0
127 127 127
125 125 125
61 61 61
0 0 0
127 127 127
125 125 125
63 63 63
0 0 0
127 127 127
125 125 125
66 66 66
0 0 0
127 127 127
125 125 125
67 67 67
0 0 0
127 127 127
125 125 125
69 69 69
0 0 0
127 127 127
125 125 125
70 70 70
0 0 0
127 127 127
125 125 125
71 71 71
0 0 0
127 127 127
125 125 125
72 72 72
0 0 0
127 127 127
125 125 125
74 74 74
0 0 0
127 127 127
126 126 126
76 76 76
0 0 0
127 127 127
126 126 126
78 78 78
0 0 0
127 127 127
127 127 127
81 81 81
0 0 0
126 126 126
127 127 127
83 83 83
0 0 0
126 126 126
127 127 127
85 85 85
0 0 0
124 124 124
127 127 127
88 88 88
0 0 0
123 123 123
127 127 127
91 91 91
0 0 0
121 121 121
127 127 127
95 95 95
0 0 0
120 120 120
127 127 127
98 98 98
0 0 0
120 120 120
127 127 127
101 101 101
0 0 0
120 120 120
127 127 127
103 103 103
0 0 0
120 120 120
127 127 127
105 105 105
0 0 0
121 121 121
127 127 127
106 106 106
0 0 0
122 122 122
127 127 127
107 107 107
4 4 4
122 122 122
127 127 127
109 109 109
12 12 12
122 122 122
127 127 127
111 111 111
19 19 19
122 122 122
127 127 127
113 113 113
25 25 25
121 121 121
127 127 127
115 115 115
31 31 31
120 120 120
127 127 127
117 117 117
38 38 38
120 120 120
127 127 127
119 119 119
46 46 46
120 120 120
127 127 127
121 121 121
54 54 54
120 120 120
127 127 127
123 123 123
65 65 65
122 122 122
127 127 127
122 122 122
98 98 98
100 100 100
98 98 98
33 33 33
0 0 0
100 100 100
98 98 98
35 35 35
0 0 0
100 100 100
98 98 98
37 37 37
0 0 0
99 99 99
97 97 97
36 36 36
0 0 0
98 98 98
96 96 96
37 37 37
0 0 0
96 96 96
94 94 94
37 37 37
0 0 0
95 95 95
92 92 92
36 36 36
0 0 0
93 93 93
90 90 90
36 36 36
0 0 0
92 92 92
90 90 90
37 37 37
0 0 0
91 91 91
89 89 89
38 38 38
0 0 0
90 90 90
89 89 89
39 39 39
0 0 0
90 90 90
89 89 89
41 41 41
0 0 0
89 89 89
89 89 89
43 43 43
0 0 0
87 87 87
88 88 88
44 44 44
0 0 0
85 85 85
88 88 88
47 47 47
0 0 0
83 83 83
87 87 87
49 49 49
0 0 0
82 82 82
87 87 87
52 52 52
0 0 0
80 80 80
87 87 87
56 56 56
0 0 0
80 80 80
88 88 88
60 60 60
0 0 0
81 81 81
89 89 89
63 63 63
0 0 0
83 83 83
90 90 90
67 67 67
0 0 0
86 86 86
92 92 92
70 70 70
0 0 0
89 89 89
94 94 94
73 73 73
0 0 0
91 91 91
96 96 96
76 76 76
0 0 0
92 92 92
97 97 97
80 80 80
0 0 0
93 93 93
99 99 99
84 84 84
0 0 0
95 95 95
101 101 101
88 88 88
0 0 0
96 96 96
103 103 103
92 92 92
9 9 9
97 97 97
105 105 105
96 96 96
20 20 20
100 100 100
107 107 107
100 100 100
31 31 31
102 102 102
109 109 109
104 104 104
44 44 44
106 106 106
111 111 111
106 106 106
80 80 80
19 19 19
16 16 16
0 0 0
0 0 0
19 19 19
18 18 18
0 0 0
0 0 0
20 20 20
19 19 19
0 0 0
0 0 0
22 22 22
20 20 20
0 0 0
0 0 0
22 22 22
21 21 21
0 0 0
0 0 0
21 21 21
19 19 19
0 0 0
0 0 0
19 19 19
17 17 17
0 0 0
0 0 0
17 17 17
15 15 15
0 0 0
0 0 0
16 16 16
14 14 14
0 0 0
0 0 0
15 15 15
14 14 14
0 0 0
0 0 0
15 15 15
13 13 13
0 0 0
0 0 0
15 15 15
14 14 14
0 0 0
0 0 0
15 15 15
15 15 15
0 0 0
0 0 0
15 15 15
15 15 15
0 0 0
0 0 0
14 14 14
16 16 16
0 0 0
0 0 0
13 13 13
17 17 17
0 0 0
0 0 0
13 13 13
18 18 18
0 0 0
0 0 0
14 14 14
21 21 21
0 0 0
0 0 0
17 17 17
25 25 25
0 0 0
0 0 0
21 21 21
29 29 29
1 1 1
0 0 0
26 26 26
34 34 34
8 8 8
0 0 0
32 32 32
39 39 39
14 14 14
0 0 0
38 38 38
44 44 44
20 20 20
0 0 0
43 43 43
48 48 48
27 27 27
0 0 0
48 48 48
53 53 53
34 34 34
0 0 0
52 52 52
58 58 58
41 41 41
0 0 0
55 55 55
62 62 62
48 48 48
0 0 0
60 60 60
67 67 67
56 56 56
0 0 0
65 65 65
73 73 73
63 63 63
0 0 0
70 70 70
78 78 78
70 70 70
0 0 0
76 76 76
83 83 83
77 77 77
15 15 15
82 82 82
89 89 89
83 83 83
55 55 55
0 0 0
0 0 0
0 0 0
0 0 0
0 0 0
0 0 0
0 0 0
0 0 0
0 0 0
0 0 0
0 0 0
0 0 0
0 0 0
0 0 0
0 0 0
0 0 0
0 0 0
0 0 0
0 0 0
0 0 0
0 0 0
0 0 0
0 0 0
0 0 0
0 0 0
0 0 0
0 0 0
0 0 0
0 0 0
0 0 0
0 0 0
0 0 0
0 0 0
0 0 0
0 0 0
0 0 0
0 0 0
0 0 0
0 0 0
0 0 0
0 0 0
0 0 0
0 0 0
0 0 0
0 0 0
0 0 0
0 0 0
0 0 0
0 0 0
0 0 0
0 0 0
0 0 0
0 0 0
0 0 0
0 0 0
0 0 0
0 0 0
0 0 0
0 0 0
0 0 0
0 0 0
0 0 0
0 0 0
0 0 0
0 0 0
0 0 0
0 0 0
0 0 0
0 0 0
0 0 0
0 0 0
0 0 0
0 0 0
0 0 0
0 0 0
0 0 0
0 0 0
0 0 0
0 0 0
0 0 0
0 0 0
0 0 0
0 0 0
0 0 0
0 0 0
0 0 0
0 0 0
0 0 0
0 0 0
0 0 0
0 0 0
0 0 0
0 0 0
0 0 0
0 0 0
0 0 0
0 0 0
0 0 0
0 0 0
0 0 0
0 0 0
0 0 0
0 0 0
0 0 0
0 0 0
0 0 0
0 0 0
0 0 0
2 2 2
11 11 11
0 0 0
0 0 0
13 13 13
22 22 22
11 11 11
0 0 0
24 24 24
33 33 33
23 23 23
0 0 0
34 34 34
43 43 43
36 36 36
0 0 0
46 46 46
54 54 54
48 48 48
15 15 15
127 127 127
124 124 124
56 56 56
0 0 0
127 127 127
124 124 124
58 58 58
0 0 0
127 127 127
125 125 125
61 61 61
0 0 0
127 127 127
124 124 124
61 61 61
0 0 0
127 127 127
124 124 124
61 61 61
0 0 0
127 127 127
123 123 123
61 61 61
0 0 0
127 127 127
122 122 122
62 62 62
0 0 0
127 127 127
123 123 123
63 63 63
0 0 0
127 127 127
123 123 123
65 65 65
0 0 0
127 127 127
124 124 124
67 67 67
0 0 0
127 127 127
124 124 124
70 70 70
0 0 0
127 127 127
125 125 125
72 72 72
0 0 0
127 127 127
126 126 126
75 75 75
0 0 0
127 127 127
126 126 126
78 78 78
0 0 0
126 126 126
127 127 127
80 80 80
0 0 0
125 125 125
127 127 127
83 83 83
0 0 0
123 123 123
127 127 127
87 87 87
0 0 0
121 121 121
127 127 127
90 90 90
0 0 0
120 120 120
127 127 127
94 94 94
0 0 0
120 120 120
127 127 127
96 96 96
0 0 0
120 120 120
127 127 127
98 98 98
0 0 0
121 121 121
127 127 127
100 100 100
0 0 0
122 122 122
127 127 127
102 102 102
0 0 0
122 122 122
127 127 127
104 104 104
0 0 0
122 122 122
127 127 127
106 106 106
0 0 0
121 121 121
127 127 127
108 108 108
0 0 0
120 120 120
127 127 127
111 111 111
6 6 6
120 120 120
127 127 127
113 113 113
14 14 14
119 119 119
127 127 127
116 116 116
23 23 23
119 119 119
127 127 127
118 118 118
33 33 33
119 119 119
127 127 127
120 120 120
43 43 43
120 120 120
127 127 127
121 121 121
89 89 89
101 101 101
97 97 97
28 28 28
0 0 0
101 101 101
97 97 97
30 30 30
0 0 0
100 100 100
98 98 98
32 32 32
0 0 0
100 100 100
97 97 97
32 32 32
0 0 0
100 100 100
96 96 96
33 33 33
0 0 0
100 100 100
95 95 95
32 32 32
0 0 0
99 99 99
94 94 94
32 32 32
0 0 0
99 99 99
94 94 94
33 33 33
0 0 0
98 98 98
94 94 94
34 34 34
0 0 0
98 98 98
94 94 94
36 36 36
0 0 0
97 97 97
94 94 94
38 38 38
0 0 0
96 96 96
94 94 94
40 40 40
0 0 0
95 95 95
93 93 93
41 41 41
0 0 0
94 94 94
93 93 93
43 43 43
0 0 0
92 92 92
92 92 92
44 44 44
0 0 0
90 90 90
91 91 91
46 46 46
0 0 0
87 87 87
90 90 90
48 48 48
0 0 0
85 85 85
90 90 90
51 51 51
0 0 0
83 83 83
90 90 90
55 55 55
0 0 0
83 83 83
90 90 90
58 58 58
0 0 0
84 84 84
91 91 91
61 61 61
0 0 0
86 86 86
92 92 92
64 64 64
0 0 0
88 88 88
94 94 94
67 67 67
0 0 0
90 90 90
95 95 95
70 70 70
0 0 0
91 91 91
96 96 96
73 73 73
0 0 0
92 92 92
97 97 97
77 77 77
0 0 0
92 92 92
99 99 99
81 81 81
0 0 0
93 93 93
100 100 100
85 85 85
0 0 0
94 94 94
102 102 102
89 89 89
0 0 0
95 95 95
103 103 103
93 93 93
5 5 5
97 97 97
105 105 105
97 97 97
18 18 18
100 100 100
107 107 107
101 101 101
66 66 66
16 16 16
12 12 12
0 0 0
0 0 0
16 16 16
14 14 14
0 0 0
0 0 0
17 17 17
15 15 15
0 0 0
0 0 0
19 19 19
16 16 16
0 0 0
0 0 0
20 20 20
17 17 17
0 0 0
0 0 0
21 21 21
17 17 17
0 0 0
0 0 0
22 22 22
18 18 18
0 0 0
0 0 0
23 23 23
19 19 19
0 0 0
0 0 0
23 23 23
20 20 20
0 0 0
0 0 0
24 24 24
21 21 21
0 0 0
0 0 0
24 24 24
21 21 21
0 0 0
0 0 0
23 23 23
21 21 21
0 0 0
0 0 0
23 23 23
21 21 21
0 0 0
0 0 0
22 22 22
21 21 21
0 0 0
0 0 0
20 20 20
21 21 21
0 0 0
0 0 0
18 18 18
20 20 20
0 0 0
0 0 0
16 16 16
19 19 19
0 0 0
0 0 0
15 15 15
20 20 20
0 0 0
0 0 0
16 16 16
23 23 23
0 0 0
0 0 0
19 19 19
26 26 26
0 0 0
0 0 0
23 23 23
30 30 30
0 0 0
0 0 0
28 28 28
34 34 34
3 3 3
0 0 0
32 32 32
38 38 38
9 9 9
0 0 0
37 37 37
42 42 42
15 15 15
0 0 0
41 41 41
46 46 46
21 21 21
0 0 0
44 44 44
50 50 50
28 28 28
0 0 0
47 47 47
54 54 54
35 35 35
0 0 0
50 50 50
58 58 58
42 42 42
0 0 0
55 55 55
63 63 63
50 50 50
0 0 0
59 59 59
68 68 68
57 57 57
0 0 0
65 65 65
74 74 74
64 64 64
0 0 0
71 71 71
79 79 79
71 71 71
33 33 33
0 0 0
0 0 0
0 0 0
0 0 0
0 0 0
0 0 0
0 0 0
0 0 0
0 0 0
0 0 0
0 0 0
0 0 0
0 0 0
0 0 0
0 0 0
0 0 0
0 0 0
0 0 0
0 0 0
0 0 0
0 0 0
0 0 0
0 0 0
0 0 0
0 0 0
0 0 0
0 0 0
0 0 0
0 0 0
0 0 0
0 0 0
0 0 0
0 0 0
0 0 0
0 0 0
0 0 0
0 0 0
0 0 0
0 0 0
0 0 0
0 0 0
0 0 0
0 0 0
0 0 0
0 0 0
0 0 0
0 0 0
0 0 0
0 0 0
0 0 0
0 0 0
0 0 0
0 0 0
0 0 0
0 0 0
0 0 0
0 0 0
0 0 0
0 0 0
0 0 0
0 0 0
0 0 0
0 0 0
0 0 0
0 0 0
0 0 0
0 0 0
0 0 0
0 0 0
0 0 0
0 0 0
0 0 0
0 0 0
0 0 0
0 0 0
0 0 0
0 0 0
0 0 0
0 0 0
0 0 0
0 0 0
0 0 0
0 0 0
0 0 0
0 0 0
0 0 0
0 0 0
0 0 0
0 0 0
0 0 0
0 0 0
0 0 0
0 0 0
0 0 0
0 0 0
0 0 0
0 0 0
0 0 0
0 0 0
0 0 0
0 0 0
0 0 0
0 0 0
0 0 0
0 0 0
0 0 0
0 0 0
0 0 0
0 0 0
0 0 0
0 0 0
0 0 0
0 0 0
0 0 0
0 0 0
0 0 0
1 1 1
11 11 11
0 0 0
0 0 0
14 14 14
23 23 23
13 13 13
0 0 0
26 26 26
35 35 35
26 26 26
0 0 0
127 127 127
123 123 123
52 52 52
0 0 0
127 127 127
123 123 123
53 53 53
0 0 0
127 127 127
124 124 124
56 56 56
0 0 0
127 127 127
123 123 123
56 56 56
0 0 0
127 127 127
123 123 123
56 56 56
0 0 0
127 127 127
122 122 122
57 57 57
0 0 0
127 127 127
122 122 122
57 57 57
0 0 0
127 127 127
122 122 122
58 58 58
0 0 0
127 127 127
122 122 122
60 60 60
0 0 0
127 127 127
123 123 123
61 61 61
0 0 0
127 127 127
123 123 123
63 63 63
0 0 0
127 127 127
123 123 123
65 65 65
0 0 0
127 127 127
124 124 124
67 67 67
0 0 0
127 127 127
124 124 124
69 69 69
0 0 0
127 127 127
125 125 125
72 72 72
0 0 0
127 127 127
127 127 127
77 77 77
0 0 0
125 125 125
127 127 127
80 80 80
0 0 0
123 123 123
127 127 127
84 84 84
0 0 0
122 122 122
127 127 127
87 87 87
0 0 0
121 121 121
127 127 127
90 90 90
0 0 0
121 121 121
127 127 127
92 92 92
0 0 0
121 121 121
127 127 127
94 94 94
0 0 0
122 122 122
127 127 127
96 96 96
0 0 0
122 122 122
127 127 127
98 98 98
0 0 0
122 122 122
127 127 127
100 100 100
0 0 0
121 121 121
127 127 127
103 103 103
0 0 0
121 121 121
127 127 127
106 106 106
0 0 0
120 120 120
127 127 127
109 109 109
0 0 0
119 119 119
127 127 127
112 112 112
0 0 0
119 119 119
127 127 127
114 114 114
10 10 10
119 119 119
127 127 127
116 116 116
21 21 21
119 119 119
127 127 127
118 118 118
75 75 75
101 101 101
97 97 97
24 24 24
0 0 0
101 101 101
97 97 97
26 26 26
0 0 0
101 101 101
97 97 97
28 28 28
0 0 0
100 100 100
96 96 96
28 28 28
0 0 0
100 100 100
96 96 96
28 28 28
0 0 0
100 100 100
95 95 95
28 28 28
0 0 0
100 100 100
95 95 95
28 28 28
0 0 0
100 100 100
95 95 95
29 29 29
0 0 0
100 100 100
95 95 95
31 31 31
0 0 0
100 100 100
96 96 96
33 33 33
0 0 0
101 101 101
97 97 97
35 35 35
0 0 0
101 101 101
97 97 97
37 37 37
0 0 0
101 101 101
98 98 98
39 39 39
0 0 0
101 101 101
98 98 98
41 41 41
0 0 0
100 100 100
98 98 98
43 43 43
0 0 0
99 99 99
98 98 98
46 46 46
0 0 0
95 95 95
96 96 96
47 47 47
0 0 0
92 92 92
95 95 95
50 50 50
0 0 0
89 89 89
94 94 94
52 52 52
0 0 0
88 88 88
94 94 94
55 55 55
0 0 0
88 88 88
94 94 94
58 58 58
0 0 0
89 89 89
94 94 94
60 60 60
0 0 0
90 90 90
95 95 95
62 62 62
0 0 0
91 91 91
96 96 96
66 66 66
0 0 0
92 92 92
97 97 97
69 69 69
0 0 0
92 92 92
98 98 98
72 72 72
0 0 0
92 92 92
98 98 98
76 76 76
0 0 0
92 92 92
99 99 99
79 79 79
0 0 0
92 92 92
100 100 100
83 83 83
0 0 0
92 92 92
101 101 101
87 87 87
0 0 0
94 94 94
103 103 103
91 91 91
0 0 0
96 96 96
104 104 104
95 95 95
48 48 48
14 14 14
9 9 9
0 0 0
0 0 0
14 14 14
10 10 10
0 0 0
0 0 0
16 16 16
12 12 12
0 0 0
0 0 0
15 15 15
12 12 12
0 0 0
0 0 0
16 16 16
12 12 12
0 0 0
0 0 0
17 17 17
13 13 13
0 0 0
0 0 0
18 18 18
13 13 13
0 0 0
0 0 0
19 19 19
14 14 14
0 0 0
0 0 0
20 20 20
16 16 16
0 0 0
0 0 0
22 22 22
18 18 18
0 0 0
0 0 0
24 24 24
21 21 21
0 0 0
0 0 0
26 26 26
23 23 23
0 0 0
0 0 0
28 28 28
26 26 26
0 0 0
0 0 0
30 30 30
27 27 27
0 0 0
0 0 0
30 30 30
28 28 28
0 0 0
0 0 0
29 29 29
28 28 28
0 0 0
0 0 0
25 25 25
26 26 26
0 0 0
0 0 0
22 22 22
26 26 26
0 0 0
0 0 0
21 21 21
26 26 26
0 0 0
0 0 0
21 21 21
27 27 27
0 0 0
0 0 0
24 24 24
30 30 30
0 0 0
0 0 0
27 27 27
33 33 33
0 0 0
0 0 0
31 31 31
36 36 36
1 1 1
0 0 0
34 34 34
39 39 39
6 6 6
0 0 0
37 37 37
43 43 43
12 12 12
0 0 0
40 40 40
46 46 46
18 18 18
0 0 0
42 42 42
49 49 49
24 24 24
0 0 0
45 45 45
52 52 52
31 31 31
0 0 0
48 48 48
56 56 56
38 38 38
0 0 0
51 51 51
60 60 60
45 45 45
0 0 0
56 56 56
65 65 65
52 52 52
0 0 0
62 62 62
71 71 71
60 60 60
10 10 10
0 0 0
0 0 0
0 0 0
0 0 0
0 0 0
0 0 0
0 0 0
0 0 0
0 0 0
0 0 0
0 0 0
0 0 0
0 0 0
0 0 0
0 0 0
0 0 0
0 0 0
0 0 0
0 0 0
0 0 0
0 0 0
0 0 0
0 0 0
0 0 0
0 0 0
0 0 0
0 0 0
0 0 0
0 0 0
0 0 0
0 0 0
0 0 0
0 0 0
0 0 0
0 0 0
0 0 0
0 0 0
0 0 0
0 0 0
0 0 0
0 0 0
0 0 0
0 0 0
0 0 0
0 0 0
0 0 0
0 0 0
0 0 0
0 0 0
0 0 0
0 0 0
0 0 0
0 0 0
0 0 0
0 0 0
0 0 0
0 0 0
0 0 0
0 0 0
0 0 0
0 0 0
0 0 0
0 0 0
0 0 0
0 0 0
0 0 0
0 0 0
0 0 0
0 0 0
0 0 0
0 0 0
0 0 0
0 0 0
0 0 0
0 0 0
0 0 0
0 0 0
0 0 0
0 0 0
0 0 0
0 0 0
0 0 0
0 0 0
0 0 0
0 0 0
0 0 0
0 0 0
0 0 0
0 0 0
0 0 0
0 0 0
0 0 0
0 0 0
0 0 0
0 0 0
0 0 0
0 0 0
0 0 0
0 0 0
0 0 0
0 0 0
0 0 0
0 0 0
0 0 0
0 0 0
0 0 0
0 0 0
0 0 0
0 0 0
0 0 0
0 0 0
0 0 0
0 0 0
0 0 0
0 0 0
0 0 0
0 0 0
0 0 0
0 0 0
0 0 0
0 0 0
3 3 3
0 0 0
0 0 0
5 5 5
15 15 15
2 2 2
0 0 0
127 127 127
122 122 122
47 47 47
0 0 0
127 127 127
122 122 122
49 49 49
0 0 0
127 127 127
122 122 122
50 50 50
0 0 0
127 127 127
122 122 122
51 51 51
0 0 0
127 127 127
122 122 122
52 52 52
0 0 0
127 127 127
121 121 121
52 52 52
0 0 0
127 127 127
121 121 121
52 52 52
0 0 0
127 127 127
121 121 121
54 54 54
0 0 0
127 127 127
122 122 122
56 56 56
0 0 0
127 127 127
122 122 122
58 58 58
0 0 0
127 127 127
123 123 123
60 60 60
0 0 0
127 127 127
123 123 123
62 62 62
0 0 0
127 127 127
123 123 123
63 63 63
0 0 0
127 127 127
123 123 123
64 64 64
0 0 0
127 127 127
123 123 123
65 65 65
0 0 0
127 127 127
124 124 124
68 68 68
0 0 0
127 127 127
126 126 126
73 73 73
0 0 0
126 126 126
127 127 127
77 77 77
0 0 0
124 124 124
127 127 127
81 81 81
0 0 0
122 122 122
127 127 127
84 84 84
0 0 0
122 122 122
127 127 127
86 86 86
0 0 0
122 122 122
127 127 127
89 89 89
0 0 0
122 122 122
127 127 127
90 90 90
0 0 0
122 122 122
127 127 127
93 93 93
0 0 0
122 122 122
127 127 127
95 95 95
0 0 0
122 122 122
127 127 127
98 98 98
0 0 0
121 121 121
127 127 127
100 100 100
0 0 0
120 120 120
127 127 127
104 104 104
0 0 0
119 119 119
127 127 127
107 107 107
0 0 0
119 119 119
127 127 127
110 110 110
0 0 0
118 118 118
127 127 127
112 112 112
0 0 0
118 118 118
127 127 127
115 115 115
60 60 60
101 101 101
96 96 96
19 19 19
0 0 0
101 101 101
96 96 96
22 22 22
0 0 0
101 101 101
96 96 96
22 22 22
0 0 0
100 100 100
95 95 95
23 23 23
0 0 0
100 100 100
95 95 95
23 23 23
0 0 0
100 100 100
94 94 94
23 23 23
0 0 0
100 100 100
94 94 94
24 24 24
0 0 0
100 100 100
94 94 94
25 25 25
0 0 0
100 100 100
95 95 95
27 27 27
0 0 0
101 101 101
96 96 96
30 30 30
0 0 0
101 101 101
97 97 97
33 33 33
0 0 0
102 102 102
98 98 98
35 35 35
0 0 0
103 103 103
99 99 99
37 37 37
0 0 0
103 103 103
100 100 100
39 39 39
0 0 0
104 104 104
100 100 100
40 40 40
0 0 0
103 103 103
100 100 100
43 43 43
0 0 0
103 103 103
102 102 102
47 47 47
0 0 0
101 101 101
101 101 101
50 50 50
0 0 0
97 97 97
100 100 100
52 52 52
0 0 0
95 95 95
99 99 99
54 54 54
0 0 0
93 93 93
98 98 98
56 56 56
0 0 0
93 93 93
98 98 98
58 58 58
0 0 0
93 93 93
98 98 98
60 60 60
0 0 0
94 94 94
98 98 98
63 63 63
0 0 0
94 94 94
99 99 99
65 65 65
0 0 0
94 94 94
99 99 99
68 68 68
0 0 0
94 94 94
99 99 99
71 71 71
0 0 0
93 93 93
99 99 99
75 75 75
0 0 0
92 92 92
100 100 100
78 78 78
0 0 0
92 92 92
100 100 100
82 82 82
0 0 0
92 92 92
101 101 101
85 85 85
0 0 0
94 94 94
103 103 103
90 90 90
32 32 32
11 11 11
6 6 6
0 0 0
0 0 0
11 11 11
7 7 7
0 0 0
0 0 0
12 12 12
7 7 7
0 0 0
0 0 0
12 12 12
8 8 8
0 0 0
0 0 0
13 13 13
8 8 8
0 0 0
0 0 0
14 14 14
8 8 8
0 0 0
0 0 0
15 15 15
9 9 9
0 0 0
0 0 0
16 16 16
10 10 10
0 0 0
0 0 0
17 17 17
12 12 12
0 0 0
0 0 0
19 19 19
15 15 15
0 0 0
0 0 0
21 21 21
18 18 18
0 0 0
0 0 0
23 23 23
21 21 21
0 0 0
0 0 0
26 26 26
23 23 23
0 0 0
0 0 0
28 28 28
25 25 25
0 0 0
0 0 0
30 30 30
27 27 27
0 0 0
0 0 0
32 32 32
30 30 30
0 0 0
0 0 0
33 33 33
32 32 32
0 0 0
0 0 0
32 32 32
33 33 33
0 0 0
0 0 0
29 29 29
32 32 32
0 0 0
0 0 0
28 28 28
32 32 32
0 0 0
0 0 0
28 28 28
33 33 33
0 0 0
0 0 0
29 29 29
35 35 35
0 0 0
0 0 0
32 32 32
37 37 37
0 0 0
0 0 0
34 34 34
39 39 39
1 1 1
0 0 0
37 37 37
42 42 42
6 6 6
0 0 0
39 39 39
44 44 44
11 11 11
0 0 0
41 41 41
47 47 47
16 16 16
0 0 0
42 42 42
49 49 49
22 22 22
0 0 0
44 44 44
52 52 52
28 28 28
0 0 0
46 46 46
55 55 55
34 34 34
0 0 0
49 49 49
59 59 59
42 42 42
0 0 0
54 54 54
64 64 64
49 49 49
0 0 0
0 0 0
0 0 0
0 0 0
0 0 0
0 0 0
0 0 0
0 0 0
0 0 0
0 0 0
0 0 0
0 0 0
0 0 0
0 0 0
0 0 0
0 0 0
0 0 0
0 0 0
0 0 0
0 0 0
0 0 0
0 0 0
0 0 0
0 0 0
0 0 0
0 0 0
0 0 0
0 0 0
0 0 0
0 0 0
0 0 0
0 0 0
0 0 0
0 0 0
0 0 0
0 0 0
0 0 0
0 0 0
0 0 0
0 0 0
0 0 0
0 0 0
0 0 0
0 0 0
0 0 0
0 0 0
0 0 0
0 0 0
0 0 0
0 0 0
0 0 0
0 0 0
0 0 0
0 0 0
0 0 0
0 0 0
0 0 0
0 0 0
0 0 0
0 0 0
0 0 0
0 0 0
0 0 0
0 0 0
0 0 0
0 0 0
0 0 0
0 0 0
0 0 0
0 0 0
0 0 0
0 0 0
0 0 0
0 0 0
0 0 0
0 0 0
0 0 0
0 0 0
0 0 0
0 0 0
0 0 0
0 0 0
0 0 0
0 0 0
0 0 0
0 0 0
0 0 0
0 0 0
0 0 0
0 0 0
0 0 0
0 0 0
0 0 0
1 1 1
0 0 0
0 0 0
0 0 0
0 0 0
0 0 0
0 0 0
0 0 0
0 0 0
0 0 0
0 0 0
0 0 0
0 0 0
0 0 0
0 0 0
0 0 0
0 0 0
0 0 0
0 0 0
0 0 0
0 0 0
0 0 0
0 0 0
0 0 0
0 0 0
0 0 0
0 0 0
0 0 0
0 0 0
0 0 0
0 0 0
0 0 0
0 0 0
0 0 0
0 0 0
0 0 0
127 127 127
121 121 121
42 42 42
0 0 0
127 127 127
121 121 121
44 44 44
0 0 0
127 127 127
121 121 121
45 45 45
0 0 0
127 127 127
121 121 121
46 46 46
0 0 0
127 127 127
121 121 121
47 47 47
0 0 0
127 127 127
121 121 121
47 47 47
0 0 0
127 127 127
121 121 121
48 48 48
0 0 0
127 127 127
121 121 121
50 50 50
0 0 0
127 127 127
121 121 121
52 52 52
0 0 0
127 127 127
122 122 122
54 54 54
0 0 0
127 127 127
123 123 123
57 57 57
0 0 0
127 127 127
123 123 123
59 59 59
0 0 0
127 127 127
123 123 123
60 60 60
0 0 0
127 127 127
123 123 123
61 61 61
0 0 0
127 127 127
123 123 123
62 62 62
0 0 0
127 127 127
124 124 124
64 64 64
0 0 0
127 127 127
125 125 125
68 68 68
0 0 0
127 127 127
126 126 126
72 72 72
0 0 0
126 126 126
127 127 127
76 76 76
0 0 0
125 125 125
127 127 127
79 79 79
0 0 0
124 124 124
127 127 127
81 81 81
0 0 0
123 123 123
127 127 127
84 84 84
0 0 0
123 123 123
127 127 127
86 86 86
0 0 0
123 123 123
127 127 127
88 88 88
0 0 0
123 123 123
127 127 127
90 90 90
0 0 0
123 123 123
127 127 127
93 93 93
0 0 0
122 122 122
127 127 127
95 95 95
0 0 0
121 121 121
127 127 127
98 98 98
0 0 0
120 120 120
127 127 127
102 102 102
0 0 0
119 119 119
127 127 127
105 105 105
0 0 0
118 118 118
127 127 127
108 108 108
0 0 0
117 117 117
127 127 127
111 111 111
45 45 45
101 101 101
94 94 94
14 14 14
0 0 0
101 101 101
95 95 95
16 16 16
0 0 0
101 101 101
94 94 94
17 17 17
0 0 0
100 100 100
94 94 94
18 18 18
0 0 0
100 100 100
94 94 94
19 19 19
0 0 0
100 100 100
94 94 94
19 19 19
0 0 0
100 100 100
94 94 94
20 20 20
0 0 0
101 101 101
94 94 94
22 22 22
0 0 0
101 101 101
95 95 95
24 24 24
0 0 0
102 102 102
97 97 97
27 27 27
0 0 0
102 102 102
98 98 98
31 31 31
0 0 0
103 103 103
99 99 99
33 33 33
0 0 0
103 103 103
100 100 100
35 35 35
0 0 0
104 104 104
100 100 100
37 37 37
0 0 0
105 105 105
101 101 101
38 38 38
0 0 0
105 105 105
102 102 102
41 41 41
0 0 0
105 105 105
103 103 103
45 45 45
0 0 0
105 105 105
105 105 105
49 49 49
0 0 0
104 104 104
105 105 105
52 52 52
0 0 0
102 102 102
104 104 104
54 54 54
0 0 0
100 100 100
103 103 103
55 55 55
0 0 0
98 98 98
102 102 102
57 57 57
0 0 0
98 98 98
101 101 101
59 59 59
0 0 0
98 98 98
101 101 101
61 61 61
0 0 0
97 97 97
101 101 101
63 63 63
0 0 0
97 97 97
101 101 101
66 66 66
0 0 0
97 97 97
101 101 101
68 68 68
0 0 0
96 96 96
101 101 101
71 71 71
0 0 0
94 94 94
101 101 101
74 74 74
0 0 0
93 93 93
101 101 101
77 77 77
0 0 0
92 92 92
101 101 101
81 81 81
0 0 0
93 93 93
102 102 102
85 85 85
16 16 16
7 7 7
0 0 0
0 0 0
0 0 0
8 8 8
2 2 2
0 0 0
0 0 0
8 8 8
3 3 3
0 0 0
0 0 0
9 9 9
3 3 3
0 0 0
0 0 0
10 10 10
4 4 4
0 0 0
0 0 0
11 11 11
5 5 5
0 0 0
0 0 0
13 13 13
7 7 7
0 0 0
0 0 0
14 14 14
8 8 8
0 0 0
0 0 0
16 16 16
11 11 11
0 0 0
0 0 0
17 17 17
13 13 13
0 0 0
0 0 0
19 19 19
16 16 16
0 0 0
0 0 0
22 22 22
19 19 19
0 0 0
0 0 0
24 24 24
21 21 21
0 0 0
0 0 0
27 27 27
23 23 23
0 0 0
0 0 0
29 29 29
26 26 26
0 0 0
0 0 0
31 31 31
28 28 28
0 0 0
0 0 0
33 33 33
31 31 31
0 0 0
0 0 0
35 35 35
35 35 35
0 0 0
0 0 0
36 36 36
37 37 37
0 0 0
0 0 0
35 35 35
38 38 38
0 0 0
0 0 0
35 35 35
38 38 38
0 0 0
0 0 0
34 34 34
38 38 38
0 0 0
0 0 0
35 35 35
39 39 39
0 0 0
0 0 0
37 37 37
41 41 41
0 0 0
0 0 0
38 38 38
43 43 43
2 2 2
0 0 0
40 40 40
45 45 45
7 7 7
0 0 0
42 42 42
47 47 47
11 11 11
0 0 0
42 42 42
48 48 48
15 15 15
0 0 0
43 43 43
49 49 49
20 20 20
0 0 0
43 43 43
51 51 51
26 26 26
0 0 0
46 46 46
55 55 55
33 33 33
0 0 0
49 49 49
59 59 59
41 41 41
0 0 0
0 0 0
0 0 0
0 0 0
0 0 0
0 0 0
0 0 0
0 0 0
0 0 0
0 0 0
0 0 0
0 0 0
0 0 0
0 0 0
0 0 0
0 0 0
0 0 0
0 0 0
0 0 0
0 0 0
0 0 0
0 0 0
0 0 0
0 0 0
0 0 0
0 0 0
0 0 0
0 0 0
0 0 0
0 0 0
0 0 0
0 0 0
0 0 0
0 0 0
0 0 0
0 0 0
0 0 0
0 0 0
0 0 0
0 0 0
0 0 0
0 0 0
0 0 0
0 0 0
0 0 0
0 0 0
0 0 0
0 0 0
0 0 0
0 0 0
0 0 0
0 0 0
0 0 0
0 0 0
0 0 0
0 0 0
0 0 0
0 0 0
0 0 0
0 0 0
0 0 0
0 0 0
0 0 0
0 0 0
0 0 0
0 0 0
0 0 0
0 0 0
0 0 0
0 0 0
0 0 0
0 0 0
0 0 0
0 0 0
0 0 0
0 0 0
0 0 0
0 0 0
0 0 0
0 0 0
0 0 0
0 0 0
0 0 0
0 0 0
0 0 0
0 0 0
0 0 0
0 0 0
0 0 0
0 0 0
0 0 0
0 0 0
0 0 0
0 0 0
0 0 0
0 0 0
0 0 0
0 0 0
0 0 0
0 0 0
0 0 0
0 0 0
0 0 0
0 0 0
0 0 0
5 5 5
10 10 10
0 0 0
0 0 0
0 0 0
0 0 0
0 0 0
0 0 0
0 0 0
0 0 0
0 0 0
0 0 0
0 0 0
0 0 0
0 0 0
0 0 0
0 0 0
0 0 0
0 0 0
0 0 0
0 0 0
0 0 0
0 0 0
0 0 0
127 127 127
119 119 119
37 37 37
0 0 0
127 127 127
120 120 120
39 39 39
0 0 0
127 127 127
120 120 120
41 41 41
0 0 0
127 127 127
120 120 120
42 42 42
0 0 0
127 127 127
120 120 120
43 43 43
0 0 0
127 127 127
120 120 120
44 44 44
0 0 0
127 127 127
120 120 120
45 45 45
0 0 0
127 127 127
121 121 121
46 46 46
0 0 0
127 127 127
121 121 121
48 48 48
0 0 0
127 127 127
122 122 122
51 51 51
0 0 0
127 127 127
123 123 123
54 54 54
0 0 0
127 127 127
123 123 123
56 56 56
0 0 0
127 127 127
123 123 123
57 57 57
0 0 0
127 127 127
123 123 123
58 58 58
0 0 0
127 127 127
123 123 123
60 60 60
0 0 0
127 127 127
124 124 124
61 61 61
0 0 0
127 127 127
125 125 125
65 65 65
0 0 0
127 127 127
126 126 126
69 69 69
0 0 0
127 127 127
127 127 127
72 72 72
0 0 0
126 126 126
127 127 127
75 75 75
0 0 0
126 126 126
127 127 127
77 77 77
0 0 0
125 125 125
127 127 127
79 79 79
0 0 0
125 125 125
127 127 127
82 82 82
0 0 0
124 124 124
127 127 127
84 84 84
0 0 0
124 124 124
127 127 127
86 86 86
0 0 0
124 124 124
127 127 127
88 88 88
0 0 0
123 123 123
127 127 127
91 91 91
0 0 0
123 123 123
127 127 127
93 93 93
0 0 0
122 122 122
127 127 127
96 96 96
0 0 0
120 120 120
127 127 127
100 100 100
0 0 0
119 119 119
127 127 127
104 104 104
0 0 0
117 117 117
127 127 127
107 107 107
29 29 29
107 107 107
97 97 97
13 13 13
0 0 0
101 101 101
93 93 93
11 11 11
0 0 0
100 100 100
93 93 93
12 12 12
0 0 0
101 101 101
94 94 94
14 14 14
0 0 0
101 101 101
94 94 94
15 15 15
0 0 0
101 101 101
95 95 95
17 17 17
0 0 0
102 102 102
95 95 95
18 18 18
0 0 0
102 102 102
96 96 96
20 20 20
0 0 0
103 103 103
97 97 97
23 23 23
0 0 0
103 103 103
98 98 98
26 26 26
0 0 0
104 104 104
99 99 99
29 29 29
0 0 0
104 104 104
100 100 100
32 32 32
0 0 0
105 105 105
101 101 101
33 33 33
0 0 0
105 105 105
101 101 101
35 35 35
0 0 0
106 106 106
102 102 102
37 37 37
0 0 0
106 106 106
103 103 103
40 40 40
0 0 0
107 107 107
104 104 104
44 44 44
0 0 0
107 107 107
106 106 106
47 47 47
0 0 0
107 107 107
107 107 107
51 51 51
0 0 0
106 106 106
106 106 106
53 53 53
0 0 0
105 105 105
106 106 106
54 54 54
0 0 0
104 104 104
105 105 105
56 56 56
0 0 0
103 103 103
105 105 105
58 58 58
0 0 0
102 102 102
105 105 105
60 60 60
0 0 0
101 101 101
104 104 104
62 62 62
0 0 0
101 101 101
104 104 104
64 64 64
0 0 0
100 100 100
103 103 103
66 66 66
0 0 0
99 99 99
103 103 103
68 68 68
0 0 0
97 97 97
102 102 102
70 70 70
0 0 0
95 95 95
102 102 102
74 74 74
0 0 0
94 94 94
102 102 102
77 77 77
0 0 0
93 93 93
103 103 103
82 82 82
1 1 1
18 18 18
7 7 7
0 0 0
0 0 0
5 5 5
0 0 0
0 0 0
0 0 0
4 4 4
0 0 0
0 0 0
0 0 0
7 7 7
1 1 1
0 0 0
0 0 0
9 9 9
3 3 3
0 0 0
0 0 0
10 10 10
4 4 4
0 0 0
0 0 0
13 13 13
6 6 6
0 0 0
0 0 0
15 15 15
9 9 9
0 0 0
0 0 0
16 16 16
11 11 11
0 0 0
0 0 0
18 18 18
14 14 14
0 0 0
0 0 0
20 20 20
16 16 16
0 0 0
0 0 0
22 22 22
19 19 19
0 0 0
0 0 0
24 24 24
21 21 21
0 0 0
0 0 0
26 26 26
23 23 23
0 0 0
0 0 0
28 28 28
26 26 26
0 0 0
0 0 0
31 31 31
28 28 28
0 0 0
0 0 0
33 33 33
31 31 31
0 0 0
0 0 0
35 35 35
35 35 35
0 0 0
0 0 0
37 37 37
37 37 37
0 0 0
0 0 0
37 37 37
38 38 38
0 0 0
0 0 0
38 38 38
39 39 39
0 0 0
0 0 0
38 38 38
41 41 41
0 0 0
0 0 0
39 39 39
42 42 42
0 0 0
0 0 0
41 41 41
44 44 44
0 0 0
0 0 0
41 41 41
45 45 45
0 0 0
0 0 0
42 42 42
46 46 46
3 3 3
0 0 0
43 43 43
47 47 47
7 7 7
0 0 0
44 44 44
48 48 48
10 10 10
0 0 0
43 43 43
49 49 49
15 15 15
0 0 0
43 43 43
50 50 50
19 19 19
0 0 0
44 44 44
53 53 53
26 26 26
0 0 0
46 46 46
56 56 56
34 34 34
0 0 0
0 0 0
0 0 0
0 0 0
0 0 0
0 0 0
0 0 0
0 0 0
0 0 0
0 0 0
0 0 0
0 0 0
0 0 0
0 0 0
0 0 0
0 0 0
0 0 0
0 0 0
0 0 0
0 0 0
0 0 0
0 0 0
0 0 0
0 0 0
0 0 0
0 0 0
0 0 0
0 0 0
0 0 0
0 0 0
0 0 0
0 0 0
0 0 0
0 0 0
0 0 0
0 0 0
0 0 0
0 0 0
0 0 0
0 0 0
0 0 0
0 0 0
0 0 0
0 0 0
0 0 0
0 0 0
0 0 0
0 0 0
0 0 0
0 0 0
0 0 0
0 0 0
0 0 0
0 0 0
0 0 0
0 0 0
0 0 0
0 0 0
0 0 0
0 0 0
0 0 0
0 0 0
0 0 0
0 0 0
0 0 0
0 0 0
0 0 0
0 0 0
0 0 0
0 0 0
0 0 0
0 0 0
0 0 0
0 0 0
0 0 0
0 0 0
0 0 0
0 0 0
0 0 0
0 0 0
0 0 0
0 0 0
0 0 0
0 0 0
0 0 0
0 0 0
0 0 0
0 0 0
0 0 0
0 0 0
0 0 0
0 0 0
0 0 0
0 0 0
0 0 0
0 0 0
0 0 0
0 0 0
0 0 0
0 0 0
0 0 0
0 0 0
0 0 0
0 0 0
0 0 0
0 0 0
0 0 0
0 0 0
0 0 0
0 0 0
0 0 0
0 0 0
0 0 0
4 4 4
10 10 10
0 0 0
0 0 0
0 0 0
0 0 0
0 0 0
0 0 0
0 0 0
0 0 0
0 0 0
0 0 0
0 0 0
0 0 0
0 0 0
0 0 0
127 127 127
112 112 112
23 23 23
0 0 0
127 127 127
117 117 117
33 33 33
0 0 0
127 127 127
119 119 119
37 37 37
0 0 0
127 127 127
120 120 120
39 39 39
0 0 0
127 127 127
120 120 120
40 40 40
0 0 0
127 127 127
120 120 120
41 41 41
0 0 0
127 127 127
120 120 120
42 42 42
0 0 0
127 127 127
121 121 121
44 44 44
0 0 0
127 127 127
121 121 121
45 45 45
0 0 0
127 127 127
122 122 122
48 48 48
0 0 0
127 127 127
123 123 123
51 51 51
0 0 0
127 127 127
123 123 123
53 53 53
0 0 0
127 127 127
123 123 123
55 55 55
0 0 0
127 127 127
123 123 123
56 56 56
0 0 0
127 127 127
124 124 124
58 58 58
0 0 0
127 127 127
124 124 124
59 59 59
0 0 0
127 127 127
124 124 124
62 62 62
0 0 0
127 127 127
125 125 125
65 65 65
0 0 0
127 127 127
126 126 126
68 68 68
0 0 0
127 127 127
127 127 127
71 71 71
0 0 0
127 127 127
127 127 127
74 74 74
0 0 0
126 126 126
127 127 127
76 76 76
0 0 0
126 126 126
127 127 127
78 78 78
0 0 0
125 125 125
127 127 127
80 80 80
0 0 0
125 125 125
127 127 127
82 82 82
0 0 0
125 125 125
127 127 127
84 84 84
0 0 0
125 125 125
127 127 127
86 86 86
0 0 0
124 124 124
127 127 127
88 88 88
0 0 0
123 123 123
127 127 127
92 92 92
0 0 0
121 121 121
127 127 127
95 95 95
0 0 0
119 119 119
127 127 127
99 99 99
0 0 0
118 118 118
127 127 127
103 103 103
15 15 15
113 113 113
98 98 98
8 8 8
0 0 0
111 111 111
100 100 100
15 15 15
0 0 0
106 106 106
97 97 97
12 12 12
0 0 0
101 101 101
94 94 94
12 12 12
0 0 0
102 102 102
96 96 96
14 14 14
0 0 0
103 103 103
97 97 97
16 16 16
0 0 0
104 104 104
98 98 98
18 18 18
0 0 0
105 105 105
98 98 98
20 20 20
0 0 0
105 105 105
99 99 99
23 23 23
0 0 0
106 106 106
100 100 100
26 26 26
0 0 0
106 106 106
101 101 101
29 29 29
0 0 0
106 106 106
102 102 102
31 31 31
0 0 0
106 106 106
103 103 103
33 33 33
0 0 0
107 107 107
103 103 103
35 35 35
0 0 0
107 107 107
104 104 104
37 37 37
0 0 0
108 108 108
105 105 105
39 39 39
0 0 0
108 108 108
106 106 106
43 43 43
0 0 0
108 108 108
107 107 107
45 45 45
0 0 0
108 108 108
107 107 107
48 48 48
0 0 0
108 108 108
107 107 107
50 50 50
0 0 0
107 107 107
107 107 107
52 52 52
0 0 0
106 106 106
106 106 106
54 54 54
0 0 0
105 105 105
106 106 106
56 56 56
0 0 0
105 105 105
107 107 107
58 58 58
0 0 0
105 105 105
106 106 106
60 60 60
0 0 0
104 104 104
106 106 106
62 62 62
0 0 0
104 104 104
106 106 106
64 64 64
0 0 0
103 103 103
105 105 105
65 65 65
0 0 0
101 101 101
104 104 104
68 68 68
0 0 0
98 98 98
104 104 104
71 71 71
0 0 0
96 96 96
103 103 103
75 75 75
0 0 0
95 95 95
104 104 104
79 79 79
0 0 0
27 27 27
12 12 12
0 0 0
0 0 0
27 27 27
15 15 15
0 0 0
0 0 0
16 16 16
5 5 5
0 0 0
0 0 0
4 4 4
0 0 0
0 0 0
0 0 0
8 8 8
2 2 2
0 0 0
0 0 0
12 12 12
6 6 6
0 0 0
0 0 0
14 14 14
9 9 9
0 0 0
0 0 0
17 17 17
11 11 11
0 0 0
0 0 0
19 19 19
13 13 13
0 0 0
0 0 0
20 20 20
16 16 16
0 0 0
0 0 0
22 22 22
18 18 18
0 0 0
0 0 0
23 23 23
20 20 20
0 0 0
0 0 0
25 25 25
22 22 22
0 0 0
0 0 0
27 27 27
24 24 24
0 0 0
0 0 0
30 30 30
27 27 27
0 0 0
0 0 0
32 32 32
29 29 29
0 0 0
0 0 0
34 34 34
32 32 32
0 0 0
0 0 0
36 36 36
34 34 34
0 0 0
0 0 0
36 36 36
36 36 36
0 0 0
0 0 0
37 37 37
37 37 37
0 0 0
0 0 0
37 37 37
38 38 38
0 0 0
0 0 0
38 38 38
39 39 39
0 0 0
0 0 0
39 39 39
41 41 41
0 0 0
0 0 0
41 41 41
43 43 43
0 0 0
0 0 0
43 43 43
45 45 45
0 0 0
0 0 0
45 45 45
47 47 47
0 0 0
0 0 0
45 45 45
48 48 48
3 3 3
0 0 0
46 46 46
49 49 49
6 6 6
0 0 0
45 45 45
49 49 49
10 10 10
0 0 0
44 44 44
50 50 50
15 15 15
0 0 0
44 44 44
52 52 52
21 21 21
0 0 0
45 45 45
56 56 56
29 29 29
0 0 0
0 0 0
0 0 0
0 0 0
0 0 0
0 0 0
0 0 0
0 0 0
0 0 0
0 0 0
0 0 0
0 0 0
0 0 0
0 0 0
0 0 0
0 0 0
0 0 0
0 0 0
0 0 0
0 0 0
0 0 0
0 0 0
0 0 0
0 0 0
0 0 0
0 0 0
0 0 0
0 0 0
0 0 0
0 0 0
0 0 0
0 0 0
0 0 0
0 0 0
0 0 0
0 0 0
0 0 0
0 0 0
0 0 0
0 0 0
0 0 0
0 0 0
0 0 0
0 0 0
0 0 0
0 0 0
0 0 0
0 0 0
0 0 0
0 0 0
0 0 0
0 0 0
0 0 0
0 0 0
0 0 0
0 0 0
0 0 0
0 0 0
0 0 0
0 0 0
0 0 0
0 0 0
0 0 0
0 0 0
0 0 0
0 0 0
0 0 0
0 0 0
0 0 0
0 0 0
0 0 0
0 0 0
0 0 0
0 0 0
0 0 0
0 0 0
0 0 0
0 0 0
0 0 0
0 0 0
0 0 0
0 0 0
0 0 0
0 0 0
0 0 0
0 0 0
0 0 0
0 0 0
0 0 0
0 0 0
0 0 0
0 0 0
0 0 0
0 0 0
0 0 0
0 0 0
0 0 0
0 0 0
0 0 0
0 0 0
0 0 0
0 0 0
0 0 0
0 0 0
0 0 0
0 0 0
0 0 0
0 0 0
0 0 0
0 0 0
0 0 0
0 0 0
0 0 0
0 0 0
0 0 0
0 0 0
0 0 0
0 0 0
1 1 1
0 0 0
0 0 0
4 4 4
13 13 13
0 0 0
0 0 0
14 14 14
25 25 25
0 0 0
0 0 0
127 127 127
113 113 113
25 25 25
0 0 0
127 127 127
113 113 113
23 23 23
0 0 0
127 127 127
112 112 112
22 22 22
0 0 0
127 127 127
118 118 118
36 36 36
0 0 0
127 127 127
121 121 121
38 38 38
0 0 0
127 127 127
121 121 121
40 40 40
0 0 0
127 127 127
121 121 121
41 41 41
0 0 0
127 127 127
121 121 121
42 42 42
0 0 0
127 127 127
121 121 121
43 43 43
0 0 0
127 127 127
121 121 121
46 46 46
0 0 0
127 127 127
122 122 122
48 48 48
0 0 0
127 127 127
123 123 123
51 51 51
0 0 0
127 127 127
123 123 123
53 53 53
0 0 0
127 127 127
123 123 123
54 54 54
0 0 0
127 127 127
124 124 124
56 56 56
0 0 0
127 127 127
124 124 124
58 58 58
0 0 0
127 127 127
124 124 124
60 60 60
0 0 0
127 127 127
124 124 124
62 62 62
0 0 0
127 127 127
125 125 125
64 64 64
0 0 0
127 127 127
125 125 125
67 67 67
0 0 0
127 127 127
126 126 126
70 70 70
0 0 0
127 127 127
127 127 127
73 73 73
0 0 0
126 126 126
127 127 127
76 76 76
0 0 0
126 126 126
127 127 127
77 77 77
0 0 0
126 126 126
127 127 127
79 79 79
0 0 0
126 126 126
127 127 127
81 81 81
0 0 0
126 126 126
127 127 127
82 82 82
0 0 0
126 126 126
127 127 127
84 84 84
0 0 0
125 125 125
127 127 127
87 87 87
0 0 0
123 123 123
127 127 127
91 91 91
0 0 0
120 120 120
127 127 127
95 95 95
0 0 0
118 118 118
127 127 127
100 100 100
1 1 1
114 114 114
100 100 100
12 12 12
0 0 0
114 114 114
100 100 100
10 10 10
0 0 0
113 113 113
98 98 98
8 8 8
0 0 0
112 112 112
102 102 102
19 19 19
0 0 0
107 107 107
100 100 100
16 16 16
0 0 0
105 105 105
99 99 99
18 18 18
0 0 0
107 107 107
101 101 101
20 20 20
0 0 0
108 108 108
102 102 102
22 22 22
0 0 0
108 108 108
102 102 102
24 24 24
0 0 0
109 109 109
103 103 103
26 26 26
0 0 0
109 109 109
104 104 104
29 29 29
0 0 0
109 109 109
104 104 104
31 31 31
0 0 0
109 109 109
105 105 105
33 33 33
0 0 0
109 109 109
105 105 105
35 35 35
0 0 0
110 110 110
106 106 106
38 38 38
0 0 0
110 110 110
106 106 106
39 39 39
0 0 0
110 110 110
107 107 107
41 41 41
0 0 0
109 109 109
107 107 107
43 43 43
0 0 0
109 109 109
106 106 106
45 45 45
0 0 0
108 108 108
106 106 106
46 46 46
0 0 0
107 107 107
106 106 106
48 48 48
0 0 0
107 107 107
107 107 107
52 52 52
0 0 0
106 106 106
106 106 106
54 54 54
0 0 0
106 106 106
107 107 107
56 56 56
0 0 0
106 106 106
107 107 107
57 57 57
0 0 0
106 106 106
106 106 106
59 59 59
0 0 0
105 105 105
106 106 106
60 60 60
0 0 0
105 105 105
106 106 106
62 62 62
0 0 0
103 103 103
105 105 105
64 64 64
0 0 0
101 101 101
105 105 105
68 68 68
0 0 0
99 99 99
105 105 105
73 73 73
0 0 0
97 97 97
106 106 106
77 77 77
0 0 0
27 27 27
12 12 12
0 0 0
0 0 0
26 26 26
12 12 12
0 0 0
0 0 0
26 26 26
12 12 12
0 0 0
0 0 0
27 27 27
16 16 16
0 0 0
0 0 0
16 16 16
8 8 8
0 0 0
0 0 0
13 13 13
7 7 7
0 0 0
0 0 0
17 17 17
12 12 12
0 0 0
0 0 0
20 20 20
14 14 14
0 0 0
0 0 0
22 22 22
17 17 17
0 0 0
0 0 0
24 24 24
19 19 19
0 0 0
0 0 0
25 25 25
21 21 21
0 0 0
0 0 0
26 26 26
23 23 23
0 0 0
0 0 0
28 28 28
25 25 25
0 0 0
0 0 0
30 30 30
27 27 27
0 0 0
0 0 0
32 32 32
29 29 29
0 0 0
0 0 0
33 33 33
30 30 30
0 0 0
0 0 0
35 35 35
32 32 32
0 0 0
0 0 0
35 35 35
33 33 33
0 0 0
0 0 0
36 36 36
34 34 34
0 0 0
0 0 0
36 36 36
34 34 34
0 0 0
0 0 0
36 36 36
35 35 35
0 0 0
0 0 0
37 37 37
37 37 37
0 0 0
0 0 0
37 37 37
38 38 38
0 0 0
0 0 0
39 39 39
40 40 40
0 0 0
0 0 0
41 41 41
42 42 42
0 0 0
0 0 0
42 42 42
44 44 44
0 0 0
0 0 0
43 43 43
45 45 45
0 0 0
0 0 0
44 44 44
46 46 46
0 0 0
0 0 0
44 44 44
47 47 47
4 4 4
0 0 0
44 44 44
49 49 49
10 10 10
0 0 0
44 44 44
52 52 52
17 17 17
0 0 0
45 45 45
55 55 55
25 25 25
0 0 0
0 0 0
0 0 0
0 0 0
0 0 0
0 0 0
0 0 0
0 0 0
0 0 0
0 0 0
0 0 0
0 0 0
0 0 0
0 0 0
0 0 0
0 0 0
0 0 0
0 0 0
0 0 0
0 0 0
0 0 0
0 0 0
0 0 0
0 0 0
0 0 0
0 0 0
0 0 0
0 0 0
0 0 0
0 0 0
0 0 0
0 0 0
0 0 0
0 0 0
0 0 0
0 0 0
0 0 0
0 0 0
0 0 0
0 0 0
0 0 0
0 0 0
0 0 0
0 0 0
0 0 0
0 0 0
0 0 0
0 0 0
0 0 0
0 0 0
0 0 0
0 0 0
0 0 0
0 0 0
0 0 0
0 0 0
0 0 0
0 0 0
0 0 0
0 0 0
0 0 0
0 0 0
0 0 0
0 0 0
0 0 0
0 0 0
0 0 0
0 0 0
0 0 0
0 0 0
0 0 0
0 0 0
0 0 0
0 0 0
0 0 0
0 0 0
0 0 0
0 0 0
0 0 0
0 0 0
0 0 0
0 0 0
0 0 0
0 0 0
0 0 0
0 0 0
0 0 0
0 0 0
0 0 0
0 0 0
0 0 0
0 0 0
0 0 0
0 0 0
0 0 0
0 0 0
0 0 0
0 0 0
0 0 0
0 0 0
0 0 0
0 0 0
0 0 0
0 0 0
0 0 0
0 0 0
0 0 0
0 0 0
0 0 0
0 0 0
0 0 0
0 0 0
0 0 0
0 0 0
0 0 0
0 0 0
0 0 0
0 0 0
0 0 0
0 0 0
0 0 0
0 0 0
0 0 0
0 0 0
0 0 0
0 0 0
6 6 6
0 0 0
0 0 0
127 127 127
114 114 114
25 25 25
0 0 0
127 127 127
113 113 113
24 24 24
0 0 0
127 127 127
113 113 113
25 25 25
0 0 0
127 127 127
114 114 114
25 25 25
0 0 0
127 127 127
117 117 117
32 32 32
0 0 0
127 127 127
121 121 121
39 39 39
0 0 0
127 127 127
121 121 121
40 40 40
0 0 0
127 127 127
121 121 121
41 41 41
0 0 0
127 127 127
121 121 121
42 42 42
0 0 0
127 127 127
121 121 121
44 44 44
0 0 0
127 127 127
122 122 122
46 46 46
0 0 0
127 127 127
122 122 122
49 49 49
0 0 0
127 127 127
123 123 123
51 51 51
0 0 0
127 127 127
123 123 123
53 53 53
0 0 0
127 127 127
123 123 123
54 54 54
0 0 0
127 127 127
123 123 123
55 55 55
0 0 0
127 127 127
123 123 123
57 57 57
0 0 0
127 127 127
123 123 123
59 59 59
0 0 0
127 127 127
124 124 124
60 60 60
0 0 0
127 127 127
124 124 124
62 62 62
0 0 0
127 127 127
125 125 125
65 65 65
0 0 0
127 127 127
126 126 126
69 69 69
0 0 0
127 127 127
127 127 127
72 72 72
0 0 0
127 127 127
127 127 127
74 74 74
0 0 0
127 127 127
127 127 127
76 76 76
0 0 0
127 127 127
127 127 127
77 77 77
0 0 0
127 127 127
127 127 127
79 79 79
0 0 0
127 127 127
127 127 127
81 81 81
0 0 0
126 126 126
127 127 127
84 84 84
0 0 0
124 124 124
127 127 127
87 87 87
0 0 0
121 121 121
127 127 127
92 92 92
0 0 0
118 118 118
127 127 127
97 97 97
0 0 0
115 115 115
101 101 101
13 13 13
0 0 0
115 115 115
101 101 101
12 12 12
0 0 0
115 115 115
102 102 102
13 13 13
0 0 0
116 116 116
102 102 102
13 13 13
0 0 0
115 115 115
104 104 104
18 18 18
0 0 0
112 112 112
105 105 105
22 22 22
0 0 0
109 109 109
103 103 103
22 22 22
0 0 0
110 110 110
105 105 105
24 24 24
0 0 0
111 111 111
105 105 105
25 25 25
0 0 0
111 111 111
106 106 106
28 28 28
0 0 0
112 112 112
106 106 106
30 30 30
0 0 0
111 111 111
107 107 107
32 32 32
0 0 0
111 111 111
107 107 107
34 34 34
0 0 0
111 111 111
107 107 107
36 36 36
0 0 0
111 111 111
107 107 107
37 37 37
0 0 0
111 111 111
107 107 107
38 38 38
0 0 0
111 111 111
106 106 106
39 39 39
0 0 0
110 110 110
106 106 106
40 40 40
0 0 0
109 109 109
105 105 105
41 41 41
0 0 0
108 108 108
105 105 105
42 42 42
0 0 0
107 107 107
105 105 105
44 44 44
0 0 0
107 107 107
106 106 106
47 47 47
0 0 0
106 106 106
106 106 106
51 51 51
0 0 0
106 106 106
106 106 106
52 52 52
0 0 0
106 106 106
106 106 106
54 54 54
0 0 0
106 106 106
106 106 106
55 55 55
0 0 0
106 106 106
105 105 105
56 56 56
0 0 0
105 105 105
105 105 105
58 58 58
0 0 0
104 104 104
105 105 105
61 61 61
0 0 0
102 102 102
105 105 105
64 64 64
0 0 0
99 99 99
105 105 105
69 69 69
0 0 0
97 97 97
106 106 106
75 75 75
0 0 0
28 28 28
14 14 14
0 0 0
0 0 0
27 27 27
14 14 14
0 0 0
0 0 0
28 28 28
15 15 15
0 0 0
0 0 0
29 29 29
16 16 16
0 0 0
0 0 0
30 30 30
19 19 19
0 0 0
0 0 0
26 26 26
18 18 18
0 0 0
0 0 0
19 19 19
14 14 14
0 0 0
0 0 0
24 24 24
18 18 18
0 0 0
0 0 0
26 26 26
20 20 20
0 0 0
0 0 0
28 28 28
22 22 22
0 0 0
0 0 0
29 29 29
24 24 24
0 0 0
0 0 0
30 30 30
26 26 26
0 0 0
0 0 0
31 31 31
28 28 28
0 0 0
0 0 0
33 33 33
29 29 29
0 0 0
0 0 0
34 34 34
30 30 30
0 0 0
0 0 0
34 34 34
31 31 31
0 0 0
0 0 0
35 35 35
31 31 31
0 0 0
0 0 0
34 34 34
31 31 31
0 0 0
0 0 0
34 34 34
31 31 31
0 0 0
0 0 0
34 34 34
31 31 31
0 0 0
0 0 0
34 34 34
32 32 32
0 0 0
0 0 0
34 34 34
33 33 33
0 0 0
0 0 0
35 35 35
36 36 36
0 0 0
0 0 0
36 36 36
37 37 37
0 0 0
0 0 0
38 38 38
39 39 39
0 0 0
0 0 0
40 40 40
40 40 40
0 0 0
0 0 0
40 40 40
41 41 41
0 0 0
0 0 0
41 41 41
42 42 42
0 0 0
0 0 0
41 41 41
43 43 43
0 0 0
0 0 0
41 41 41
45 45 45
2 2 2
0 0 0
42 42 42
48 48 48
10 10 10
0 0 0
43 43 43
53 53 53
20 20 20
0 0 0
0 0 0
0 0 0
0 0 0
0 0 0
0 0 0
0 0 0
0 0 0
0 0 0
0 0 0
0 0 0
0 0 0
0 0 0
0 0 0
0 0 0
0 0 0
0 0 0
0 0 0
0 0 0
0 0 0
0 0 0
0 0 0
0 0 0
0 0 0
0 0 0
0 0 0
0 0 0
0 0 0
0 0 0
0 0 0
0 0 0
0 0 0
0 0 0
0 0 0
0 0 0
0 0 0
0 0 0
0 0 0
0 0 0
0 0 0
0 0 0
0 0 0
0 0 0
0 0 0
0 0 0
0 0 0
0 0 0
0 0 0
0 0 0
0 0 0
0 0 0
0 0 0
0 0 0
0 0 0
0 0 0
0 0 0
0 0 0
0 0 0
0 0 0
0 0 0
0 0 0
0 0 0
0 0 0
0 0 0
0 0 0
0 0 0
0 0 0
0 0 0
0 0 0
0 0 0
0 0 0
0 0 0
0 0 0
0 0 0
0 0 0
0 0 0
0 0 0
0 0 0
0 0 0
0 0 0
0 0 0
0 0 0
0 0 0
0 0 0
0 0 0
0 0 0
0 0 0
0 0 0
0 0 0
0 0 0
0 0 0
0 0 0
0 0 0
0 0 0
0 0 0
0 0 0
0 0 0
0 0 0
0 0 0
0 0 0
0 0 0
0 0 0
0 0 0
0 0 0
0 0 0
0 0 0
0 0 0
0 0 0
0 0 0
0 0 0
0 0 0
0 0 0
0 0 0
0 0 0
0 0 0
0 0 0
0 0 0
0 0 0
0 0 0
0 0 0
0 0 0
0 0 0
0 0 0
0 0 0
0 0 0
0 0 0
0 0 0
0 0 0
0 0 0
127 127 127
114 114 114
25 25 25
0 0 0
127 127 127
114 114 114
25 25 25
0 0 0
127 127 127
114 114 114
26 26 26
0 0 0
127 127 127
115 115 115
27 27 27
0 0 0
127 127 127
115 115 115
29 29 29
0 0 0
127 127 127
116 116 116
31 31 31
0 0 0
127 127 127
121 121 121
41 41 41
0 0 0
127 127 127
121 121 121
41 41 41
0 0 0
127 127 127
121 121 121
42 42 42
0 0 0
127 127 127
121 121 121
43 43 43
0 0 0
127 127 127
121 121 121
45 45 45
0 0 0
127 127 127
122 122 122
47 47 47
0 0 0
127 127 127
122 122 122
49 49 49
0 0 0
127 127 127
123 123 123
51 51 51
0 0 0
127 127 127
122 122 122
52 52 52
0 0 0
127 127 127
122 122 122
53 53 53
0 0 0
127 127 127
122 122 122
53 53 53
0 0 0
127 127 127
122 122 122
55 55 55
0 0 0
127 127 127
122 122 122
56 56 56
0 0 0
127 127 127
123 123 123
58 58 58
0 0 0
127 127 127
124 124 124
61 61 61
0 0 0
127 127 127
125 125 125
65 65 65
0 0 0
127 127 127
126 126 126
69 69 69
0 0 0
127 127 127
127 127 127
71 71 71
0 0 0
127 127 127
126 126 126
72 72 72
0 0 0
127 127 127
126 126 126
73 73 73
0 0 0
127 127 127
126 126 126
74 74 74
0 0 0
127 127 127
126 126 126
77 77 77
0 0 0
126 126 126
127 127 127
80 80 80
0 0 0
124 124 124
127 127 127
84 84 84
0 0 0
121 121 121
127 127 127
89 89 89
0 0 0
118 118 118
127 127 127
94 94 94
0 0 0
115 115 115
102 102 102
14 14 14
0 0 0
116 116 116
102 102 102
14 14 14
0 0 0
116 116 116
103 103 103
16 16 16
0 0 0
117 117 117
105 105 105
18 18 18
0 0 0
117 117 117
106 106 106
19 19 19
0 0 0
117 117 117
106 106 106
21 21 21
0 0 0
116 116 116
108 108 108
28 28 28
0 0 0
112 112 112
106 106 106
26 26 26
0 0 0
113 113 113
107 107 107
28 28 28
0 0 0
114 114 114
108 108 108
30 30 30
0 0 0
114 114 114
108 108 108
32 32 32
0 0 0
114 114 114
109 109 109
33 33 33
0 0 0
114 114 114
109 109 109
35 35 35
0 0 0
113 113 113
109 109 109
36 36 36
0 0 0
113 113 113
108 108 108
36 36 36
0 0 0
112 112 112
107 107 107
37 37 37
0 0 0
111 111 111
106 106 106
36 36 36
0 0 0
110 110 110
105 105 105
36 36 36
0 0 0
109 109 109
104 104 104
36 36 36
0 0 0
108 108 108
103 103 103
37 37 37
0 0 0
107 107 107
104 104 104
40 40 40
0 0 0
107 107 107
104 104 104
43 43 43
0 0 0
106 106 106
105 105 105
47 47 47
0 0 0
106 106 106
105 105 105
49 49 49
0 0 0
106 106 106
105 105 105
49 49 49
0 0 0
106 106 106
104 104 104
50 50 50
0 0 0
105 105 105
104 104 104
51 51 51
0 0 0
105 105 105
104 104 104
53 53 53
0 0 0
104 104 104
105 105 105
57 57 57
0 0 0
102 102 102
105 105 105
61 61 61
0 0 0
100 100 100
105 105 105
66 66 66
0 0 0
97 97 97
106 106 106
72 72 72
0 0 0
29 29 29
15 15 15
0 0 0
0 0 0
29 29 29
16 16 16
0 0 0
0 0 0
30 30 30
17 17 17
0 0 0
0 0 0
31 31 31
19 19 19
0 0 0
0 0 0
32 32 32
21 21 21
0 0 0
0 0 0
34 34 34
24 24 24
0 0 0
0 0 0
33 33 33
25 25 25
0 0 0
0 0 0
25 25 25
20 20 20
0 0 0
0 0 0
29 29 29
24 24 24
0 0 0
0 0 0
31 31 31
26 26 26
0 0 0
0 0 0
33 33 33
27 27 27
0 0 0
0 0 0
34 34 34
29 29 29
0 0 0
0 0 0
34 34 34
30 30 30
0 0 0
0 0 0
35 35 35
31 31 31
0 0 0
0 0 0
35 35 35
31 31 31
0 0 0
0 0 0
35 35 35
30 30 30
0 0 0
0 0 0
34 34 34
29 29 29
0 0 0
0 0 0
33 33 33
28 28 28
0 0 0
0 0 0
32 32 32
27 27 27
0 0 0
0 0 0
31 31 31
27 27 27
0 0 0
0 0 0
31 31 31
28 28 28
0 0 0
0 0 0
32 32 32
30 30 30
0 0 0
0 0 0
33 33 33
32 32 32
0 0 0
0 0 0
34 34 34
34 34 34
0 0 0
0 0 0
35 35 35
35 35 35
0 0 0
0 0 0
36 36 36
35 35 35
0 0 0
0 0 0
37 37 37
36 36 36
0 0 0
0 0 0
38 38 38
37 37 37
0 0 0
0 0 0
38 38 38
40 40 40
0 0 0
0 0 0
39 39 39
42 42 42
0 0 0
0 0 0
39 39 39
46 46 46
4 4 4
0 0 0
40 40 40
50 50 50
14 14 14
0 0 0
0 0 0
0 0 0
0 0 0
0 0 0
0 0 0
0 0 0
0 0 0
0 0 0
0 0 0
0 0 0
0 0 0
0 0 0
0 0 0
0 0 0
0 0 0
0 0 0
0 0 0
0 0 0
0 0 0
0 0 0
0 0 0
0 0 0
0 0 0
0 0 0
0 0 0
0 0 0
0 0 0
0 0 0
0 0 0
0 0 0
0 0 0
0 0 0
0 0 0
0 0 0
0 0 0
0 0 0
0 0 0
0 0 0
0 0 0
0 0 0
0 0 0
0 0 0
0 0 0
0 0 0
0 0 0
0 0 0
0 0 0
0 0 0
0 0 0
0 0 0
0 0 0
0 0 0
0 0 0
0 0 0
0 0 0
0 0 0
0 0 0
0 0 0
0 0 0
0 0 0
0 0 0
0 0 0
0 0 0
0 0 0
0 0 0
0 0 0
0 0 0
0 0 0
0 0 0
0 0 0
0 0 0
0 0 0
0 0 0
0 0 0
0 0 0
0 0 0
0 0 0
0 0 0
0 0 0
0 0 0
0 0 0
0 0 0
0 0 0
0 0 0
0 0 0
0 0 0
0 0 0
0 0 0
0 0 0
0 0 0
0 0 0
0 0 0
0 0 0
0 0 0
0 0 0
0 0 0
0 0 0
0 0 0
0 0 0
0 0 0
0 0 0
0 0 0
0 0 0
0 0 0
0 0 0
0 0 0
0 0 0
0 0 0
0 0 0
0 0 0
0 0 0
0 0 0
0 0 0
0 0 0
0 0 0
0 0 0
0 0 0
0 0 0
0 0 0
0 0 0
0 0 0
0 0 0
0 0 0
0 0 0
0 0 0
0 0 0
0 0 0
0 0 0
127 127 127
114 114 114
27 27 27
0 0 0
127 127 127
114 114 114
27 27 27
0 0 0
127 127 127
115 115 115
27 27 27
0 0 0
127 127 127
115 115 115
29 29 29
0 0 0
127 127 127
116 116 116
31 31 31
0 0 0
127 127 127
116 116 116
31 31 31
0 0 0
127 127 127
117 117 117
32 32 32
0 0 0
127 127 127
120 120 120
42 42 42
0 0 0
127 127 127
121 121 121
42 42 42
0 0 0
127 127 127
121 121 121
43 43 43
0 0 0
127 127 127
121 121 121
45 45 45
0 0 0
127 127 127
121 121 121
46 46 46
0 0 0
127 127 127
122 122 122
48 48 48
0 0 0
127 127 127
122 122 122
49 49 49
0 0 0
127 127 127
121 121 121
49 49 49
0 0 0
127 127 127
121 121 121
50 50 50
0 0 0
127 127 127
121 121 121
50 50 50
0 0 0
127 127 127
120 120 120
50 50 50
0 0 0
127 127 127
121 121 121
52 52 52
0 0 0
127 127 127
121 121 121
54 54 54
0 0 0
127 127 127
123 123 123
57 57 57
0 0 0
127 127 127
124 124 124
61 61 61
0 0 0
127 127 127
125 125 125
65 65 65
0 0 0
127 127 127
126 126 126
67 67 67
0 0 0
127 127 127
126 126 126
68 68 68
0 0 0
127 127 127
125 125 125
68 68 68
0 0 0
127 127 127
125 125 125
70 70 70
0 0 0
127 127 127
126 126 126
73 73 73
0 0 0
127 127 127
127 127 127
77 77 77
0 0 0
124 124 124
127 127 127
81 81 81
0 0 0
121 121 121
127 127 127
86 86 86
0 0 0
118 118 118
127 127 127
91 91 91
0 0 0
116 116 116
103 103 103
16 16 16
0 0 0
116 116 116
104 104 104
17 17 17
0 0 0
117 117 117
105 105 105
18 18 18
0 0 0
118 118 118
106 106 106
21 21 21
0 0 0
119 119 119
108 108 108
23 23 23
0 0 0
119 119 119
108 108 108
24 24 24
0 0 0
119 119 119
108 108 108
23 23 23
0 0 0
117 117 117
110 110 110
31 31 31
0 0 0
114 114 114
109 109 109
30 30 30
0 0 0
115 115 115
110 110 110
32 32 32
0 0 0
116 116 116
110 110 110
33 33 33
0 0 0
116 116 116
110 110 110
35 35 35
0 0 0
115 115 115
110 110 110
36 36 36
0 0 0
114 114 114
109 109 109
35 35 35
0 0 0
114 114 114
108 108 108
35 35 35
0 0 0
113 113 113
106 106 106
34 34 34
0 0 0
111 111 111
104 104 104
33 33 33
0 0 0
110 110 110
103 103 103
32 32 32
0 0 0
109 109 109
102 102 102
32 32 32
0 0 0
108 108 108
102 102 102
33 33 33
0 0 0
107 107 107
102 102 102
36 36 36
0 0 0
107 107 107
104 104 104
40 40 40
0 0 0
106 106 106
104 104 104
43 43 43
0 0 0
106 106 106
104 104 104
44 44 44
0 0 0
106 106 106
104 104 104
45 45 45
0 0 0
105 105 105
103 103 103
45 45 45
0 0 0
105 105 105
103 103 103
47 47 47
0 0 0
105 105 105
103 103 103
49 49 49
0 0 0
105 105 105
105 105 105
54 54 54
0 0 0
103 103 103
105 105 105
58 58 58
0 0 0
100 100 100
106 106 106
64 64 64
0 0 0
98 98 98
107 107 107
70 70 70
0 0 0
30 30 30
17 17 17
0 0 0
0 0 0
31 31 31
19 19 19
0 0 0
0 0 0
32 32 32
20 20 20
0 0 0
0 0 0
34 34 34
23 23 23
0 0 0
0 0 0
35 35 35
25 25 25
0 0 0
0 0 0
36 36 36
26 26 26
0 0 0
0 0 0
37 37 37
27 27 27
0 0 0
0 0 0
36 36 36
29 29 29
0 0 0
0 0 0
30 30 30
25 25 25
0 0 0
0 0 0
34 34 34
28 28 28
0 0 0
0 0 0
35 35 35
30 30 30
0 0 0
0 0 0
36 36 36
31 31 31
0 0 0
0 0 0
37 37 37
31 31 31
0 0 0
0 0 0
36 36 36
31 31 31
0 0 0
0 0 0
36 36 36
30 30 30
0 0 0
0 0 0
35 35 35
29 29 29
0 0 0
0 0 0
33 33 33
27 27 27
0 0 0
0 0 0
32 32 32
25 25 25
0 0 0
0 0 0
31 31 31
24 24 24
0 0 0
0 0 0
30 30 30
24 24 24
0 0 0
0 0 0
29 29 29
25 25 25
0 0 0
0 0 0
30 30 30
27 27 27
0 0 0
0 0 0
31 31 31
29 29 29
0 0 0
0 0 0
32 32 32
30 30 30
0 0 0
0 0 0
32 32 32
31 31 31
0 0 0
0 0 0
33 33 33
32 32 32
0 0 0
0 0 0
34 34 34
33 33 33
0 0 0
0 0 0
35 35 35
34 34 34
0 0 0
0 0 0
37 37 37
38 38 38
0 0 0
0 0 0
37 37 37
40 40 40
0 0 0
0 0 0
37 37 37
44 44 44
0 0 0
0 0 0
39 39 39
48 48 48
9 9 9
0 0 0
0 0 0
0 0 0
0 0 0
0 0 0
0 0 0
0 0 0
0 0 0
0 0 0
0 0 0
0 0 0
0 0 0
0 0 0
0 0 0
0 0 0
0 0 0
0 0 0
0 0 0
0 0 0
0 0 0
0 0 0
0 0 0
0 0 0
0 0 0
0 0 0
0 0 0
0 0 0
0 0 0
0 0 0
0 0 0
0 0 0
0 0 0
0 0 0
0 0 0
0 0 0
0 0 0
0 0 0
0 0 0
0 0 0
0 0 0
0 0 0
0 0 0
0 0 0
0 0 0
0 0 0
0 0 0
0 0 0
0 0 0
0 0 0
0 0 0
0 0 0
0 0 0
0 0 0
0 0 0
0 0 0
0 0 0
0 0 0
0 0 0
0 0 0
0 0 0
0 0 0
0 0 0
0 0 0
0 0 0
0 0 0
0 0 0
0 0 0
0 0 0
0 0 0
0 0 0
0 0 0
0 0 0
0 0 0
0 0 0
0 0 0
0 0 0
0 0 0
0 0 0
0 0 0
0 0 0
0 0 0
0 0 0
0 0 0
0 0 0
0 0 0
0 0 0
0 0 0
0 0 0
0 0 0
0 0 0
0 0 0
0 0 0
0 0 0
0 0 0
0 0 0
0 0 0
0 0 0
0 0 0
0 0 0
0 0 0
0 0 0
0 0 0
0 0 0
0 0 0
0 0 0
0 0 0
0 0 0
0 0 0
0 0 0
0 0 0
0 0 0
0 0 0
0 0 0
0 0 0
0 0 0
0 0 0
0 0 0
0 0 0
0 0 0
0 0 0
0 0 0
0 0 0
0 0 0
0 0 0
0 0 0
0 0 0
0 0 0
0 0 0
0 0 0
127 127 127
115 115 115
29 29 29
0 0 0
127 127 127
115 115 115
29 29 29
0 0 0
127 127 127
116 116 116
30 30 30
0 0 0
127 127 127
116 116 116
31 31 31
0 0 0
127 127 127
117 117 117
32 32 32
0 0 0
127 127 127
117 117 117
33 33 33
0 0 0
127 127 127
117 117 117
33 33 33
0 0 0
127 127 127
117 117 117
35 35 35
0 0 0
127 127 127
121 121 121
43 43 43
0 0 0
127 127 127
122 122 122
44 44 44
0 0 0
127 127 127
121 121 121
44 44 44
0 0 0
127 127 127
121 121 121
45 45 45
0 0 0
127 127 127
121 121 121
46 46 46
0 0 0
127 127 127
121 121 121
47 47 47
0 0 0
127 127 127
120 120 120
47 47 47
0 0 0
127 127 127
119 119 119
46 46 46
0 0 0
127 127 127
119 119 119
46 46 46
0 0 0
127 127 127
119 119 119
46 46 46
0 0 0
127 127 127
119 119 119
48 48 48
0 0 0
127 127 127
120 120 120
50 50 50
0 0 0
127 127 127
122 122 122
54 54 54
0 0 0
127 127 127
123 123 123
58 58 58
0 0 0
127 127 127
124 124 124
61 61 61
0 0 0
127 127 127
125 125 125
63 63 63
0 0 0
127 127 127
125 125 125
64 64 64
0 0 0
127 127 127
124 124 124
64 64 64
0 0 0
127 127 127
124 124 124
66 66 66
0 0 0
127 127 127
125 125 125
69 69 69
0 0 0
127 127 127
127 127 127
74 74 74
0 0 0
125 125 125
127 127 127
78 78 78
0 0 0
122 122 122
127 127 127
83 83 83
0 0 0
118 118 118
127 127 127
89 89 89
0 0 0
116 116 116
104 104 104
18 18 18
0 0 0
117 117 117
105 105 105
20 20 20
0 0 0
118 118 118
107 107 107
22 22 22
0 0 0
119 119 119
108 108 108
24 24 24
0 0 0
119 119 119
109 109 109
25 25 25
0 0 0
119 119 119
109 109 109
26 26 26
0 0 0
120 120 120
109 109 109
26 26 26
0 0 0
120 120 120
110 110 110
27 27 27
0 0 0
118 118 118
112 112 112
34 34 34
0 0 0
116 116 116
111 111 111
34 34 34
0 0 0
117 117 117
111 111 111
34 34 34
0 0 0
117 117 117
110 110 110
35 35 35
0 0 0
116 116 116
110 110 110
35 35 35
0 0 0
115 115 115
108 108 108
34 34 34
0 0 0
114 114 114
107 107 107
33 33 33
0 0 0
113 113 113
105 105 105
31 31 31
0 0 0
112 112 112
103 103 103
30 30 30
0 0 0
110 110 110
102 102 102
29 29 29
0 0 0
109 109 109
101 101 101
29 29 29
0 0 0
108 108 108
101 101 101
30 30 30
0 0 0
108 108 108
102 102 102
33 33 33
0 0 0
107 107 107
103 103 103
36 36 36
0 0 0
107 107 107
104 104 104
39 39 39
0 0 0
106 106 106
104 104 104
41 41 41
0 0 0
106 106 106
103 103 103
41 41 41
0 0 0
106 106 106
103 103 103
42 42 42
0 0 0
106 106 106
103 103 103
43 43 43
0 0 0
106 106 106
104 104 104
46 46 46
0 0 0
106 106 106
106 106 106
52 52 52
0 0 0
104 104 104
106 106 106
57 57 57
0 0 0
102 102 102
107 107 107
62 62 62
0 0 0
99 99 99
108 108 108
68 68 68
0 0 0
31 31 31
19 19 19
0 0 0
0 0 0
32 32 32
21 21 21
0 0 0
0 0 0
34 34 34
24 24 24
0 0 0
0 0 0
36 36 36
26 26 26
0 0 0
0 0 0
38 38 38
27 27 27
0 0 0
0 0 0
38 38 38
28 28 28
0 0 0
0 0 0
38 38 38
28 28 28
0 0 0
0 0 0
39 39 39
30 30 30
0 0 0
0 0 0
39 39 39
32 32 32
0 0 0
0 0 0
35 35 35
30 30 30
0 0 0
0 0 0
37 37 37
32 32 32
0 0 0
0 0 0
38 38 38
32 32 32
0 0 0
0 0 0
38 38 38
32 32 32
0 0 0
0 0 0
37 37 37
31 31 31
0 0 0
0 0 0
36 36 36
29 29 29
0 0 0
0 0 0
34 34 34
27 27 27
0 0 0
0 0 0
33 33 33
25 25 25
0 0 0
0 0 0
31 31 31
23 23 23
0 0 0
0 0 0
30 30 30
22 22 22
0 0 0
0 0 0
29 29 29
22 22 22
0 0 0
0 0 0
29 29 29
23 23 23
0 0 0
0 0 0
29 29 29
25 25 25
0 0 0
0 0 0
29 29 29
27 27 27
0 0 0
0 0 0
30 30 30
28 28 28
0 0 0
0 0 0
31 31 31
28 28 28
0 0 0
0 0 0
32 32 32
29 29 29
0 0 0
0 0 0
33 33 33
30 30 30
0 0 0
0 0 0
34 34 34
33 33 33
0 0 0
0 0 0
36 36 36
37 37 37
0 0 0
0 0 0
37 37 37
40 40 40
0 0 0
0 0 0
37 37 37
43 43 43
0 0 0
0 0 0
38 38 38
47 47 47
6 6 6
0 0 0
0 0 0
0 0 0
0 0 0
0 0 0
0 0 0
0 0 0
0 0 0
0 0 0
0 0 0
0 0 0
0 0 0
0 0 0
0 0 0
0 0 0
0 0 0
0 0 0
0 0 0
0 0 0
0 0 0
0 0 0
0 0 0
0 0 0
0 0 0
0 0 0
0 0 0
0 0 0
0 0 0
0 0 0
0 0 0
0 0 0
0 0 0
0 0 0
0 0 0
0 0 0
0 0 0
0 0 0
0 0 0
0 0 0
0 0 0
0 0 0
0 0 0
0 0 0
0 0 0
0 0 0
0 0 0
0 0 0
0 0 0
0 0 0
0 0 0
0 0 0
0 0 0
0 0 0
0 0 0
0 0 0
0 0 0
0 0 0
0 0 0
0 0 0
0 0 0
0 0 0
0 0 0
0 0 0
0 0 0
0 0 0
0 0 0
0 0 0
0 0 0
0 0 0
0 0 0
0 0 0
0 0 0
0 0 0
0 0 0
0 0 0
0 0 0
0 0 0
0 0 0
0 0 0
0 0 0
0 0 0
0 0 0
0 0 0
0 0 0
0 0 0
0 0 0
0 0 0
0 0 0
0 0 0
0 0 0
0 0 0
0 0 0
0 0 0
0 0 0
0 0 0
0 0 0
0 0 0
0 0 0
0 0 0
0 0 0
0 0 0
0 0 0
0 0 0
0 0 0
0 0 0
0 0 0
0 0 0
0 0 0
0 0 0
0 0 0
0 0 0
0 0 0
0 0 0
0 0 0
0 0 0
0 0 0
0 0 0
0 0 0
0 0 0
0 0 0
0 0 0
0 0 0
0 0 0
0 0 0
0 0 0
0 0 0
0 0 0
0 0 0
0 0 0
127 127 127
116 116 116
31 31 31
0 0 0
127 127 127
116 116 116
32 32 32
0 0 0
127 127 127
117 117 117
33 33 33
0 0 0
127 127 127
117 117 117
33 33 33
0 0 0
127 127 127
117 117 117
33 33 33
0 0 0
127 127 127
117 117 117
34 34 34
0 0 0
127 127 127
117 117 117
35 35 35
0 0 0
127 127 127
117 117 117
35 35 35
0 0 0
127 127 127
118 118 118
38 38 38
0 0 0
127 127 127
121 121 121
45 45 45
0 0 0
127 127 127
121 121 121
44 44 44
0 0 0
127 127 127
120 120 120
44 44 44
0 0 0
127 127 127
120 120 120
44 44 44
0 0 0
127 127 127
119 119 119
44 44 44
0 0 0
127 127 127
119 119 119
44 44 44
0 0 0
127 127 127
118 118 118
43 43 43
0 0 0
127 127 127
118 118 118
43 43 43
0 0 0
127 127 127
118 118 118
43 43 43
0 0 0
127 127 127
118 118 118
44 44 44
0 0 0
127 127 127
119 119 119
47 47 47
0 0 0
127 127 127
121 121 121
50 50 50
0 0 0
127 127 127
122 122 122
54 54 54
0 0 0
127 127 127
123 123 123
57 57 57
0 0 0
127 127 127
124 124 124
59 59 59
0 0 0
127 127 127
124 124 124
60 60 60
0 0 0
127 127 127
123 123 123
61 61 61
0 0 0
127 127 127
124 124 124
63 63 63
0 0 0
127 127 127
125 125 125
66 66 66
0 0 0
127 127 127
127 127 127
71 71 71
0 0 0
125 125 125
127 127 127
76 76 76
0 0 0
122 122 122
127 127 127
81 81 81
0 0 0
119 119 119
127 127 127
86 86 86
0 0 0
116 116 116
106 106 106
21 21 21
0 0 0
118 118 118
107 107 107
23 23 23
0 0 0
119 119 119
109 109 109
25 25 25
0 0 0
120 120 120
109 109 109
26 26 26
0 0 0
120 120 120
109 109 109
26 26 26
0 0 0
120 120 120
109 109 109
27 27 27
0 0 0
120 120 120
110 110 110
29 29 29
0 0 0
120 120 120
111 111 111
30 30 30
0 0 0
121 121 121
112 112 112
32 32 32
0 0 0
119 119 119
113 113 113
36 36 36
0 0 0
117 117 117
111 111 111
35 35 35
0 0 0
117 117 117
110 110 110
34 34 34
0 0 0
117 117 117
109 109 109
33 33 33
0 0 0
115 115 115
107 107 107
32 32 32
0 0 0
114 114 114
106 106 106
30 30 30
0 0 0
113 113 113
104 104 104
29 29 29
0 0 0
112 112 112
102 102 102
27 27 27
0 0 0
111 111 111
101 101 101
26 26 26
0 0 0
110 110 110
101 101 101
27 27 27
0 0 0
109 109 109
101 101 101
29 29 29
0 0 0
109 109 109
102 102 102
30 30 30
0 0 0
108 108 108
103 103 103
34 34 34
0 0 0
107 107 107
103 103 103
36 36 36
0 0 0
107 107 107
103 103 103
37 37 37
0 0 0
106 106 106
103 103 103
38 38 38
0 0 0
106 106 106
103 103 103
39 39 39
0 0 0
106 106 106
103 103 103
41 41 41
0 0 0
107 107 107
104 104 104
45 45 45
0 0 0
107 107 107
107 107 107
50 50 50
0 0 0
105 105 105
108 108 108
55 55 55
0 0 0
103 103 103
108 108 108
61 61 61
0 0 0
100 100 100
109 109 109
67 67 67
0 0 0
32 32 32
20 20 20
0 0 0
0 0 0
34 34 34
23 23 23
0 0 0
0 0 0
36 36 36
26 26 26
0 0 0
0 0 0
38 38 38
27 27 27
0 0 0
0 0 0
38 38 38
28 28 28
0 0 0
0 0 0
39 39 39
28 28 28
0 0 0
0 0 0
40 40 40
30 30 30
0 0 0
0 0 0
41 41 41
32 32 32
0 0 0
0 0 0
43 43 43
34 34 34
0 0 0
0 0 0
42 42 42
34 34 34
0 0 0
0 0 0
38 38 38
31 31 31
0 0 0
0 0 0
39 39 39
32 32 32
0 0 0
0 0 0
39 39 39
31 31 31
0 0 0
0 0 0
37 37 37
29 29 29
0 0 0
0 0 0
36 36 36
27 27 27
0 0 0
0 0 0
34 34 34
25 25 25
0 0 0
0 0 0
33 33 33
23 23 23
0 0 0
0 0 0
31 31 31
21 21 21
0 0 0
0 0 0
30 30 30
20 20 20
0 0 0
0 0 0
29 29 29
21 21 21
0 0 0
0 0 0
29 29 29
22 22 22
0 0 0
0 0 0
28 28 28
23 23 23
0 0 0
0 0 0
28 28 28
24 24 24
0 0 0
0 0 0
29 29 29
25 25 25
0 0 0
0 0 0
29 29 29
25 25 25
0 0 0
0 0 0
30 30 30
26 26 26
0 0 0
0 0 0
32 32 32
28 28 28
0 0 0
0 0 0
34 34 34
32 32 32
0 0 0
0 0 0
36 36 36
36 36 36
0 0 0
0 0 0
37 37 37
39 39 39
0 0 0
0 0 0
37 37 37
42 42 42
0 0 0
0 0 0
37 37 37
46 46 46
2 2 2
0 0 0
0 0 0
0 0 0
0 0 0
0 0 0
0 0 0
0 0 0
0 0 0
0 0 0
0 0 0
0 0 0
0 0 0
0 0 0
0 0 0
0 0 0
0 0 0
0 0 0
0 0 0
0 0 0
0 0 0
0 0 0
0 0 0
0 0 0
0 0 0
0 0 0
0 0 0
0 0 0
0 0 0
0 0 0
0 0 0
0 0 0
0 0 0
0 0 0
0 0 0
0 0 0
0 0 0
0 0 0
0 0 0
0 0 0
0 0 0
0 0 0
0 0 0
0 0 0
0 0 0
0 0 0
0 0 0
0 0 0
0 0 0
0 0 0
0 0 0
0 0 0
0 0 0
0 0 0
0 0 0
0 0 0
0 0 0
0 0 0
0 0 0
0 0 0
0 0 0
0 0 0
0 0 0
0 0 0
0 0 0
0 0 0
0 0 0
0 0 0
0 0 0
0 0 0
0 0 0
0 0 0
0 0 0
0 0 0
0 0 0
0 0 0
0 0 0
0 0 0
0 0 0
0 0 0
0 0 0
0 0 0
0 0 0
0 0 0
0 0 0
0 0 0
0 0 0
0 0 0
0 0 0
0 0 0
0 0 0
0 0 0
0 0 0
0 0 0
0 0 0
0 0 0
0 0 0
0 0 0
0 0 0
0 0 0
0 0 0
0 0 0
0 0 0
0 0 0
0 0 0
0 0 0
0 0 0
0 0 0
0 0 0
0 0 0
0 0 0
0 0 0
0 0 0
0 0 0
0 0 0
0 0 0
0 0 0
0 0 0
0 0 0
0 0 0
0 0 0
0 0 0
0 0 0
0 0 0
0 0 0
0 0 0
0 0 0
0 0 0
0 0 0
0 0 0
