P3
128 128
255
16 16 16
14 14 14
13 13 13
15 15 15
8 8 8
6 6 6
5 5 5
6 6 6
1 1 1
0 0 0
0 0 0
0 0 0
0 0 0
0 0 0
0 0 0
0 0 0
0 0 0
0 0 0
0 0 0
0 0 0
0 0 0
0 0 0
0 0 0
0 0 0
0 0 0
0 0 0
0 0 0
0 0 0
0 0 0
0 0 0
0 0 0
0 0 0
0 0 0
0 0 0
0 0 0
0 0 0
0 0 0
0 0 0
0 0 0
0 0 0
0 0 0
0 0 0
0 0 0
0 0 0
0 0 0
0 0 0
0 0 0
0 0 0
0 0 0
0 0 0
0 0 0
0 0 0
0 0 0
0 0 0
0 0 0
0 0 0
0 0 0
0 0 0
0 0 0
0 0 0
0 0 0
0 0 0
0 0 0
0 0 0
0 0 0
0 0 0
0 0 0
0 0 0
0 0 0
0 0 0
0 0 0
0 0 0
0 0 0
0 0 0
0 0 0
0 0 0
0 0 0
0 0 0
0 0 0
0 0 0
0 0 0
0 0 0
0 0 0
0 0 0
0 0 0
0 0 0
0 0 0
0 0 0
0 0 0
0 0 0
0 0 0
0 0 0
0 0 0
0 0 0
0 0 0
0 0 0
0 0 0
0 0 0
0 0 0
0 0 0
0 0 0
0 0 0
0 0 0
0 0 0
0 0 0
0 0 0
0 0 0
0 0 0
0 0 0
0 0 0
0 0 0
0 0 0
0 0 0
0 0 0
0 0 0
0 0 0
0 0 0
0 0 0
0 0 0
0 0 0
0 0 0
0 0 0
0 0 0
0 0 0
0 0 0
0 0 0
0 0 0
0 0 0
18 18 18
15 15 15
15 15 15
17 17 17
9 9 9
7 7 7
6 6 6
7 7 7
2 2 2
0 0 0
0 0 0
0 0 0
0 0 0
0 0 0
0 0 0
0 0 0
0 0 0
0 0 0
0 0 0
0 0 0
0 0 0
0 0 0
0 0 0
0 0 0
0 0 0
0 0 0
0 0 0
0 0 0
0 0 0
0 0 0
0 0 0
0 0 0
0 0 0
0 0 0
0 0 0
0 0 0
0 0 0
0 0 0
0 0 0
0 0 0
0 0 0
0 0 0
0 0 0
0 0 0
0 0 0
0 0 0
0 0 0
0 0 0
0 0 0
0 0 0
0 0 0
0 0 0
0 0 0
0 0 0
0 0 0
0 0 0
0 0 0
0 0 0
0 0 0
0 0 0
0 0 0
0 0 0
0 0 0
0 0 0
0 0 0
0 0 0
0 0 0
0 0 0
0 0 0
0 0 0
0 0 0
0 0 0
0 0 0
0 0 0
0 0 0
0 0 0
0 0 0
0 0 0
0 0 0
0 0 0
0 0 0
0 0 0
0 0 0
0 0 0
0 0 0
0 0 0
0 0 0
0 0 0
0 0 0
0 0 0
0 0 0
0 0 0
0 0 0
0 0 0
0 0 0
0 0 0
0 0 0
0 0 0
0 0 0
0 0 0
0 0 0
0 0 0
0 0 0
0 0 0
0 0 0
0 0 0
0 0 0
0 0 0
0 0 0
0 0 0
0 0 0
0 0 0
0 0 0
0 0 0
0 0 0
0 0 0
0 0 0
0 0 0
0 0 0
0 0 0
0 0 0
0 0 0
0 0 0
0 0 0
0 0 0
0 0 0
0 0 0
0 0 0
20 20 20
18 18 18
17 17 17
19 19 19
11 11 11
9 9 9
8 8 8
9 9 9
3 3 3
1 1 1
0 0 0
0 0 0
0 0 0
0 0 0
0 0 0
0 0 0
0 0 0
0 0 0
0 0 0
0 0 0
0 0 0
0 0 0
0 0 0
0 0 0
0 0 0
0 0 0
0 0 0
0 0 0
0 0 0
0 0 0
0 0 0
0 0 0
0 0 0
0 0 0
0 0 0
0 0 0
0 0 0
0 0 0
0 0 0
0 0 0
0 0 0
0 0 0
0 0 0
0 0 0
0 0 0
0 0 0
0 0 0
0 0 0
0 0 0
0 0 0
0 0 0
0 0 0
0 0 0
0 0 0
0 0 0
0 0 0
0 0 0
0 0 0
0 0 0
0 0 0
0 0 0
0 0 0
0 0 0
0 0 0
0 0 0
0 0 0
0 0 0
0 0 0
0 0 0
0 0 0
0 0 0
0 0 0
0 0 0
0 0 0
0 0 0
0 0 0
0 0 0
0 0 0
0 0 0
0 0 0
0 0 0
0 0 0
0 0 0
0 0 0
0 0 0
0 0 0
0 0 0
0 0 0
0 0 0
0 0 0
0 0 0
0 0 0
0 0 0
0 0 0
0 0 0
0 0 0
0 0 0
0 0 0
0 0 0
0 0 0
0 0 0
0 0 0
0 0 0
0 0 0
0 0 0
0 0 0
0 0 0
0 0 0
0 0 0
0 0 0
0 0 0
0 0 0
0 0 0
0 0 0
0 0 0
0 0 0
0 0 0
0 0 0
0 0 0
0 0 0
0 0 0
0 0 0
0 0 0
0 0 0
0 0 0
0 0 0
0 0 0
0 0 0
23 23 23
21 21 21
20 20 20
23 23 23
13 13 13
10 10 10
10 10 10
11 11 11
4 4 4
2 2 2
1 1 1
1 1 1
0 0 0
0 0 0
0 0 0
0 0 0
0 0 0
0 0 0
0 0 0
0 0 0
0 0 0
0 0 0
0 0 0
0 0 0
0 0 0
0 0 0
0 0 0
0 0 0
0 0 0
0 0 0
0 0 0
0 0 0
0 0 0
0 0 0
0 0 0
0 0 0
0 0 0
0 0 0
0 0 0
0 0 0
0 0 0
0 0 0
0 0 0
0 0 0
0 0 0
0 0 0
0 0 0
0 0 0
0 0 0
0 0 0
0 0 0
0 0 0
0 0 0
0 0 0
0 0 0
0 0 0
0 0 0
0 0 0
0 0 0
0 0 0
0 0 0
0 0 0
0 0 0
0 0 0
0 0 0
0 0 0
0 0 0
0 0 0
0 0 0
0 0 0
0 0 0
0 0 0
0 0 0
0 0 0
0 0 0
0 0 0
0 0 0
0 0 0
0 0 0
0 0 0
0 0 0
0 0 0
0 0 0
0 0 0
0 0 0
0 0 0
0 0 0
0 0 0
0 0 0
0 0 0
0 0 0
0 0 0
0 0 0
0 0 0
0 0 0
0 0 0
0 0 0
0 0 0
0 0 0
0 0 0
0 0 0
0 0 0
0 0 0
0 0 0
0 0 0
0 0 0
0 0 0
0 0 0
0 0 0
0 0 0
0 0 0
0 0 0
0 0 0
0 0 0
0 0 0
0 0 0
0 0 0
0 0 0
0 0 0
0 0 0
0 0 0
0 0 0
0 0 0
0 0 0
0 0 0
0 0 0
0 0 0
0 0 0
23 23 23
20 20 20
20 20 20
23 23 23
13 13 13
12 12 12
11 11 11
12 12 12
6 6 6
4 4 4
3 3 3
4 4 4
0 0 0
0 0 0
0 0 0
0 0 0
0 0 0
0 0 0
0 0 0
0 0 0
0 0 0
0 0 0
0 0 0
0 0 0
0 0 0
0 0 0
0 0 0
0 0 0
0 0 0
0 0 0
0 0 0
0 0 0
0 0 0
0 0 0
0 0 0
0 0 0
0 0 0
0 0 0
0 0 0
0 0 0
0 0 0
0 0 0
0 0 0
0 0 0
0 0 0
0 0 0
0 0 0
0 0 0
0 0 0
0 0 0
0 0 0
0 0 0
0 0 0
0 0 0
0 0 0
0 0 0
0 0 0
0 0 0
0 0 0
0 0 0
0 0 0
0 0 0
0 0 0
0 0 0
0 0 0
0 0 0
0 0 0
0 0 0
0 0 0
0 0 0
0 0 0
0 0 0
0 0 0
0 0 0
0 0 0
0 0 0
0 0 0
0 0 0
0 0 0
0 0 0
0 0 0
0 0 0
0 0 0
0 0 0
0 0 0
0 0 0
0 0 0
0 0 0
0 0 0
0 0 0
0 0 0
0 0 0
0 0 0
0 0 0
0 0 0
0 0 0
0 0 0
0 0 0
0 0 0
0 0 0
0 0 0
0 0 0
0 0 0
0 0 0
0 0 0
0 0 0
0 0 0
0 0 0
0 0 0
0 0 0
0 0 0
0 0 0
0 0 0
0 0 0
0 0 0
0 0 0
0 0 0
0 0 0
0 0 0
0 0 0
0 0 0
0 0 0
0 0 0
0 0 0
0 0 0
0 0 0
0 0 0
0 0 0
25 25 25
22 22 22
22 22 22
25 25 25
15 15 15
13 13 13
13 13 13
14 14 14
7 7 7
6 6 6
5 5 5
6 6 6
1 1 1
0 0 0
0 0 0
0 0 0
0 0 0
0 0 0
0 0 0
0 0 0
0 0 0
0 0 0
0 0 0
0 0 0
0 0 0
0 0 0
0 0 0
0 0 0
0 0 0
0 0 0
0 0 0
0 0 0
0 0 0
0 0 0
0 0 0
0 0 0
0 0 0
0 0 0
0 0 0
0 0 0
0 0 0
0 0 0
0 0 0
0 0 0
0 0 0
0 0 0
0 0 0
0 0 0
0 0 0
0 0 0
0 0 0
0 0 0
0 0 0
0 0 0
0 0 0
0 0 0
0 0 0
0 0 0
0 0 0
0 0 0
0 0 0
0 0 0
0 0 0
0 0 0
0 0 0
0 0 0
0 0 0
0 0 0
0 0 0
0 0 0
0 0 0
0 0 0
0 0 0
0 0 0
0 0 0
0 0 0
0 0 0
0 0 0
0 0 0
0 0 0
0 0 0
0 0 0
0 0 0
0 0 0
0 0 0
0 0 0
0 0 0
0 0 0
0 0 0
0 0 0
0 0 0
0 0 0
0 0 0
0 0 0
0 0 0
0 0 0
0 0 0
0 0 0
0 0 0
0 0 0
0 0 0
0 0 0
0 0 0
0 0 0
0 0 0
0 0 0
0 0 0
0 0 0
0 0 0
0 0 0
0 0 0
0 0 0
0 0 0
0 0 0
0 0 0
0 0 0
0 0 0
0 0 0
0 0 0
0 0 0
0 0 0
0 0 0
0 0 0
0 0 0
0 0 0
0 0 0
0 0 0
0 0 0
27 27 27
25 25 25
25 25 25
28 28 28
17 17 17
15 15 15
15 15 15
17 17 17
9 9 9
7 7 7
7 7 7
7 7 7
2 2 2
1 1 1
0 0 0
0 0 0
0 0 0
0 0 0
0 0 0
0 0 0
0 0 0
0 0 0
0 0 0
0 0 0
0 0 0
0 0 0
0 0 0
0 0 0
0 0 0
0 0 0
0 0 0
0 0 0
0 0 0
0 0 0
0 0 0
0 0 0
0 0 0
0 0 0
0 0 0
0 0 0
0 0 0
0 0 0
0 0 0
0 0 0
0 0 0
0 0 0
0 0 0
0 0 0
0 0 0
0 0 0
0 0 0
0 0 0
0 0 0
0 0 0
0 0 0
0 0 0
0 0 0
0 0 0
0 0 0
0 0 0
0 0 0
0 0 0
0 0 0
0 0 0
0 0 0
0 0 0
0 0 0
0 0 0
0 0 0
0 0 0
0 0 0
0 0 0
0 0 0
0 0 0
0 0 0
0 0 0
0 0 0
0 0 0
0 0 0
0 0 0
0 0 0
0 0 0
0 0 0
0 0 0
0 0 0
0 0 0
0 0 0
0 0 0
0 0 0
0 0 0
0 0 0
0 0 0
0 0 0
0 0 0
0 0 0
0 0 0
0 0 0
0 0 0
0 0 0
0 0 0
0 0 0
0 0 0
0 0 0
0 0 0
0 0 0
0 0 0
0 0 0
0 0 0
0 0 0
0 0 0
0 0 0
0 0 0
0 0 0
0 0 0
0 0 0
0 0 0
0 0 0
0 0 0
0 0 0
0 0 0
0 0 0
0 0 0
0 0 0
0 0 0
0 0 0
0 0 0
0 0 0
0 0 0
32 32 32
29 29 29
29 29 29
33 33 33
20 20 20
18 18 18
17 17 17
20 20 20
11 11 11
9 9 9
8 8 8
9 9 9
3 3 3
1 1 1
0 0 0
0 0 0
0 0 0
0 0 0
0 0 0
0 0 0
0 0 0
0 0 0
0 0 0
0 0 0
0 0 0
0 0 0
0 0 0
0 0 0
0 0 0
0 0 0
0 0 0
0 0 0
0 0 0
0 0 0
0 0 0
0 0 0
0 0 0
0 0 0
0 0 0
0 0 0
0 0 0
0 0 0
0 0 0
0 0 0
0 0 0
0 0 0
0 0 0
0 0 0
0 0 0
0 0 0
0 0 0
0 0 0
0 0 0
0 0 0
0 0 0
0 0 0
0 0 0
0 0 0
0 0 0
0 0 0
0 0 0
0 0 0
0 0 0
0 0 0
0 0 0
0 0 0
0 0 0
0 0 0
0 0 0
0 0 0
0 0 0
0 0 0
0 0 0
0 0 0
0 0 0
0 0 0
0 0 0
0 0 0
0 0 0
0 0 0
0 0 0
0 0 0
0 0 0
0 0 0
0 0 0
0 0 0
0 0 0
0 0 0
0 0 0
0 0 0
0 0 0
0 0 0
0 0 0
0 0 0
0 0 0
0 0 0
0 0 0
0 0 0
0 0 0
0 0 0
0 0 0
0 0 0
0 0 0
0 0 0
0 0 0
0 0 0
0 0 0
0 0 0
0 0 0
0 0 0
0 0 0
0 0 0
0 0 0
0 0 0
0 0 0
0 0 0
0 0 0
0 0 0
0 0 0
0 0 0
0 0 0
0 0 0
0 0 0
0 0 0
0 0 0
0 0 0
0 0 0
0 0 0
30 30 30
28 28 28
28 28 28
32 32 32
21 21 21
19 19 19
18 18 18
21 21 21
12 12 12
11 11 11
10 10 10
12 12 12
6 6 6
4 4 4
3 3 3
4 4 4
0 0 0
0 0 0
0 0 0
0 0 0
0 0 0
0 0 0
0 0 0
0 0 0
0 0 0
0 0 0
0 0 0
0 0 0
0 0 0
0 0 0
0 0 0
0 0 0
0 0 0
0 0 0
0 0 0
0 0 0
0 0 0
0 0 0
0 0 0
0 0 0
0 0 0
0 0 0
0 0 0
0 0 0
0 0 0
0 0 0
0 0 0
0 0 0
0 0 0
0 0 0
0 0 0
0 0 0
0 0 0
0 0 0
0 0 0
0 0 0
0 0 0
0 0 0
0 0 0
0 0 0
0 0 0
0 0 0
0 0 0
0 0 0
0 0 0
0 0 0
0 0 0
0 0 0
0 0 0
0 0 0
0 0 0
0 0 0
0 0 0
0 0 0
0 0 0
0 0 0
0 0 0
0 0 0
0 0 0
0 0 0
0 0 0
0 0 0
0 0 0
0 0 0
0 0 0
0 0 0
0 0 0
0 0 0
0 0 0
0 0 0
0 0 0
0 0 0
0 0 0
0 0 0
0 0 0
0 0 0
0 0 0
0 0 0
0 0 0
0 0 0
0 0 0
0 0 0
0 0 0
0 0 0
0 0 0
0 0 0
0 0 0
0 0 0
0 0 0
0 0 0
0 0 0
0 0 0
0 0 0
0 0 0
0 0 0
0 0 0
0 0 0
0 0 0
0 0 0
0 0 0
0 0 0
0 0 0
0 0 0
0 0 0
0 0 0
0 0 0
0 0 0
0 0 0
33 33 33
30 30 30
30 30 30
34 34 34
23 23 23
21 21 21
20 20 20
23 23 23
14 14 14
13 13 13
12 12 12
14 14 14
7 7 7
6 6 6
5 5 5
6 6 6
1 1 1
0 0 0
0 0 0
0 0 0
0 0 0
0 0 0
0 0 0
0 0 0
0 0 0
0 0 0
0 0 0
0 0 0
0 0 0
0 0 0
0 0 0
0 0 0
0 0 0
0 0 0
0 0 0
0 0 0
0 0 0
0 0 0
0 0 0
0 0 0
0 0 0
0 0 0
0 0 0
0 0 0
0 0 0
0 0 0
0 0 0
0 0 0
0 0 0
0 0 0
0 0 0
0 0 0
0 0 0
0 0 0
0 0 0
0 0 0
0 0 0
0 0 0
0 0 0
0 0 0
0 0 0
0 0 0
0 0 0
0 0 0
0 0 0
0 0 0
0 0 0
0 0 0
0 0 0
0 0 0
0 0 0
0 0 0
0 0 0
0 0 0
0 0 0
0 0 0
0 0 0
0 0 0
0 0 0
0 0 0
0 0 0
0 0 0
0 0 0
0 0 0
0 0 0
0 0 0
0 0 0
0 0 0
0 0 0
0 0 0
0 0 0
0 0 0
0 0 0
0 0 0
0 0 0
0 0 0
0 0 0
0 0 0
0 0 0
0 0 0
0 0 0
0 0 0
0 0 0
0 0 0
0 0 0
0 0 0
0 0 0
0 0 0
0 0 0
0 0 0
0 0 0
0 0 0
0 0 0
0 0 0
0 0 0
0 0 0
0 0 0
0 0 0
0 0 0
0 0 0
0 0 0
0 0 0
0 0 0
0 0 0
0 0 0
0 0 0
0 0 0
0 0 0
36 36 36
34 34 34
34 34 34
38 38 38
26 26 26
23 23 23
23 23 23
26 26 26
17 17 17
15 15 15
14 14 14
16 16 16
9 9 9
7 7 7
7 7 7
8 8 8
2 2 2
1 1 1
0 0 0
0 0 0
0 0 0
0 0 0
0 0 0
0 0 0
0 0 0
0 0 0
0 0 0
0 0 0
0 0 0
0 0 0
0 0 0
0 0 0
0 0 0
0 0 0
0 0 0
0 0 0
0 0 0
0 0 0
0 0 0
0 0 0
0 0 0
0 0 0
0 0 0
0 0 0
0 0 0
0 0 0
0 0 0
0 0 0
0 0 0
0 0 0
0 0 0
0 0 0
0 0 0
0 0 0
0 0 0
0 0 0
0 0 0
0 0 0
0 0 0
0 0 0
0 0 0
0 0 0
0 0 0
0 0 0
0 0 0
0 0 0
0 0 0
0 0 0
0 0 0
0 0 0
0 0 0
0 0 0
0 0 0
0 0 0
0 0 0
0 0 0
0 0 0
0 0 0
0 0 0
0 0 0
0 0 0
0 0 0
0 0 0
0 0 0
0 0 0
0 0 0
0 0 0
0 0 0
0 0 0
0 0 0
0 0 0
0 0 0
0 0 0
0 0 0
0 0 0
0 0 0
0 0 0
0 0 0
0 0 0
0 0 0
0 0 0
0 0 0
0 0 0
0 0 0
0 0 0
0 0 0
0 0 0
0 0 0
0 0 0
0 0 0
0 0 0
0 0 0
0 0 0
0 0 0
0 0 0
0 0 0
0 0 0
0 0 0
0 0 0
0 0 0
0 0 0
0 0 0
0 0 0
0 0 0
0 0 0
0 0 0
0 0 0
0 0 0
42 42 42
39 39 39
39 39 39
44 44 44
30 30 30
27 27 27
27 27 27
31 31 31
20 20 20
17 17 17
17 17 17
19 19 19
11 11 11
9 9 9
8 8 8
9 9 9
3 3 3
2 2 2
1 1 1
1 1 1
0 0 0
0 0 0
0 0 0
0 0 0
0 0 0
0 0 0
0 0 0
0 0 0
0 0 0
0 0 0
0 0 0
0 0 0
0 0 0
0 0 0
0 0 0
0 0 0
0 0 0
0 0 0
0 0 0
0 0 0
0 0 0
0 0 0
0 0 0
0 0 0
0 0 0
0 0 0
0 0 0
0 0 0
0 0 0
0 0 0
0 0 0
0 0 0
0 0 0
0 0 0
0 0 0
0 0 0
0 0 0
0 0 0
0 0 0
0 0 0
0 0 0
0 0 0
0 0 0
0 0 0
0 0 0
0 0 0
0 0 0
0 0 0
0 0 0
0 0 0
0 0 0
0 0 0
0 0 0
0 0 0
0 0 0
0 0 0
0 0 0
0 0 0
0 0 0
0 0 0
0 0 0
0 0 0
0 0 0
0 0 0
0 0 0
0 0 0
0 0 0
0 0 0
0 0 0
0 0 0
0 0 0
0 0 0
0 0 0
0 0 0
0 0 0
0 0 0
0 0 0
0 0 0
0 0 0
0 0 0
0 0 0
0 0 0
0 0 0
0 0 0
0 0 0
0 0 0
0 0 0
0 0 0
0 0 0
0 0 0
0 0 0
0 0 0
0 0 0
0 0 0
0 0 0
0 0 0
0 0 0
0 0 0
0 0 0
0 0 0
0 0 0
0 0 0
0 0 0
0 0 0
0 0 0
0 0 0
0 0 0
0 0 0
39 39 39
37 37 37
37 37 37
42 42 42
29 29 29
27 27 27
27 27 27
31 31 31
20 20 20
18 18 18
18 18 18
21 21 21
13 13 13
11 11 11
11 11 11
12 12 12
6 6 6
5 5 5
4 4 4
5 5 5
1 1 1
0 0 0
0 0 0
0 0 0
0 0 0
0 0 0
0 0 0
0 0 0
0 0 0
0 0 0
0 0 0
0 0 0
0 0 0
0 0 0
0 0 0
0 0 0
0 0 0
0 0 0
0 0 0
0 0 0
0 0 0
0 0 0
0 0 0
0 0 0
0 0 0
0 0 0
0 0 0
0 0 0
0 0 0
0 0 0
0 0 0
0 0 0
0 0 0
0 0 0
0 0 0
0 0 0
0 0 0
0 0 0
0 0 0
0 0 0
0 0 0
0 0 0
0 0 0
0 0 0
0 0 0
0 0 0
0 0 0
0 0 0
0 0 0
0 0 0
0 0 0
0 0 0
0 0 0
0 0 0
0 0 0
0 0 0
0 0 0
0 0 0
0 0 0
0 0 0
0 0 0
0 0 0
0 0 0
0 0 0
0 0 0
0 0 0
0 0 0
0 0 0
0 0 0
0 0 0
0 0 0
0 0 0
0 0 0
0 0 0
0 0 0
0 0 0
0 0 0
0 0 0
0 0 0
0 0 0
0 0 0
0 0 0
0 0 0
0 0 0
0 0 0
0 0 0
0 0 0
0 0 0
0 0 0
0 0 0
0 0 0
0 0 0
0 0 0
0 0 0
0 0 0
0 0 0
0 0 0
0 0 0
0 0 0
0 0 0
0 0 0
0 0 0
0 0 0
0 0 0
0 0 0
0 0 0
0 0 0
0 0 0
41 41 41
39 39 39
39 39 39
45 45 45
31 31 31
29 29 29
29 29 29
33 33 33
22 22 22
21 21 21
20 20 20
23 23 23
15 15 15
13 13 13
13 13 13
15 15 15
8 8 8
7 7 7
6 6 6
7 7 7
3 3 3
1 1 1
1 1 1
1 1 1
0 0 0
0 0 0
0 0 0
0 0 0
0 0 0
0 0 0
0 0 0
0 0 0
0 0 0
0 0 0
0 0 0
0 0 0
0 0 0
0 0 0
0 0 0
0 0 0
0 0 0
0 0 0
0 0 0
0 0 0
0 0 0
0 0 0
0 0 0
0 0 0
0 0 0
0 0 0
0 0 0
0 0 0
0 0 0
0 0 0
0 0 0
0 0 0
0 0 0
0 0 0
0 0 0
0 0 0
0 0 0
0 0 0
0 0 0
0 0 0
0 0 0
0 0 0
0 0 0
0 0 0
0 0 0
0 0 0
0 0 0
0 0 0
0 0 0
0 0 0
0 0 0
0 0 0
0 0 0
0 0 0
0 0 0
0 0 0
0 0 0
0 0 0
0 0 0
0 0 0
0 0 0
0 0 0
0 0 0
0 0 0
0 0 0
0 0 0
0 0 0
0 0 0
0 0 0
0 0 0
0 0 0
0 0 0
0 0 0
0 0 0
0 0 0
0 0 0
0 0 0
0 0 0
0 0 0
0 0 0
0 0 0
0 0 0
0 0 0
0 0 0
0 0 0
0 0 0
0 0 0
0 0 0
0 0 0
0 0 0
0 0 0
0 0 0
0 0 0
0 0 0
0 0 0
0 0 0
0 0 0
0 0 0
0 0 0
0 0 0
0 0 0
0 0 0
0 0 0
0 0 0
45 45 45
43 43 43
43 43 43
49 49 49
35 35 35
32 32 32
33 33 33
37 37 37
25 25 25
23 23 23
23 23 23
26 26 26
17 17 17
16 16 16
15 15 15
17 17 17
10 10 10
9 9 9
8 8 8
9 9 9
4 4 4
3 3 3
2 2 2
3 3 3
0 0 0
0 0 0
0 0 0
0 0 0
0 0 0
0 0 0
0 0 0
0 0 0
0 0 0
0 0 0
0 0 0
0 0 0
0 0 0
0 0 0
0 0 0
0 0 0
0 0 0
0 0 0
0 0 0
0 0 0
0 0 0
0 0 0
0 0 0
0 0 0
0 0 0
0 0 0
0 0 0
0 0 0
0 0 0
0 0 0
0 0 0
0 0 0
0 0 0
0 0 0
0 0 0
0 0 0
0 0 0
0 0 0
0 0 0
0 0 0
0 0 0
0 0 0
0 0 0
0 0 0
0 0 0
0 0 0
0 0 0
0 0 0
0 0 0
0 0 0
0 0 0
0 0 0
0 0 0
0 0 0
0 0 0
0 0 0
0 0 0
0 0 0
0 0 0
0 0 0
0 0 0
0 0 0
0 0 0
0 0 0
0 0 0
0 0 0
0 0 0
0 0 0
0 0 0
0 0 0
0 0 0
0 0 0
0 0 0
0 0 0
0 0 0
0 0 0
0 0 0
0 0 0
0 0 0
0 0 0
0 0 0
0 0 0
0 0 0
0 0 0
0 0 0
0 0 0
0 0 0
0 0 0
0 0 0
0 0 0
0 0 0
0 0 0
0 0 0
0 0 0
0 0 0
0 0 0
0 0 0
0 0 0
0 0 0
0 0 0
0 0 0
0 0 0
0 0 0
0 0 0
52 52 52
49 49 49
50 50 50
57 57 57
40 40 40
37 37 37
38 38 38
43 43 43
29 29 29
27 27 27
27 27 27
31 31 31
20 20 20
18 18 18
18 18 18
20 20 20
12 12 12
11 11 11
10 10 10
11 11 11
5 5 5
4 4 4
3 3 3
4 4 4
0 0 0
0 0 0
0 0 0
0 0 0
0 0 0
0 0 0
0 0 0
0 0 0
0 0 0
0 0 0
0 0 0
0 0 0
0 0 0
0 0 0
0 0 0
0 0 0
0 0 0
0 0 0
0 0 0
0 0 0
0 0 0
0 0 0
0 0 0
0 0 0
0 0 0
0 0 0
0 0 0
0 0 0
0 0 0
0 0 0
0 0 0
0 0 0
0 0 0
0 0 0
0 0 0
0 0 0
0 0 0
0 0 0
0 0 0
0 0 0
0 0 0
0 0 0
0 0 0
0 0 0
0 0 0
0 0 0
0 0 0
0 0 0
0 0 0
0 0 0
0 0 0
0 0 0
0 0 0
0 0 0
0 0 0
0 0 0
0 0 0
0 0 0
0 0 0
0 0 0
0 0 0
0 0 0
0 0 0
0 0 0
0 0 0
0 0 0
0 0 0
0 0 0
0 0 0
0 0 0
0 0 0
0 0 0
0 0 0
0 0 0
0 0 0
0 0 0
0 0 0
0 0 0
0 0 0
0 0 0
0 0 0
0 0 0
0 0 0
0 0 0
0 0 0
0 0 0
0 0 0
0 0 0
0 0 0
0 0 0
0 0 0
0 0 0
0 0 0
0 0 0
0 0 0
0 0 0
0 0 0
0 0 0
0 0 0
0 0 0
0 0 0
0 0 0
0 0 0
0 0 0
48 48 48
46 46 46
46 46 46
53 53 53
38 38 38
36 36 36
36 36 36
41 41 41
29 29 29
27 27 27
27 27 27
31 31 31
21 21 21
19 19 19
19 19 19
22 22 22
14 14 14
13 13 13
13 13 13
14 14 14
8 8 8
7 7 7
7 7 7
8 8 8
4 4 4
2 2 2
2 2 2
2 2 2
0 0 0
0 0 0
0 0 0
0 0 0
0 0 0
0 0 0
0 0 0
0 0 0
0 0 0
0 0 0
0 0 0
0 0 0
0 0 0
0 0 0
0 0 0
0 0 0
0 0 0
0 0 0
0 0 0
0 0 0
0 0 0
0 0 0
0 0 0
0 0 0
0 0 0
0 0 0
0 0 0
0 0 0
0 0 0
0 0 0
0 0 0
0 0 0
0 0 0
0 0 0
0 0 0
0 0 0
0 0 0
0 0 0
0 0 0
0 0 0
0 0 0
0 0 0
0 0 0
0 0 0
0 0 0
0 0 0
0 0 0
0 0 0
0 0 0
0 0 0
0 0 0
0 0 0
0 0 0
0 0 0
0 0 0
0 0 0
0 0 0
0 0 0
0 0 0
0 0 0
0 0 0
0 0 0
0 0 0
0 0 0
0 0 0
0 0 0
0 0 0
0 0 0
0 0 0
0 0 0
0 0 0
0 0 0
0 0 0
0 0 0
0 0 0
0 0 0
0 0 0
0 0 0
0 0 0
0 0 0
0 0 0
0 0 0
0 0 0
0 0 0
0 0 0
0 0 0
0 0 0
0 0 0
0 0 0
0 0 0
0 0 0
0 0 0
0 0 0
0 0 0
0 0 0
0 0 0
0 0 0
0 0 0
0 0 0
0 0 0
50 50 50
48 48 48
49 49 49
56 56 56
40 40 40
38 38 38
39 39 39
44 44 44
31 31 31
29 29 29
30 30 30
34 34 34
23 23 23
22 22 22
22 22 22
25 25 25
16 16 16
15 15 15
15 15 15
17 17 17
11 11 11
9 9 9
9 9 9
10 10 10
6 6 6
4 4 4
4 4 4
4 4 4
1 1 1
0 0 0
0 0 0
0 0 0
0 0 0
0 0 0
0 0 0
0 0 0
0 0 0
0 0 0
0 0 0
0 0 0
0 0 0
0 0 0
0 0 0
0 0 0
0 0 0
0 0 0
0 0 0
0 0 0
0 0 0
0 0 0
0 0 0
0 0 0
0 0 0
0 0 0
0 0 0
0 0 0
0 0 0
0 0 0
0 0 0
0 0 0
0 0 0
0 0 0
0 0 0
0 0 0
0 0 0
0 0 0
0 0 0
0 0 0
0 0 0
0 0 0
0 0 0
0 0 0
0 0 0
0 0 0
0 0 0
0 0 0
0 0 0
0 0 0
0 0 0
0 0 0
0 0 0
0 0 0
0 0 0
0 0 0
0 0 0
0 0 0
0 0 0
0 0 0
0 0 0
0 0 0
0 0 0
0 0 0
0 0 0
0 0 0
0 0 0
0 0 0
0 0 0
0 0 0
0 0 0
0 0 0
0 0 0
0 0 0
0 0 0
0 0 0
0 0 0
0 0 0
0 0 0
0 0 0
0 0 0
0 0 0
0 0 0
0 0 0
0 0 0
0 0 0
0 0 0
0 0 0
0 0 0
0 0 0
0 0 0
0 0 0
0 0 0
0 0 0
0 0 0
0 0 0
0 0 0
0 0 0
0 0 0
0 0 0
55 55 55
52 52 52
53 53 53
61 61 61
44 44 44
42 42 42
42 42 42
48 48 48
34 34 34
33 33 33
33 33 33
37 37 37
26 26 26
25 25 25
25 25 25
28 28 28
19 19 19
18 18 18
17 17 17
20 20 20
13 13 13
12 12 12
11 11 11
13 13 13
7 7 7
6 6 6
6 6 6
6 6 6
2 2 2
1 1 1
0 0 0
0 0 0
0 0 0
0 0 0
0 0 0
0 0 0
0 0 0
0 0 0
0 0 0
0 0 0
0 0 0
0 0 0
0 0 0
0 0 0
0 0 0
0 0 0
0 0 0
0 0 0
0 0 0
0 0 0
0 0 0
0 0 0
0 0 0
0 0 0
0 0 0
0 0 0
0 0 0
0 0 0
0 0 0
0 0 0
0 0 0
0 0 0
0 0 0
0 0 0
0 0 0
0 0 0
0 0 0
0 0 0
0 0 0
0 0 0
0 0 0
0 0 0
0 0 0
0 0 0
0 0 0
0 0 0
0 0 0
0 0 0
0 0 0
0 0 0
0 0 0
0 0 0
0 0 0
0 0 0
0 0 0
0 0 0
0 0 0
0 0 0
0 0 0
0 0 0
0 0 0
0 0 0
0 0 0
0 0 0
0 0 0
0 0 0
0 0 0
0 0 0
0 0 0
0 0 0
0 0 0
0 0 0
0 0 0
0 0 0
0 0 0
0 0 0
0 0 0
0 0 0
0 0 0
0 0 0
0 0 0
0 0 0
0 0 0
0 0 0
0 0 0
0 0 0
0 0 0
0 0 0
0 0 0
0 0 0
0 0 0
0 0 0
0 0 0
0 0 0
0 0 0
0 0 0
0 0 0
0 0 0
63 63 63
60 60 60
61 61 61
70 70 70
51 51 51
48 48 48
49 49 49
56 56 56
40 40 40
38 38 38
38 38 38
43 43 43
30 30 30
29 29 29
29 29 29
33 33 33
22 22 22
21 21 21
20 20 20
23 23 23
15 15 15
14 14 14
13 13 13
15 15 15
9 9 9
8 8 8
7 7 7
8 8 8
3 3 3
2 2 2
1 1 1
1 1 1
0 0 0
0 0 0
0 0 0
0 0 0
0 0 0
0 0 0
0 0 0
0 0 0
0 0 0
0 0 0
0 0 0
0 0 0
0 0 0
0 0 0
0 0 0
0 0 0
0 0 0
0 0 0
0 0 0
0 0 0
0 0 0
0 0 0
0 0 0
0 0 0
0 0 0
0 0 0
0 0 0
0 0 0
0 0 0
0 0 0
0 0 0
0 0 0
0 0 0
0 0 0
0 0 0
0 0 0
0 0 0
0 0 0
0 0 0
0 0 0
0 0 0
0 0 0
0 0 0
0 0 0
0 0 0
0 0 0
0 0 0
0 0 0
0 0 0
0 0 0
0 0 0
0 0 0
0 0 0
0 0 0
0 0 0
0 0 0
0 0 0
0 0 0
0 0 0
0 0 0
0 0 0
0 0 0
0 0 0
0 0 0
0 0 0
0 0 0
0 0 0
0 0 0
0 0 0
0 0 0
0 0 0
0 0 0
0 0 0
0 0 0
0 0 0
0 0 0
0 0 0
0 0 0
0 0 0
0 0 0
0 0 0
0 0 0
0 0 0
0 0 0
0 0 0
0 0 0
0 0 0
0 0 0
0 0 0
0 0 0
0 0 0
0 0 0
0 0 0
0 0 0
0 0 0
0 0 0
57 57 57
55 55 55
56 56 56
63 63 63
47 47 47
45 45 45
46 46 46
52 52 52
38 38 38
36 36 36
37 37 37
42 42 42
30 30 30
28 28 28
29 29 29
33 33 33
23 23 23
22 22 22
22 22 22
25 25 25
17 17 17
16 16 16
16 16 16
18 18 18
12 12 12
11 11 11
11 11 11
12 12 12
7 7 7
6 6 6
6 6 6
6 6 6
2 2 2
1 1 1
0 0 0
0 0 0
0 0 0
0 0 0
0 0 0
0 0 0
0 0 0
0 0 0
0 0 0
0 0 0
0 0 0
0 0 0
0 0 0
0 0 0
0 0 0
0 0 0
0 0 0
0 0 0
0 0 0
0 0 0
0 0 0
0 0 0
0 0 0
0 0 0
0 0 0
0 0 0
0 0 0
0 0 0
0 0 0
0 0 0
0 0 0
0 0 0
0 0 0
0 0 0
0 0 0
0 0 0
0 0 0
0 0 0
0 0 0
0 0 0
0 0 0
0 0 0
0 0 0
0 0 0
0 0 0
0 0 0
0 0 0
0 0 0
0 0 0
0 0 0
0 0 0
0 0 0
0 0 0
0 0 0
0 0 0
0 0 0
0 0 0
0 0 0
0 0 0
0 0 0
0 0 0
0 0 0
0 0 0
0 0 0
0 0 0
0 0 0
0 0 0
0 0 0
0 0 0
0 0 0
0 0 0
0 0 0
0 0 0
0 0 0
0 0 0
0 0 0
0 0 0
0 0 0
0 0 0
0 0 0
0 0 0
0 0 0
0 0 0
0 0 0
0 0 0
0 0 0
0 0 0
0 0 0
0 0 0
0 0 0
0 0 0
0 0 0
0 0 0
0 0 0
59 59 59
57 57 57
58 58 58
66 66 66
49 49 49
47 47 47
48 48 48
55 55 55
40 40 40
38 38 38
39 39 39
45 45 45
32 32 32
31 31 31
31 31 31
36 36 36
25 25 25
24 24 24
24 24 24
28 28 28
19 19 19
18 18 18
18 18 18
21 21 21
14 14 14
13 13 13
13 13 13
15 15 15
9 9 9
8 8 8
8 8 8
9 9 9
4 4 4
3 3 3
2 2 2
2 2 2
0 0 0
0 0 0
0 0 0
0 0 0
0 0 0
0 0 0
0 0 0
0 0 0
0 0 0
0 0 0
0 0 0
0 0 0
0 0 0
0 0 0
0 0 0
0 0 0
0 0 0
0 0 0
0 0 0
0 0 0
0 0 0
0 0 0
0 0 0
0 0 0
0 0 0
0 0 0
0 0 0
0 0 0
0 0 0
0 0 0
0 0 0
0 0 0
0 0 0
0 0 0
0 0 0
0 0 0
0 0 0
0 0 0
0 0 0
0 0 0
0 0 0
0 0 0
0 0 0
0 0 0
0 0 0
0 0 0
0 0 0
0 0 0
0 0 0
0 0 0
0 0 0
0 0 0
0 0 0
0 0 0
0 0 0
0 0 0
0 0 0
0 0 0
0 0 0
0 0 0
0 0 0
0 0 0
0 0 0
0 0 0
0 0 0
0 0 0
0 0 0
0 0 0
0 0 0
0 0 0
0 0 0
0 0 0
0 0 0
0 0 0
0 0 0
0 0 0
0 0 0
0 0 0
0 0 0
0 0 0
0 0 0
0 0 0
0 0 0
0 0 0
0 0 0
0 0 0
0 0 0
0 0 0
0 0 0
0 0 0
0 0 0
0 0 0
64 64 64
62 62 62
63 63 63
72 72 72
53 53 53
52 52 52
53 53 53
60 60 60
44 44 44
42 42 42
43 43 43
49 49 49
36 36 36
34 34 34
35 35 35
40 40 40
29 29 29
27 27 27
28 28 28
31 31 31
22 22 22
21 21 21
21 21 21
24 24 24
17 17 17
16 16 16
16 16 16
18 18 18
12 12 12
10 10 10
10 10 10
11 11 11
6 6 6
5 5 5
4 4 4
4 4 4
0 0 0
0 0 0
0 0 0
0 0 0
0 0 0
0 0 0
0 0 0
0 0 0
0 0 0
0 0 0
0 0 0
0 0 0
0 0 0
0 0 0
0 0 0
0 0 0
0 0 0
0 0 0
0 0 0
0 0 0
0 0 0
0 0 0
0 0 0
0 0 0
0 0 0
0 0 0
0 0 0
0 0 0
0 0 0
0 0 0
0 0 0
0 0 0
0 0 0
0 0 0
0 0 0
0 0 0
0 0 0
0 0 0
0 0 0
0 0 0
0 0 0
0 0 0
0 0 0
0 0 0
0 0 0
0 0 0
0 0 0
0 0 0
0 0 0
0 0 0
0 0 0
0 0 0
0 0 0
0 0 0
0 0 0
0 0 0
0 0 0
0 0 0
0 0 0
0 0 0
0 0 0
0 0 0
0 0 0
0 0 0
0 0 0
0 0 0
0 0 0
0 0 0
0 0 0
0 0 0
0 0 0
0 0 0
0 0 0
0 0 0
0 0 0
0 0 0
0 0 0
0 0 0
0 0 0
0 0 0
0 0 0
0 0 0
0 0 0
0 0 0
0 0 0
0 0 0
0 0 0
0 0 0
0 0 0
0 0 0
0 0 0
0 0 0
73 73 73
71 71 71
73 73 73
83 83 83
61 61 61
59 59 59
61 61 61
69 69 69
51 51 51
49 49 49
50 50 50
57 57 57
41 41 41
40 40 40
40 40 40
46 46 46
33 33 33
32 32 32
32 32 32
37 37 37
26 26 26
25 25 25
25 25 25
28 28 28
20 20 20
19 19 19
19 19 19
21 21 21
14 14 14
13 13 13
12 12 12
14 14 14
8 8 8
6 6 6
5 5 5
6 6 6
1 1 1
0 0 0
0 0 0
0 0 0
0 0 0
0 0 0
0 0 0
0 0 0
0 0 0
0 0 0
0 0 0
0 0 0
0 0 0
0 0 0
0 0 0
0 0 0
0 0 0
0 0 0
0 0 0
0 0 0
0 0 0
0 0 0
0 0 0
0 0 0
0 0 0
0 0 0
0 0 0
0 0 0
0 0 0
0 0 0
0 0 0
0 0 0
0 0 0
0 0 0
0 0 0
0 0 0
0 0 0
0 0 0
0 0 0
0 0 0
0 0 0
0 0 0
0 0 0
0 0 0
0 0 0
0 0 0
0 0 0
0 0 0
0 0 0
0 0 0
0 0 0
0 0 0
0 0 0
0 0 0
0 0 0
0 0 0
0 0 0
0 0 0
0 0 0
0 0 0
0 0 0
0 0 0
0 0 0
0 0 0
0 0 0
0 0 0
0 0 0
0 0 0
0 0 0
0 0 0
0 0 0
0 0 0
0 0 0
0 0 0
0 0 0
0 0 0
0 0 0
0 0 0
0 0 0
0 0 0
0 0 0
0 0 0
0 0 0
0 0 0
0 0 0
0 0 0
0 0 0
0 0 0
0 0 0
0 0 0
0 0 0
0 0 0
65 65 65
63 63 63
65 65 65
74 74 74
56 56 56
54 54 54
55 55 55
63 63 63
47 47 47
45 45 45
46 46 46
53 53 53
39 39 39
38 38 38
39 39 39
44 44 44
32 32 32
31 31 31
32 32 32
36 36 36
27 27 27
25 25 25
26 26 26
30 30 30
21 21 21
20 20 20
21 21 21
23 23 23
16 16 16
15 15 15
15 15 15
17 17 17
11 11 11
10 10 10
9 9 9
10 10 10
5 5 5
4 4 4
3 3 3
3 3 3
0 0 0
0 0 0
0 0 0
0 0 0
0 0 0
0 0 0
0 0 0
0 0 0
0 0 0
0 0 0
0 0 0
0 0 0
0 0 0
0 0 0
0 0 0
0 0 0
0 0 0
0 0 0
0 0 0
0 0 0
0 0 0
0 0 0
0 0 0
0 0 0
0 0 0
0 0 0
0 0 0
0 0 0
0 0 0
0 0 0
0 0 0
0 0 0
0 0 0
0 0 0
0 0 0
0 0 0
0 0 0
0 0 0
0 0 0
0 0 0
0 0 0
0 0 0
0 0 0
0 0 0
0 0 0
0 0 0
0 0 0
0 0 0
0 0 0
0 0 0
0 0 0
0 0 0
0 0 0
0 0 0
0 0 0
0 0 0
0 0 0
0 0 0
0 0 0
0 0 0
0 0 0
0 0 0
0 0 0
0 0 0
0 0 0
0 0 0
0 0 0
0 0 0
0 0 0
0 0 0
0 0 0
0 0 0
0 0 0
0 0 0
0 0 0
0 0 0
0 0 0
0 0 0
0 0 0
0 0 0
0 0 0
0 0 0
0 0 0
0 0 0
0 0 0
0 0 0
0 0 0
0 0 0
68 68 68
66 66 66
68 68 68
77 77 77
58 58 58
56 56 56
58 58 58
66 66 66
49 49 49
48 48 48
49 49 49
56 56 56
42 42 42
40 40 40
41 41 41
47 47 47
35 35 35
34 34 34
35 35 35
39 39 39
29 29 29
28 28 28
29 29 29
33 33 33
24 24 24
23 23 23
23 23 23
26 26 26
19 19 19
18 18 18
18 18 18
20 20 20
14 14 14
12 12 12
12 12 12
13 13 13
8 8 8
6 6 6
5 5 5
5 5 5
1 1 1
0 0 0
0 0 0
0 0 0
0 0 0
0 0 0
0 0 0
0 0 0
0 0 0
0 0 0
0 0 0
0 0 0
0 0 0
0 0 0
0 0 0
0 0 0
0 0 0
0 0 0
0 0 0
0 0 0
0 0 0
0 0 0
0 0 0
0 0 0
0 0 0
0 0 0
0 0 0
0 0 0
0 0 0
0 0 0
0 0 0
0 0 0
0 0 0
0 0 0
0 0 0
0 0 0
0 0 0
0 0 0
0 0 0
0 0 0
0 0 0
0 0 0
0 0 0
0 0 0
0 0 0
0 0 0
0 0 0
0 0 0
0 0 0
0 0 0
0 0 0
0 0 0
0 0 0
0 0 0
0 0 0
0 0 0
0 0 0
0 0 0
0 0 0
0 0 0
0 0 0
0 0 0
0 0 0
0 0 0
0 0 0
0 0 0
0 0 0
0 0 0
0 0 0
0 0 0
0 0 0
0 0 0
0 0 0
0 0 0
0 0 0
0 0 0
0 0 0
0 0 0
0 0 0
0 0 0
0 0 0
0 0 0
0 0 0
0 0 0
0 0 0
0 0 0
0 0 0
0 0 0
73 73 73
71 71 71
73 73 73
83 83 83
63 63 63
61 61 61
63 63 63
72 72 72
54 54 54
52 52 52
54 54 54
61 61 61
46 46 46
44 44 44
46 46 46
52 52 52
39 39 39
37 37 37
38 38 38
44 44 44
33 33 33
31 31 31
32 32 32
37 37 37
27 27 27
26 26 26
26 26 26
30 30 30
22 22 22
21 21 21
21 21 21
23 23 23
16 16 16
15 15 15
14 14 14
16 16 16
10 10 10
8 8 8
7 7 7
8 8 8
2 2 2
1 1 1
0 0 0
0 0 0
0 0 0
0 0 0
0 0 0
0 0 0
0 0 0
0 0 0
0 0 0
0 0 0
0 0 0
0 0 0
0 0 0
0 0 0
0 0 0
0 0 0
0 0 0
0 0 0
0 0 0
0 0 0
0 0 0
0 0 0
0 0 0
0 0 0
0 0 0
0 0 0
0 0 0
0 0 0
0 0 0
0 0 0
0 0 0
0 0 0
0 0 0
0 0 0
0 0 0
0 0 0
0 0 0
0 0 0
0 0 0
0 0 0
0 0 0
0 0 0
0 0 0
0 0 0
0 0 0
0 0 0
0 0 0
0 0 0
0 0 0
0 0 0
0 0 0
0 0 0
0 0 0
0 0 0
0 0 0
0 0 0
0 0 0
0 0 0
0 0 0
0 0 0
0 0 0
0 0 0
0 0 0
0 0 0
0 0 0
0 0 0
0 0 0
0 0 0
0 0 0
0 0 0
0 0 0
0 0 0
0 0 0
0 0 0
0 0 0
0 0 0
0 0 0
0 0 0
0 0 0
0 0 0
0 0 0
0 0 0
0 0 0
0 0 0
0 0 0
0 0 0
84 84 84
81 81 81
84 84 84
96 96 96
72 72 72
70 70 70
72 72 72
82 82 82
62 62 62
60 60 60
62 62 62
70 70 70
53 53 53
51 51 51
52 52 52
60 60 60
45 45 45
43 43 43
44 44 44
51 51 51
38 38 38
36 36 36
37 37 37
42 42 42
31 31 31
30 30 30
31 31 31
35 35 35
25 25 25
24 24 24
24 24 24
27 27 27
19 19 19
18 18 18
17 17 17
19 19 19
12 12 12
10 10 10
9 9 9
10 10 10
3 3 3
1 1 1
0 0 0
0 0 0
0 0 0
0 0 0
0 0 0
0 0 0
0 0 0
0 0 0
0 0 0
0 0 0
0 0 0
0 0 0
0 0 0
0 0 0
0 0 0
0 0 0
0 0 0
0 0 0
0 0 0
0 0 0
0 0 0
0 0 0
0 0 0
0 0 0
0 0 0
0 0 0
0 0 0
0 0 0
0 0 0
0 0 0
0 0 0
0 0 0
0 0 0
0 0 0
0 0 0
0 0 0
0 0 0
0 0 0
0 0 0
0 0 0
0 0 0
0 0 0
0 0 0
0 0 0
0 0 0
0 0 0
0 0 0
0 0 0
0 0 0
0 0 0
0 0 0
0 0 0
0 0 0
0 0 0
0 0 0
0 0 0
0 0 0
0 0 0
0 0 0
0 0 0
0 0 0
0 0 0
0 0 0
0 0 0
0 0 0
0 0 0
0 0 0
0 0 0
0 0 0
0 0 0
0 0 0
0 0 0
0 0 0
0 0 0
0 0 0
0 0 0
0 0 0
0 0 0
0 0 0
0 0 0
0 0 0
0 0 0
0 0 0
0 0 0
0 0 0
0 0 0
74 74 74
72 72 72
74 74 74
85 85 85
65 65 65
63 63 63
65 65 65
74 74 74
56 56 56
55 55 55
56 56 56
64 64 64
49 49 49
47 47 47
49 49 49
56 56 56
42 42 42
41 41 41
42 42 42
48 48 48
36 36 36
35 35 35
36 36 36
42 42 42
31 31 31
30 30 30
31 31 31
35 35 35
26 26 26
25 25 25
26 26 26
29 29 29
21 21 21
20 20 20
20 20 20
22 22 22
15 15 15
13 13 13
13 13 13
14 14 14
8 8 8
6 6 6
5 5 5
5 5 5
0 0 0
0 0 0
0 0 0
0 0 0
0 0 0
0 0 0
0 0 0
0 0 0
0 0 0
0 0 0
0 0 0
0 0 0
0 0 0
0 0 0
0 0 0
0 0 0
0 0 0
0 0 0
0 0 0
0 0 0
0 0 0
0 0 0
0 0 0
0 0 0
0 0 0
0 0 0
0 0 0
0 0 0
0 0 0
0 0 0
0 0 0
0 0 0
0 0 0
0 0 0
0 0 0
0 0 0
0 0 0
0 0 0
0 0 0
0 0 0
0 0 0
0 0 0
0 0 0
0 0 0
0 0 0
0 0 0
0 0 0
0 0 0
0 0 0
0 0 0
0 0 0
0 0 0
0 0 0
0 0 0
0 0 0
0 0 0
0 0 0
0 0 0
0 0 0
0 0 0
0 0 0
0 0 0
0 0 0
0 0 0
0 0 0
0 0 0
0 0 0
0 0 0
0 0 0
0 0 0
0 0 0
0 0 0
0 0 0
0 0 0
0 0 0
0 0 0
0 0 0
0 0 0
0 0 0
0 0 0
0 0 0
0 0 0
0 0 0
0 0 0
76 76 76
75 75 75
77 77 77
88 88 88
67 67 67
66 66 66
68 68 68
77 77 77
59 59 59
58 58 58
59 59 59
68 68 68
51 51 51
50 50 50
52 52 52
59 59 59
45 45 45
44 44 44
45 45 45
51 51 51
39 39 39
38 38 38
39 39 39
45 45 45
34 34 34
33 33 33
34 34 34
39 39 39
29 29 29
28 28 28
29 29 29
32 32 32
24 24 24
22 22 22
22 22 22
25 25 25
17 17 17
16 16 16
15 15 15
17 17 17
10 10 10
8 8 8
7 7 7
8 8 8
2 2 2
0 0 0
0 0 0
0 0 0
0 0 0
0 0 0
0 0 0
0 0 0
0 0 0
0 0 0
0 0 0
0 0 0
0 0 0
0 0 0
0 0 0
0 0 0
0 0 0
0 0 0
0 0 0
0 0 0
0 0 0
0 0 0
0 0 0
0 0 0
0 0 0
0 0 0
0 0 0
0 0 0
0 0 0
0 0 0
0 0 0
0 0 0
0 0 0
0 0 0
0 0 0
0 0 0
0 0 0
0 0 0
0 0 0
0 0 0
0 0 0
0 0 0
0 0 0
0 0 0
0 0 0
0 0 0
0 0 0
0 0 0
0 0 0
0 0 0
0 0 0
0 0 0
0 0 0
0 0 0
0 0 0
0 0 0
0 0 0
0 0 0
0 0 0
0 0 0
0 0 0
0 0 0
0 0 0
0 0 0
0 0 0
0 0 0
0 0 0
0 0 0
0 0 0
0 0 0
0 0 0
0 0 0
0 0 0
0 0 0
0 0 0
0 0 0
0 0 0
0 0 0
0 0 0
0 0 0
0 0 0
0 0 0
0 0 0
0 0 0
82 82 82
80 80 80
83 83 83
95 95 95
73 73 73
71 71 71
73 73 73
83 83 83
64 64 64
62 62 62
64 64 64
73 73 73
56 56 56
55 55 55
57 57 57
64 64 64
49 49 49
48 48 48
50 50 50
57 57 57
43 43 43
42 42 42
44 44 44
50 50 50
38 38 38
37 37 37
38 38 38
43 43 43
33 33 33
31 31 31
32 32 32
36 36 36
27 27 27
25 25 25
26 26 26
29 29 29
20 20 20
19 19 19
18 18 18
20 20 20
12 12 12
11 11 11
10 10 10
10 10 10
4 4 4
2 2 2
0 0 0
0 0 0
0 0 0
0 0 0
0 0 0
0 0 0
0 0 0
0 0 0
0 0 0
0 0 0
0 0 0
0 0 0
0 0 0
0 0 0
0 0 0
0 0 0
0 0 0
0 0 0
0 0 0
0 0 0
0 0 0
0 0 0
0 0 0
0 0 0
0 0 0
0 0 0
0 0 0
0 0 0
0 0 0
0 0 0
0 0 0
0 0 0
0 0 0
0 0 0
0 0 0
0 0 0
0 0 0
0 0 0
0 0 0
0 0 0
0 0 0
0 0 0
0 0 0
0 0 0
0 0 0
0 0 0
0 0 0
0 0 0
0 0 0
0 0 0
0 0 0
0 0 0
0 0 0
0 0 0
0 0 0
0 0 0
0 0 0
0 0 0
0 0 0
0 0 0
0 0 0
0 0 0
0 0 0
0 0 0
0 0 0
0 0 0
0 0 0
0 0 0
0 0 0
0 0 0
0 0 0
0 0 0
0 0 0
0 0 0
0 0 0
0 0 0
0 0 0
0 0 0
0 0 0
0 0 0
0 0 0
0 0 0
94 94 94
92 92 92
95 95 95
109 109 109
83 83 83
81 81 81
84 84 84
96 96 96
73 73 73
72 72 72
74 74 74
84 84 84
64 64 64
63 63 63
65 65 65
74 74 74
57 57 57
55 55 55
57 57 57
65 65 65
50 50 50
49 49 49
50 50 50
57 57 57
44 44 44
43 43 43
44 44 44
50 50 50
38 38 38
36 36 36
37 37 37
42 42 42
31 31 31
30 30 30
30 30 30
34 34 34
24 24 24
22 22 22
21 21 21
24 24 24
15 15 15
13 13 13
12 12 12
13 13 13
5 5 5
2 2 2
1 1 1
0 0 0
0 0 0
0 0 0
0 0 0
0 0 0
0 0 0
0 0 0
0 0 0
0 0 0
0 0 0
0 0 0
0 0 0
0 0 0
0 0 0
0 0 0
0 0 0
0 0 0
0 0 0
0 0 0
0 0 0
0 0 0
0 0 0
0 0 0
0 0 0
0 0 0
0 0 0
0 0 0
0 0 0
0 0 0
0 0 0
0 0 0
0 0 0
0 0 0
0 0 0
0 0 0
0 0 0
0 0 0
0 0 0
0 0 0
0 0 0
0 0 0
0 0 0
0 0 0
0 0 0
0 0 0
0 0 0
0 0 0
0 0 0
0 0 0
0 0 0
0 0 0
0 0 0
0 0 0
0 0 0
0 0 0
0 0 0
0 0 0
0 0 0
0 0 0
0 0 0
0 0 0
0 0 0
0 0 0
0 0 0
0 0 0
0 0 0
0 0 0
0 0 0
0 0 0
0 0 0
0 0 0
0 0 0
0 0 0
0 0 0
0 0 0
0 0 0
0 0 0
0 0 0
0 0 0
0 0 0
0 0 0
83 83 83
81 81 81
84 84 84
96 96 96
74 74 74
72 72 72
75 75 75
85 85 85
66 66 66
64 64 64
67 67 67
76 76 76
58 58 58
57 57 57
59 59 59
68 68 68
52 52 52
51 51 51
53 53 53
60 60 60
47 47 47
46 46 46
47 47 47
54 54 54
42 42 42
41 41 41
42 42 42
48 48 48
37 37 37
36 36 36
37 37 37
42 42 42
31 31 31
30 30 30
31 31 31
34 34 34
25 25 25
23 23 23
23 23 23
26 26 26
18 18 18
16 16 16
15 15 15
17 17 17
9 9 9
7 7 7
6 6 6
6 6 6
0 0 0
0 0 0
0 0 0
0 0 0
0 0 0
0 0 0
0 0 0
0 0 0
0 0 0
0 0 0
0 0 0
0 0 0
0 0 0
0 0 0
0 0 0
0 0 0
0 0 0
0 0 0
0 0 0
0 0 0
0 0 0
0 0 0
0 0 0
0 0 0
0 0 0
0 0 0
0 0 0
0 0 0
0 0 0
0 0 0
0 0 0
0 0 0
0 0 0
0 0 0
0 0 0
0 0 0
0 0 0
0 0 0
0 0 0
0 0 0
0 0 0
0 0 0
0 0 0
0 0 0
0 0 0
0 0 0
0 0 0
0 0 0
0 0 0
0 0 0
0 0 0
0 0 0
0 0 0
0 0 0
0 0 0
0 0 0
0 0 0
0 0 0
0 0 0
0 0 0
0 0 0
0 0 0
0 0 0
0 0 0
0 0 0
0 0 0
0 0 0
0 0 0
0 0 0
0 0 0
0 0 0
0 0 0
0 0 0
0 0 0
0 0 0
0 0 0
0 0 0
0 0 0
0 0 0
0 0 0
87 87 87
85 85 85
88 88 88
100 100 100
76 76 76
75 75 75
78 78 78
89 89 89
68 68 68
67 67 67
70 70 70
79 79 79
61 61 61
60 60 60
62 62 62
71 71 71
55 55 55
54 54 54
56 56 56
64 64 64
49 49 49
49 49 49
50 50 50
57 57 57
44 44 44
44 44 44
45 45 45
51 51 51
39 39 39
39 39 39
40 40 40
45 45 45
34 34 34
33 33 33
33 33 33
38 38 38
28 28 28
26 26 26
26 26 26
29 29 29
20 20 20
18 18 18
18 18 18
20 20 20
12 12 12
10 10 10
8 8 8
9 9 9
2 2 2
0 0 0
0 0 0
0 0 0
0 0 0
0 0 0
0 0 0
0 0 0
0 0 0
0 0 0
0 0 0
0 0 0
0 0 0
0 0 0
0 0 0
0 0 0
0 0 0
0 0 0
0 0 0
0 0 0
0 0 0
0 0 0
0 0 0
0 0 0
0 0 0
0 0 0
0 0 0
0 0 0
0 0 0
0 0 0
0 0 0
0 0 0
0 0 0
0 0 0
0 0 0
0 0 0
0 0 0
0 0 0
0 0 0
0 0 0
0 0 0
0 0 0
0 0 0
0 0 0
0 0 0
0 0 0
0 0 0
0 0 0
0 0 0
0 0 0
0 0 0
0 0 0
0 0 0
0 0 0
0 0 0
0 0 0
0 0 0
0 0 0
0 0 0
0 0 0
0 0 0
0 0 0
0 0 0
0 0 0
0 0 0
0 0 0
0 0 0
0 0 0
0 0 0
0 0 0
0 0 0
0 0 0
0 0 0
0 0 0
0 0 0
0 0 0
0 0 0
0 0 0
0 0 0
0 0 0
94 94 94
92 92 92
95 95 95
108 108 108
82 82 82
81 81 81
84 84 84
96 96 96
74 74 74
73 73 73
75 75 75
86 86 86
66 66 66
65 65 65
68 68 68
77 77 77
60 60 60
59 59 59
61 61 61
70 70 70
54 54 54
53 53 53
55 55 55
63 63 63
49 49 49
48 48 48
50 50 50
56 56 56
44 44 44
43 43 43
44 44 44
50 50 50
38 38 38
37 37 37
37 37 37
42 42 42
31 31 31
30 30 30
30 30 30
33 33 33
23 23 23
21 21 21
21 21 21
23 23 23
14 14 14
12 12 12
11 11 11
12 12 12
4 4 4
2 2 2
0 0 0
0 0 0
0 0 0
0 0 0
0 0 0
0 0 0
0 0 0
0 0 0
0 0 0
0 0 0
0 0 0
0 0 0
0 0 0
0 0 0
0 0 0
0 0 0
0 0 0
0 0 0
0 0 0
0 0 0
0 0 0
0 0 0
0 0 0
0 0 0
0 0 0
0 0 0
0 0 0
0 0 0
0 0 0
0 0 0
0 0 0
0 0 0
0 0 0
0 0 0
0 0 0
0 0 0
0 0 0
0 0 0
0 0 0
0 0 0
0 0 0
0 0 0
0 0 0
0 0 0
0 0 0
0 0 0
0 0 0
0 0 0
0 0 0
0 0 0
0 0 0
0 0 0
0 0 0
0 0 0
0 0 0
0 0 0
0 0 0
0 0 0
0 0 0
0 0 0
0 0 0
0 0 0
0 0 0
0 0 0
0 0 0
0 0 0
0 0 0
0 0 0
0 0 0
0 0 0
0 0 0
0 0 0
0 0 0
0 0 0
0 0 0
0 0 0
0 0 0
0 0 0
108 108 108
106 106 106
109 109 109
124 124 124
95 95 95
93 93 93
96 96 96
110 110 110
85 85 85
83 83 83
86 86 86
98 98 98
76 76 76
75 75 75
78 78 78
89 89 89
69 69 69
68 68 68
70 70 70
80 80 80
62 62 62
61 61 61
63 63 63
72 72 72
56 56 56
55 55 55
57 57 57
65 65 65
50 50 50
49 49 49
51 51 51
57 57 57
44 44 44
42 42 42
43 43 43
49 49 49
36 36 36
34 34 34
34 34 34
39 39 39
27 27 27
25 25 25
24 24 24
27 27 27
17 17 17
14 14 14
13 13 13
14 14 14
6 6 6
3 3 3
1 1 1
1 1 1
0 0 0
0 0 0
0 0 0
0 0 0
0 0 0
0 0 0
0 0 0
0 0 0
0 0 0
0 0 0
0 0 0
0 0 0
0 0 0
0 0 0
0 0 0
0 0 0
0 0 0
0 0 0
0 0 0
0 0 0
0 0 0
0 0 0
0 0 0
0 0 0
0 0 0
0 0 0
0 0 0
0 0 0
0 0 0
0 0 0
0 0 0
0 0 0
0 0 0
0 0 0
0 0 0
0 0 0
0 0 0
0 0 0
0 0 0
0 0 0
0 0 0
0 0 0
0 0 0
0 0 0
0 0 0
0 0 0
0 0 0
0 0 0
0 0 0
0 0 0
0 0 0
0 0 0
0 0 0
0 0 0
0 0 0
0 0 0
0 0 0
0 0 0
0 0 0
0 0 0
0 0 0
0 0 0
0 0 0
0 0 0
0 0 0
0 0 0
0 0 0
0 0 0
0 0 0
0 0 0
0 0 0
0 0 0
0 0 0
0 0 0
0 0 0
0 0 0
96 96 96
94 94 94
97 97 97
110 110 110
84 84 84
82 82 82
85 85 85
98 98 98
75 75 75
74 74 74
77 77 77
88 88 88
68 68 68
67 67 67
70 70 70
80 80 80
62 62 62
61 61 61
64 64 64
73 73 73
57 57 57
56 56 56
58 58 58
67 67 67
52 52 52
51 51 51
53 53 53
61 61 61
47 47 47
46 46 46
48 48 48
54 54 54
42 42 42
41 41 41
42 42 42
47 47 47
35 35 35
34 34 34
35 35 35
39 39 39
28 28 28
26 26 26
26 26 26
29 29 29
20 20 20
18 18 18
17 17 17
19 19 19
10 10 10
8 8 8
6 6 6
7 7 7
0 0 0
0 0 0
0 0 0
0 0 0
0 0 0
0 0 0
0 0 0
0 0 0
0 0 0
0 0 0
0 0 0
0 0 0
0 0 0
0 0 0
0 0 0
0 0 0
0 0 0
0 0 0
0 0 0
0 0 0
0 0 0
0 0 0
0 0 0
0 0 0
0 0 0
0 0 0
0 0 0
0 0 0
0 0 0
0 0 0
0 0 0
0 0 0
0 0 0
0 0 0
0 0 0
0 0 0
0 0 0
0 0 0
0 0 0
0 0 0
0 0 0
0 0 0
0 0 0
0 0 0
0 0 0
0 0 0
0 0 0
0 0 0
0 0 0
0 0 0
0 0 0
0 0 0
0 0 0
0 0 0
0 0 0
0 0 0
0 0 0
0 0 0
0 0 0
0 0 0
0 0 0
0 0 0
0 0 0
0 0 0
0 0 0
0 0 0
0 0 0
0 0 0
0 0 0
0 0 0
0 0 0
0 0 0
0 0 0
0 0 0
0 0 0
0 0 0
100 100 100
98 98 98
101 101 101
115 115 115
88 88 88
86 86 86
89 89 89
102 102 102
78 78 78
77 77 77
80 80 80
91 91 91
71 71 71
70 70 70
73 73 73
83 83 83
65 65 65
64 64 64
67 67 67
76 76 76
60 60 60
59 59 59
62 62 62
70 70 70
55 55 55
54 54 54
56 56 56
64 64 64
50 50 50
49 49 49
51 51 51
58 58 58
45 45 45
44 44 44
45 45 45
51 51 51
38 38 38
37 37 37
38 38 38
42 42 42
31 31 31
29 29 29
29 29 29
33 33 33
22 22 22
20 20 20
20 20 20
22 22 22
13 13 13
11 11 11
9 9 9
10 10 10
3 3 3
0 0 0
0 0 0
0 0 0
0 0 0
0 0 0
0 0 0
0 0 0
0 0 0
0 0 0
0 0 0
0 0 0
0 0 0
0 0 0
0 0 0
0 0 0
0 0 0
0 0 0
0 0 0
0 0 0
0 0 0
0 0 0
0 0 0
0 0 0
0 0 0
0 0 0
0 0 0
0 0 0
0 0 0
0 0 0
0 0 0
0 0 0
0 0 0
0 0 0
0 0 0
0 0 0
0 0 0
0 0 0
0 0 0
0 0 0
0 0 0
0 0 0
0 0 0
0 0 0
0 0 0
0 0 0
0 0 0
0 0 0
0 0 0
0 0 0
0 0 0
0 0 0
0 0 0
0 0 0
0 0 0
0 0 0
0 0 0
0 0 0
0 0 0
0 0 0
0 0 0
0 0 0
0 0 0
0 0 0
0 0 0
0 0 0
0 0 0
0 0 0
0 0 0
0 0 0
0 0 0
0 0 0
0 0 0
0 0 0
0 0 0
0 0 0
109 109 109
106 106 106
109 109 109
125 125 125
95 95 95
93 93 93
96 96 96
110 110 110
85 85 85
83 83 83
86 86 86
99 99 99
77 77 77
76 76 76
79 79 79
90 90 90
71 71 71
70 70 70
73 73 73
83 83 83
65 65 65
64 64 64
67 67 67
76 76 76
60 60 60
59 59 59
62 62 62
70 70 70
55 55 55
54 54 54
56 56 56
63 63 63
49 49 49
48 48 48
49 49 49
56 56 56
42 42 42
41 41 41
42 42 42
47 47 47
35 35 35
33 33 33
33 33 33
37 37 37
26 26 26
24 24 24
23 23 23
26 26 26
16 16 16
13 13 13
12 12 12
13 13 13
5 5 5
2 2 2
1 1 1
0 0 0
0 0 0
0 0 0
0 0 0
0 0 0
0 0 0
0 0 0
0 0 0
0 0 0
0 0 0
0 0 0
0 0 0
0 0 0
0 0 0
0 0 0
0 0 0
0 0 0
0 0 0
0 0 0
0 0 0
0 0 0
0 0 0
0 0 0
0 0 0
0 0 0
0 0 0
0 0 0
0 0 0
0 0 0
0 0 0
0 0 0
0 0 0
0 0 0
0 0 0
0 0 0
0 0 0
0 0 0
0 0 0
0 0 0
0 0 0
0 0 0
0 0 0
0 0 0
0 0 0
0 0 0
0 0 0
0 0 0
0 0 0
0 0 0
0 0 0
0 0 0
0 0 0
0 0 0
0 0 0
0 0 0
0 0 0
0 0 0
0 0 0
0 0 0
0 0 0
0 0 0
0 0 0
0 0 0
0 0 0
0 0 0
0 0 0
0 0 0
0 0 0
0 0 0
0 0 0
0 0 0
0 0 0
0 0 0
125 125 125
122 122 122
126 126 126
143 143 143
110 110 110
107 107 107
111 111 111
127 127 127
97 97 97
96 96 96
99 99 99
113 113 113
88 88 88
87 87 87
90 90 90
103 103 103
81 81 81
80 80 80
83 83 83
95 95 95
75 75 75
74 74 74
77 77 77
87 87 87
69 69 69
68 68 68
71 71 71
80 80 80
63 63 63
62 62 62
64 64 64
73 73 73
56 56 56
55 55 55
57 57 57
64 64 64
49 49 49
47 47 47
48 48 48
54 54 54
40 40 40
38 38 38
38 38 38
43 43 43
30 30 30
28 28 28
27 27 27
30 30 30
19 19 19
16 16 16
15 15 15
16 16 16
7 7 7
4 4 4
2 2 2
1 1 1
0 0 0
0 0 0
0 0 0
0 0 0
0 0 0
0 0 0
0 0 0
0 0 0
0 0 0
0 0 0
0 0 0
0 0 0
0 0 0
0 0 0
0 0 0
0 0 0
0 0 0
0 0 0
0 0 0
0 0 0
0 0 0
0 0 0
0 0 0
0 0 0
0 0 0
0 0 0
0 0 0
0 0 0
0 0 0
0 0 0
0 0 0
0 0 0
0 0 0
0 0 0
0 0 0
0 0 0
0 0 0
0 0 0
0 0 0
0 0 0
0 0 0
0 0 0
0 0 0
0 0 0
0 0 0
0 0 0
0 0 0
0 0 0
0 0 0
0 0 0
0 0 0
0 0 0
0 0 0
0 0 0
0 0 0
0 0 0
0 0 0
0 0 0
0 0 0
0 0 0
0 0 0
0 0 0
0 0 0
0 0 0
0 0 0
0 0 0
0 0 0
0 0 0
0 0 0
0 0 0
0 0 0
0 0 0
111 111 111
109 109 109
112 112 112
128 128 128
98 98 98
96 96 96
99 99 99
113 113 113
87 87 87
85 85 85
88 88 88
101 101 101
78 78 78
77 77 77
80 80 80
92 92 92
72 72 72
72 72 72
75 75 75
85 85 85
67 67 67
67 67 67
69 69 69
79 79 79
63 63 63
62 62 62
64 64 64
73 73 73
58 58 58
57 57 57
59 59 59
67 67 67
52 52 52
51 51 51
53 53 53
60 60 60
46 46 46
45 45 45
46 46 46
52 52 52
39 39 39
37 37 37
38 38 38
43 43 43
31 31 31
29 29 29
29 29 29
32 32 32
22 22 22
19 19 19
19 19 19
21 21 21
11 11 11
9 9 9
8 8 8
8 8 8
1 1 1
0 0 0
0 0 0
0 0 0
0 0 0
0 0 0
0 0 0
0 0 0
0 0 0
0 0 0
0 0 0
0 0 0
0 0 0
0 0 0
0 0 0
0 0 0
0 0 0
0 0 0
0 0 0
0 0 0
0 0 0
0 0 0
0 0 0
0 0 0
0 0 0
0 0 0
0 0 0
0 0 0
0 0 0
0 0 0
0 0 0
0 0 0
0 0 0
0 0 0
0 0 0
0 0 0
0 0 0
0 0 0
0 0 0
0 0 0
0 0 0
0 0 0
0 0 0
0 0 0
0 0 0
0 0 0
0 0 0
0 0 0
0 0 0
0 0 0
0 0 0
0 0 0
0 0 0
0 0 0
0 0 0
0 0 0
0 0 0
0 0 0
0 0 0
0 0 0
0 0 0
0 0 0
0 0 0
0 0 0
0 0 0
0 0 0
0 0 0
0 0 0
0 0 0
0 0 0
0 0 0
0 0 0
116 116 116
113 113 113
117 117 117
133 133 133
102 102 102
100 100 100
104 104 104
118 118 118
91 91 91
89 89 89
92 92 92
106 106 106
82 82 82
81 81 81
84 84 84
96 96 96
75 75 75
75 75 75
78 78 78
89 89 89
70 70 70
70 70 70
73 73 73
83 83 83
66 66 66
65 65 65
68 68 68
77 77 77
61 61 61
60 60 60
62 62 62
71 71 71
55 55 55
54 54 54
56 56 56
64 64 64
49 49 49
48 48 48
49 49 49
56 56 56
42 42 42
41 41 41
41 41 41
47 47 47
34 34 34
32 32 32
32 32 32
36 36 36
25 25 25
22 22 22
22 22 22
24 24 24
15 15 15
12 12 12
11 11 11
12 12 12
4 4 4
1 1 1
0 0 0
0 0 0
0 0 0
0 0 0
0 0 0
0 0 0
0 0 0
0 0 0
0 0 0
0 0 0
0 0 0
0 0 0
0 0 0
0 0 0
0 0 0
0 0 0
0 0 0
0 0 0
0 0 0
0 0 0
0 0 0
0 0 0
0 0 0
0 0 0
0 0 0
0 0 0
0 0 0
0 0 0
0 0 0
0 0 0
0 0 0
0 0 0
0 0 0
0 0 0
0 0 0
0 0 0
0 0 0
0 0 0
0 0 0
0 0 0
0 0 0
0 0 0
0 0 0
0 0 0
0 0 0
0 0 0
0 0 0
0 0 0
0 0 0
0 0 0
0 0 0
0 0 0
0 0 0
0 0 0
0 0 0
0 0 0
0 0 0
0 0 0
0 0 0
0 0 0
0 0 0
0 0 0
0 0 0
0 0 0
0 0 0
0 0 0
0 0 0
0 0 0
0 0 0
0 0 0
125 125 125
123 123 123
127 127 127
144 144 144
111 111 111
109 109 109
112 112 112
128 128 128
99 99 99
97 97 97
100 100 100
115 115 115
89 89 89
88 88 88
91 91 91
104 104 104
81 81 81
80 80 80
84 84 84
96 96 96
76 76 76
75 75 75
78 78 78
89 89 89
71 71 71
70 70 70
73 73 73
83 83 83
66 66 66
65 65 65
68 68 68
77 77 77
60 60 60
59 59 59
61 61 61
70 70 70
54 54 54
53 53 53
54 54 54
61 61 61
46 46 46
45 45 45
46 46 46
52 52 52
38 38 38
36 36 36
36 36 36
41 41 41
28 28 28
26 26 26
26 26 26
29 29 29
18 18 18
15 15 15
14 14 14
15 15 15
7 7 7
4 4 4
2 2 2
2 2 2
0 0 0
0 0 0
0 0 0
0 0 0
0 0 0
0 0 0
0 0 0
0 0 0
0 0 0
0 0 0
0 0 0
0 0 0
0 0 0
0 0 0
0 0 0
0 0 0
0 0 0
0 0 0
0 0 0
0 0 0
0 0 0
0 0 0
0 0 0
0 0 0
0 0 0
0 0 0
0 0 0
0 0 0
0 0 0
0 0 0
0 0 0
0 0 0
0 0 0
0 0 0
0 0 0
0 0 0
0 0 0
0 0 0
0 0 0
0 0 0
0 0 0
0 0 0
0 0 0
0 0 0
0 0 0
0 0 0
0 0 0
0 0 0
0 0 0
0 0 0
0 0 0
0 0 0
0 0 0
0 0 0
0 0 0
0 0 0
0 0 0
0 0 0
0 0 0
0 0 0
0 0 0
0 0 0
0 0 0
0 0 0
0 0 0
0 0 0
0 0 0
0 0 0
144 144 144
141 141 141
146 146 146
166 166 166
128 128 128
125 125 125
129 129 129
148 148 148
114 114 114
112 112 112
116 116 116
132 132 132
103 103 103
101 101 101
105 105 105
120 120 120
93 93 93
92 92 92
96 96 96
110 110 110
87 87 87
86 86 86
90 90 90
102 102 102
81 81 81
81 81 81
84 84 84
96 96 96
76 76 76
75 75 75
78 78 78
88 88 88
69 69 69
68 68 68
71 71 71
80 80 80
62 62 62
61 61 61
62 62 62
70 70 70
54 54 54
52 52 52
53 53 53
60 60 60
44 44 44
42 42 42
42 42 42
47 47 47
33 33 33
30 30 30
30 30 30
33 33 33
21 21 21
18 18 18
17 17 17
19 19 19
8 8 8
5 5 5
3 3 3
4 4 4
0 0 0
0 0 0
0 0 0
0 0 0
0 0 0
0 0 0
0 0 0
0 0 0
0 0 0
0 0 0
0 0 0
0 0 0
0 0 0
0 0 0
0 0 0
0 0 0
0 0 0
0 0 0
0 0 0
0 0 0
0 0 0
0 0 0
0 0 0
0 0 0
0 0 0
0 0 0
0 0 0
0 0 0
0 0 0
0 0 0
0 0 0
0 0 0
0 0 0
0 0 0
0 0 0
0 0 0
0 0 0
0 0 0
0 0 0
0 0 0
0 0 0
0 0 0
0 0 0
0 0 0
0 0 0
0 0 0
0 0 0
0 0 0
0 0 0
0 0 0
0 0 0
0 0 0
0 0 0
0 0 0
0 0 0
0 0 0
0 0 0
0 0 0
0 0 0
0 0 0
0 0 0
0 0 0
0 0 0
0 0 0
0 0 0
0 0 0
0 0 0
0 0 0
128 128 128
125 125 125
130 130 130
148 148 148
114 114 114
112 112 112
116 116 116
132 132 132
102 102 102
100 100 100
104 104 104
118 118 118
92 92 92
90 90 90
94 94 94
107 107 107
83 83 83
82 82 82
86 86 86
98 98 98
78 78 78
77 77 77
80 80 80
92 92 92
73 73 73
72 72 72
76 76 76
86 86 86
68 68 68
68 68 68
70 70 70
80 80 80
63 63 63
62 62 62
65 65 65
73 73 73
57 57 57
56 56 56
58 58 58
66 66 66
50 50 50
49 49 49
50 50 50
57 57 57
43 43 43
41 41 41
42 42 42
47 47 47
34 34 34
32 32 32
32 32 32
36 36 36
24 24 24
22 22 22
21 21 21
24 24 24
14 14 14
11 11 11
10 10 10
11 11 11
3 3 3
1 1 1
0 0 0
0 0 0
0 0 0
0 0 0
0 0 0
0 0 0
0 0 0
0 0 0
0 0 0
0 0 0
0 0 0
0 0 0
0 0 0
0 0 0
0 0 0
0 0 0
0 0 0
0 0 0
0 0 0
0 0 0
0 0 0
0 0 0
0 0 0
0 0 0
0 0 0
0 0 0
0 0 0
0 0 0
0 0 0
0 0 0
0 0 0
0 0 0
0 0 0
0 0 0
0 0 0
0 0 0
0 0 0
0 0 0
0 0 0
0 0 0
0 0 0
0 0 0
0 0 0
0 0 0
0 0 0
0 0 0
0 0 0
0 0 0
0 0 0
0 0 0
0 0 0
0 0 0
0 0 0
0 0 0
0 0 0
0 0 0
0 0 0
0 0 0
0 0 0
0 0 0
0 0 0
0 0 0
0 0 0
0 0 0
0 0 0
0 0 0
133 133 133
131 131 131
135 135 135
154 154 154
119 119 119
117 117 117
121 121 121
138 138 138
107 107 107
105 105 105
109 109 109
124 124 124
96 96 96
95 95 95
98 98 98
112 112 112
87 87 87
86 86 86
90 90 90
103 103 103
81 81 81
81 81 81
84 84 84
96 96 96
76 76 76
76 76 76
79 79 79
90 90 90
71 71 71
71 71 71
73 73 73
84 84 84
66 66 66
65 65 65
68 68 68
77 77 77
60 60 60
59 59 59
61 61 61
69 69 69
54 54 54
52 52 52
54 54 54
61 61 61
46 46 46
44 44 44
45 45 45
51 51 51
37 37 37
35 35 35
35 35 35
40 40 40
28 28 28
25 25 25
25 25 25
28 28 28
17 17 17
15 15 15
14 14 14
15 15 15
7 7 7
4 4 4
3 3 3
3 3 3
0 0 0
0 0 0
0 0 0
0 0 0
0 0 0
0 0 0
0 0 0
0 0 0
0 0 0
0 0 0
0 0 0
0 0 0
0 0 0
0 0 0
0 0 0
0 0 0
0 0 0
0 0 0
0 0 0
0 0 0
0 0 0
0 0 0
0 0 0
0 0 0
0 0 0
0 0 0
0 0 0
0 0 0
0 0 0
0 0 0
0 0 0
0 0 0
0 0 0
0 0 0
0 0 0
0 0 0
0 0 0
0 0 0
0 0 0
0 0 0
0 0 0
0 0 0
0 0 0
0 0 0
0 0 0
0 0 0
0 0 0
0 0 0
0 0 0
0 0 0
0 0 0
0 0 0
0 0 0
0 0 0
0 0 0
0 0 0
0 0 0
0 0 0
0 0 0
0 0 0
0 0 0
0 0 0
0 0 0
0 0 0
144 144 144
141 141 141
146 146 146
167 167 167
129 129 129
127 127 127
131 131 131
150 150 150
116 116 116
114 114 114
118 118 118
135 135 135
105 105 105
103 103 103
107 107 107
122 122 122
95 95 95
94 94 94
98 98 98
112 112 112
88 88 88
88 88 88
91 91 91
104 104 104
83 83 83
82 82 82
85 85 85
97 97 97
77 77 77
76 76 76
79 79 79
90 90 90
72 72 72
71 71 71
73 73 73
83 83 83
66 66 66
64 64 64
67 67 67
76 76 76
59 59 59
57 57 57
59 59 59
67 67 67
51 51 51
49 49 49
50 50 50
56 56 56
42 42 42
40 40 40
40 40 40
45 45 45
32 32 32
29 29 29
29 29 29
33 33 33
21 21 21
19 19 19
17 17 17
20 20 20
10 10 10
7 7 7
6 6 6
6 6 6
0 0 0
0 0 0
0 0 0
0 0 0
0 0 0
0 0 0
0 0 0
0 0 0
0 0 0
0 0 0
0 0 0
0 0 0
0 0 0
0 0 0
0 0 0
0 0 0
0 0 0
0 0 0
0 0 0
0 0 0
0 0 0
0 0 0
0 0 0
0 0 0
0 0 0
0 0 0
0 0 0
0 0 0
0 0 0
0 0 0
0 0 0
0 0 0
0 0 0
0 0 0
0 0 0
0 0 0
0 0 0
0 0 0
0 0 0
0 0 0
0 0 0
0 0 0
0 0 0
0 0 0
0 0 0
0 0 0
0 0 0
0 0 0
0 0 0
0 0 0
0 0 0
0 0 0
0 0 0
0 0 0
0 0 0
0 0 0
0 0 0
0 0 0
0 0 0
0 0 0
0 0 0
0 0 0
0 0 0
0 0 0
165 165 165
162 162 162
168 168 168
191 191 191
148 148 148
146 146 146
151 151 151
172 172 172
133 133 133
131 131 131
136 136 136
155 155 155
121 121 121
119 119 119
124 124 124
141 141 141
110 110 110
109 109 109
114 114 114
130 130 130
102 102 102
101 101 101
105 105 105
120 120 120
95 95 95
94 94 94
98 98 98
111 111 111
88 88 88
87 87 87
91 91 91
104 104 104
82 82 82
81 81 81
84 84 84
96 96 96
75 75 75
74 74 74
77 77 77
87 87 87
67 67 67
66 66 66
68 68 68
77 77 77
58 58 58
56 56 56
58 58 58
65 65 65
48 48 48
46 46 46
46 46 46
52 52 52
37 37 37
34 34 34
34 34 34
38 38 38
25 25 25
22 22 22
21 21 21
23 23 23
12 12 12
10 10 10
8 8 8
9 9 9
0 0 0
0 0 0
0 0 0
0 0 0
0 0 0
0 0 0
0 0 0
0 0 0
0 0 0
0 0 0
0 0 0
0 0 0
0 0 0
0 0 0
0 0 0
0 0 0
0 0 0
0 0 0
0 0 0
0 0 0
0 0 0
0 0 0
0 0 0
0 0 0
0 0 0
0 0 0
0 0 0
0 0 0
0 0 0
0 0 0
0 0 0
0 0 0
0 0 0
0 0 0
0 0 0
0 0 0
0 0 0
0 0 0
0 0 0
0 0 0
0 0 0
0 0 0
0 0 0
0 0 0
0 0 0
0 0 0
0 0 0
0 0 0
0 0 0
0 0 0
0 0 0
0 0 0
0 0 0
0 0 0
0 0 0
0 0 0
0 0 0
0 0 0
0 0 0
0 0 0
0 0 0
0 0 0
0 0 0
0 0 0
147 147 147
144 144 144
150 150 150
170 170 170
132 132 132
130 130 130
135 135 135
154 154 154
120 120 120
118 118 118
122 122 122
139 139 139
109 109 109
107 107 107
111 111 111
127 127 127
99 99 99
98 98 98
102 102 102
117 117 117
92 92 92
91 91 91
95 95 95
108 108 108
85 85 85
84 84 84
88 88 88
100 100 100
79 79 79
78 78 78
82 82 82
93 93 93
74 74 74
73 73 73
76 76 76
87 87 87
68 68 68
67 67 67
70 70 70
79 79 79
62 62 62
61 61 61
63 63 63
71 71 71
55 55 55
53 53 53
55 55 55
62 62 62
47 47 47
45 45 45
46 46 46
52 52 52
38 38 38
36 36 36
36 36 36
41 41 41
28 28 28
26 26 26
26 26 26
29 29 29
18 18 18
16 16 16
15 15 15
17 17 17
8 8 8
6 6 6
5 5 5
5 5 5
0 0 0
0 0 0
0 0 0
0 0 0
0 0 0
0 0 0
0 0 0
0 0 0
0 0 0
0 0 0
0 0 0
0 0 0
0 0 0
0 0 0
0 0 0
0 0 0
0 0 0
0 0 0
0 0 0
0 0 0
0 0 0
0 0 0
0 0 0
0 0 0
0 0 0
0 0 0
0 0 0
0 0 0
0 0 0
0 0 0
0 0 0
0 0 0
0 0 0
0 0 0
0 0 0
0 0 0
0 0 0
0 0 0
0 0 0
0 0 0
0 0 0
0 0 0
0 0 0
0 0 0
0 0 0
0 0 0
0 0 0
0 0 0
0 0 0
0 0 0
0 0 0
0 0 0
0 0 0
0 0 0
0 0 0
0 0 0
0 0 0
0 0 0
0 0 0
0 0 0
153 153 153
151 151 151
156 156 156
178 178 178
138 138 138
136 136 136
141 141 141
161 161 161
125 125 125
123 123 123
128 128 128
146 146 146
114 114 114
112 112 112
117 117 117
133 133 133
104 104 104
103 103 103
107 107 107
122 122 122
96 96 96
96 96 96
99 99 99
113 113 113
90 90 90
89 89 89
92 92 92
105 105 105
83 83 83
82 82 82
86 86 86
98 98 98
78 78 78
77 77 77
80 80 80
91 91 91
72 72 72
71 71 71
73 73 73
83 83 83
65 65 65
64 64 64
66 66 66
75 75 75
58 58 58
57 57 57
59 59 59
66 66 66
51 51 51
49 49 49
50 50 50
56 56 56
42 42 42
40 40 40
40 40 40
45 45 45
32 32 32
30 30 30
30 30 30
34 34 34
22 22 22
20 20 20
19 19 19
22 22 22
12 12 12
10 10 10
9 9 9
10 10 10
3 3 3
1 1 1
0 0 0
0 0 0
0 0 0
0 0 0
0 0 0
0 0 0
0 0 0
0 0 0
0 0 0
0 0 0
0 0 0
0 0 0
0 0 0
0 0 0
0 0 0
0 0 0
0 0 0
0 0 0
0 0 0
0 0 0
0 0 0
0 0 0
0 0 0
0 0 0
0 0 0
0 0 0
0 0 0
0 0 0
0 0 0
0 0 0
0 0 0
0 0 0
0 0 0
0 0 0
0 0 0
0 0 0
0 0 0
0 0 0
0 0 0
0 0 0
0 0 0
0 0 0
0 0 0
0 0 0
0 0 0
0 0 0
0 0 0
0 0 0
0 0 0
0 0 0
0 0 0
0 0 0
0 0 0
0 0 0
0 0 0
0 0 0
0 0 0
0 0 0
166 166 166
163 163 163
169 169 169
192 192 192
150 150 150
147 147 147
153 153 153
174 174 174
136 136 136
134 134 134
139 139 139
158 158 158
124 124 124
122 122 122
127 127 127
145 145 145
113 113 113
112 112 112
117 117 117
133 133 133
105 105 105
104 104 104
109 109 109
124 124 124
98 98 98
97 97 97
101 101 101
115 115 115
91 91 91
90 90 90
94 94 94
107 107 107
85 85 85
84 84 84
87 87 87
99 99 99
78 78 78
77 77 77
80 80 80
91 91 91
71 71 71
70 70 70
72 72 72
82 82 82
64 64 64
62 62 62
64 64 64
73 73 73
56 56 56
54 54 54
55 55 55
63 63 63
47 47 47
45 45 45
45 45 45
51 51 51
37 37 37
35 35 35
35 35 35
39 39 39
27 27 27
24 24 24
24 24 24
27 27 27
16 16 16
14 14 14
13 13 13
14 14 14
6 6 6
4 4 4
3 3 3
3 3 3
0 0 0
0 0 0
0 0 0
0 0 0
0 0 0
0 0 0
0 0 0
0 0 0
0 0 0
0 0 0
0 0 0
0 0 0
0 0 0
0 0 0
0 0 0
0 0 0
0 0 0
0 0 0
0 0 0
0 0 0
0 0 0
0 0 0
0 0 0
0 0 0
0 0 0
0 0 0
0 0 0
0 0 0
0 0 0
0 0 0
0 0 0
0 0 0
0 0 0
0 0 0
0 0 0
0 0 0
0 0 0
0 0 0
0 0 0
0 0 0
0 0 0
0 0 0
0 0 0
0 0 0
0 0 0
0 0 0
0 0 0
0 0 0
0 0 0
0 0 0
0 0 0
0 0 0
0 0 0
0 0 0
0 0 0
0 0 0
190 190 190
187 187 187
194 194 194
221 221 221
172 172 172
170 170 170
176 176 176
200 200 200
156 156 156
154 154 154
160 160 160
182 182 182
142 142 142
140 140 140
146 146 146
166 166 166
131 131 131
129 129 129
135 135 135
154 154 154
121 121 121
120 120 120
125 125 125
143 143 143
113 113 113
112 112 112
117 117 117
133 133 133
106 106 106
105 105 105
109 109 109
124 124 124
98 98 98
97 97 97
100 100 100
114 114 114
90 90 90
88 88 88
92 92 92
104 104 104
81 81 81
80 80 80
83 83 83
94 94 94
73 73 73
72 72 72
74 74 74
84 84 84
64 64 64
62 62 62
64 64 64
72 72 72
54 54 54
52 52 52
53 53 53
59 59 59
43 43 43
41 41 41
41 41 41
46 46 46
31 31 31
29 29 29
28 28 28
32 32 32
19 19 19
17 17 17
16 16 16
18 18 18
8 8 8
6 6 6
5 5 5
5 5 5
0 0 0
0 0 0
0 0 0
0 0 0
0 0 0
0 0 0
0 0 0
0 0 0
0 0 0
0 0 0
0 0 0
0 0 0
0 0 0
0 0 0
0 0 0
0 0 0
0 0 0
0 0 0
0 0 0
0 0 0
0 0 0
0 0 0
0 0 0
0 0 0
0 0 0
0 0 0
0 0 0
0 0 0
0 0 0
0 0 0
0 0 0
0 0 0
0 0 0
0 0 0
0 0 0
0 0 0
0 0 0
0 0 0
0 0 0
0 0 0
0 0 0
0 0 0
0 0 0
0 0 0
0 0 0
0 0 0
0 0 0
0 0 0
0 0 0
0 0 0
0 0 0
0 0 0
0 0 0
0 0 0
0 0 0
0 0 0
169 169 169
167 167 167
173 173 173
197 197 197
154 154 154
151 151 151
157 157 157
179 179 179
140 140 140
138 138 138
143 143 143
163 163 163
128 128 128
126 126 126
132 132 132
150 150 150
118 118 118
117 117 117
122 122 122
139 139 139
110 110 110
109 109 109
113 113 113
129 129 129
102 102 102
102 102 102
106 106 106
121 121 121
96 96 96
95 95 95
99 99 99
112 112 112
89 89 89
88 88 88
91 91 91
103 103 103
81 81 81
80 80 80
83 83 83
95 95 95
74 74 74
73 73 73
76 76 76
87 87 87
68 68 68
67 67 67
69 69 69
78 78 78
61 61 61
59 59 59
61 61 61
69 69 69
53 53 53
51 51 51
52 52 52
59 59 59
44 44 44
42 42 42
43 43 43
48 48 48
35 35 35
33 33 33
33 33 33
37 37 37
25 25 25
23 23 23
23 23 23
26 26 26
16 16 16
14 14 14
13 13 13
15 15 15
8 8 8
6 6 6
5 5 5
6 6 6
1 1 1
0 0 0
0 0 0
0 0 0
0 0 0
0 0 0
0 0 0
0 0 0
0 0 0
0 0 0
0 0 0
0 0 0
0 0 0
0 0 0
0 0 0
0 0 0
0 0 0
0 0 0
0 0 0
0 0 0
0 0 0
0 0 0
0 0 0
0 0 0
0 0 0
0 0 0
0 0 0
0 0 0
0 0 0
0 0 0
0 0 0
0 0 0
0 0 0
0 0 0
0 0 0
0 0 0
0 0 0
0 0 0
0 0 0
0 0 0
0 0 0
0 0 0
0 0 0
0 0 0
0 0 0
0 0 0
0 0 0
0 0 0
0 0 0
0 0 0
0 0 0
0 0 0
176 176 176
174 174 174
180 180 180
205 205 205
161 161 161
158 158 158
164 164 164
187 187 187
146 146 146
145 145 145
150 150 150
171 171 171
134 134 134
133 133 133
138 138 138
157 157 157
124 124 124
123 123 123
128 128 128
146 146 146
115 115 115
114 114 114
119 119 119
136 136 136
108 108 108
107 107 107
112 112 112
127 127 127
101 101 101
100 100 100
104 104 104
118 118 118
94 94 94
93 93 93
96 96 96
109 109 109
86 86 86
85 85 85
88 88 88
100 100 100
79 79 79
78 78 78
81 81 81
92 92 92
72 72 72
71 71 71
73 73 73
83 83 83
64 64 64
63 63 63
65 65 65
74 74 74
57 57 57
55 55 55
56 56 56
64 64 64
48 48 48
46 46 46
47 47 47
53 53 53
39 39 39
37 37 37
37 37 37
42 42 42
30 30 30
28 28 28
28 28 28
31 31 31
21 21 21
19 19 19
18 18 18
21 21 21
12 12 12
11 11 11
10 10 10
11 11 11
5 5 5
4 4 4
3 3 3
4 4 4
0 0 0
0 0 0
0 0 0
0 0 0
0 0 0
0 0 0
0 0 0
0 0 0
0 0 0
0 0 0
0 0 0
0 0 0
0 0 0
0 0 0
0 0 0
0 0 0
0 0 0
0 0 0
0 0 0
0 0 0
0 0 0
0 0 0
0 0 0
0 0 0
0 0 0
0 0 0
0 0 0
0 0 0
0 0 0
0 0 0
0 0 0
0 0 0
0 0 0
0 0 0
0 0 0
0 0 0
0 0 0
0 0 0
0 0 0
0 0 0
0 0 0
0 0 0
0 0 0
0 0 0
0 0 0
0 0 0
0 0 0
0 0 0
190 190 190
188 188 188
195 195 195
222 222 222
174 174 174
172 172 172
178 178 178
203 203 203
159 159 159
157 157 157
163 163 163
186 186 186
146 146 146
144 144 144
150 150 150
171 171 171
135 135 135
133 133 133
139 139 139
159 159 159
126 126 126
125 125 125
130 130 130
148 148 148
118 118 118
117 117 117
122 122 122
139 139 139
110 110 110
109 109 109
114 114 114
129 129 129
103 103 103
102 102 102
106 106 106
120 120 120
95 95 95
93 93 93
97 97 97
110 110 110
87 87 87
85 85 85
89 89 89
101 101 101
79 79 79
77 77 77
80 80 80
91 91 91
70 70 70
69 69 69
71 71 71
81 81 81
62 62 62
61 61 61
62 62 62
71 71 71
54 54 54
52 52 52
53 53 53
60 60 60
44 44 44
43 43 43
43 43 43
49 49 49
35 35 35
33 33 33
33 33 33
37 37 37
25 25 25
23 23 23
23 23 23
26 26 26
17 17 17
15 15 15
14 14 14
16 16 16
9 9 9
8 8 8
7 7 7
8 8 8
3 3 3
2 2 2
2 2 2
2 2 2
0 0 0
0 0 0
0 0 0
0 0 0
0 0 0
0 0 0
0 0 0
0 0 0
0 0 0
0 0 0
0 0 0
0 0 0
0 0 0
0 0 0
0 0 0
0 0 0
0 0 0
0 0 0
0 0 0
0 0 0
0 0 0
0 0 0
0 0 0
0 0 0
0 0 0
0 0 0
0 0 0
0 0 0
0 0 0
0 0 0
0 0 0
0 0 0
0 0 0
0 0 0
0 0 0
0 0 0
0 0 0
0 0 0
0 0 0
0 0 0
0 0 0
0 0 0
0 0 0
0 0 0
219 219 219
216 216 216
224 224 224
255 255 255
200 200 200
197 197 197
205 205 205
233 233 233
183 183 183
180 180 180
188 188 188
214 214 214
168 168 168
166 166 166
173 173 173
197 197 197
155 155 155
154 154 154
160 160 160
183 183 183
145 145 145
144 144 144
150 150 150
171 171 171
136 136 136
135 135 135
140 140 140
160 160 160
127 127 127
126 126 126
132 132 132
150 150 150
119 119 119
118 118 118
122 122 122
139 139 139
110 110 110
109 109 109
113 113 113
128 128 128
101 101 101
99 99 99
103 103 103
117 117 117
91 91 91
89 89 89
92 92 92
105 105 105
81 81 81
79 79 79
82 82 82
93 93 93
72 72 72
70 70 70
72 72 72
82 82 82
62 62 62
60 60 60
61 61 61
70 70 70
52 52 52
49 49 49
50 50 50
57 57 57
41 41 41
38 38 38
39 39 39
44 44 44
30 30 30
28 28 28
28 28 28
31 31 31
20 20 20
18 18 18
18 18 18
20 20 20
12 12 12
10 10 10
9 9 9
11 11 11
5 5 5
4 4 4
3 3 3
4 4 4
0 0 0
0 0 0
0 0 0
0 0 0
0 0 0
0 0 0
0 0 0
0 0 0
0 0 0
0 0 0
0 0 0
0 0 0
0 0 0
0 0 0
0 0 0
0 0 0
0 0 0
0 0 0
0 0 0
0 0 0
0 0 0
0 0 0
0 0 0
0 0 0
0 0 0
0 0 0
0 0 0
0 0 0
0 0 0
0 0 0
0 0 0
0 0 0
0 0 0
0 0 0
0 0 0
0 0 0
0 0 0
0 0 0
0 0 0
0 0 0
0 0 0
0 0 0
0 0 0
0 0 0
194 194 194
192 192 192
199 199 199
227 227 227
178 178 178
176 176 176
183 183 183
208 208 208
164 164 164
162 162 162
168 168 168
192 192 192
151 151 151
149 149 149
155 155 155
177 177 177
140 140 140
139 139 139
145 145 145
165 165 165
131 131 131
130 130 130
136 136 136
155 155 155
123 123 123
122 122 122
128 128 128
145 145 145
116 116 116
115 115 115
120 120 120
136 136 136
109 109 109
108 108 108
112 112 112
127 127 127
101 101 101
100 100 100
104 104 104
118 118 118
93 93 93
91 91 91
95 95 95
108 108 108
84 84 84
83 83 83
85 85 85
97 97 97
75 75 75
74 74 74
77 77 77
88 88 88
68 68 68
67 67 67
69 69 69
78 78 78
60 60 60
59 59 59
61 61 61
69 69 69
52 52 52
51 51 51
52 52 52
59 59 59
44 44 44
42 42 42
43 43 43
48 48 48
35 35 35
33 33 33
34 34 34
38 38 38
27 27 27
25 25 25
25 25 25
29 29 29
20 20 20
18 18 18
18 18 18
21 21 21
14 14 14
13 13 13
13 13 13
15 15 15
10 10 10
9 9 9
9 9 9
11 11 11
7 7 7
6 6 6
7 7 7
8 8 8
5 5 5
5 5 5
5 5 5
6 6 6
4 4 4
4 4 4
4 4 4
4 4 4
3 3 3
2 2 2
2 2 2
2 2 2
1 1 1
1 1 1
0 0 0
0 0 0
0 0 0
0 0 0
0 0 0
0 0 0
0 0 0
0 0 0
0 0 0
0 0 0
0 0 0
0 0 0
0 0 0
0 0 0
0 0 0
0 0 0
0 0 0
0 0 0
0 0 0
0 0 0
0 0 0
0 0 0
202 202 202
200 200 200
208 208 208
237 237 237
186 186 186
184 184 184
191 191 191
218 218 218
172 172 172
170 170 170
176 176 176
201 201 201
158 158 158
156 156 156
163 163 163
186 186 186
147 147 147
146 146 146
152 152 152
173 173 173
138 138 138
137 137 137
143 143 143
163 163 163
130 130 130
129 129 129
135 135 135
153 153 153
122 122 122
121 121 121
127 127 127
144 144 144
115 115 115
114 114 114
119 119 119
135 135 135
107 107 107
106 106 106
110 110 110
125 125 125
99 99 99
97 97 97
101 101 101
115 115 115
90 90 90
88 88 88
91 91 91
104 104 104
81 81 81
79 79 79
82 82 82
94 94 94
73 73 73
72 72 72
74 74 74
84 84 84
65 65 65
64 64 64
65 65 65
74 74 74
57 57 57
55 55 55
57 57 57
64 64 64
48 48 48
47 47 47
48 48 48
54 54 54
40 40 40
38 38 38
39 39 39
44 44 44
32 32 32
30 30 30
31 31 31
35 35 35
25 25 25
23 23 23
24 24 24
27 27 27
19 19 19
18 18 18
18 18 18
21 21 21
14 14 14
14 14 14
14 14 14
16 16 16
11 11 11
11 11 11
11 11 11
13 13 13
9 9 9
9 9 9
9 9 9
11 11 11
8 8 8
8 8 8
8 8 8
9 9 9
7 7 7
6 6 6
6 6 6
7 7 7
5 5 5
4 4 4
4 4 4
5 5 5
2 2 2
2 2 2
1 1 1
1 1 1
0 0 0
0 0 0
0 0 0
0 0 0
0 0 0
0 0 0
0 0 0
0 0 0
0 0 0
0 0 0
0 0 0
0 0 0
0 0 0
0 0 0
0 0 0
0 0 0
219 219 219
216 216 216
225 225 225
255 255 255
202 202 202
199 199 199
207 207 207
236 236 236
186 186 186
184 184 184
191 191 191
218 218 218
172 172 172
170 170 170
177 177 177
202 202 202
160 160 160
159 159 159
165 165 165
189 189 189
150 150 150
149 149 149
156 156 156
177 177 177
141 141 141
141 141 141
147 147 147
167 167 167
133 133 133
133 133 133
138 138 138
158 158 158
126 126 126
125 125 125
130 130 130
148 148 148
117 117 117
116 116 116
121 121 121
137 137 137
109 109 109
107 107 107
111 111 111
127 127 127
99 99 99
98 98 98
101 101 101
115 115 115
90 90 90
88 88 88
92 92 92
104 104 104
81 81 81
80 80 80
82 82 82
93 93 93
72 72 72
70 70 70
72 72 72
82 82 82
63 63 63
61 61 61
63 63 63
72 72 72
54 54 54
53 53 53
54 54 54
61 61 61
46 46 46
44 44 44
45 45 45
51 51 51
37 37 37
36 36 36
36 36 36
41 41 41
30 30 30
28 28 28
29 29 29
33 33 33
24 24 24
22 22 22
23 23 23
26 26 26
19 19 19
18 18 18
18 18 18
21 21 21
15 15 15
15 15 15
15 15 15
18 18 18
13 13 13
13 13 13
13 13 13
15 15 15
12 12 12
11 11 11
12 12 12
13 13 13
10 10 10
10 10 10
10 10 10
11 11 11
8 8 8
7 7 7
7 7 7
8 8 8
5 5 5
5 5 5
4 4 4
5 5 5
2 2 2
1 1 1
0 0 0
0 0 0
0 0 0
0 0 0
0 0 0
0 0 0
0 0 0
0 0 0
0 0 0
0 0 0
0 0 0
0 0 0
0 0 0
0 0 0
251 251 251
248 248 248
255 255 255
255 255 255
232 232 232
229 229 229
238 238 238
255 255 255
214 214 214
212 212 212
220 220 220
251 251 251
198 198 198
196 196 196
204 204 204
232 232 232
184 184 184
183 183 183
190 190 190
217 217 217
173 173 173
172 172 172
179 179 179
204 204 204
163 163 163
162 162 162
169 169 169
193 193 193
154 154 154
153 153 153
160 160 160
182 182 182
145 145 145
144 144 144
150 150 150
171 171 171
136 136 136
134 134 134
140 140 140
159 159 159
126 126 126
124 124 124
129 129 129
147 147 147
116 116 116
114 114 114
118 118 118
134 134 134
105 105 105
103 103 103
107 107 107
122 122 122
95 95 95
93 93 93
96 96 96
108 108 108
83 83 83
81 81 81
84 84 84
95 95 95
72 72 72
71 71 71
73 73 73
83 83 83
63 63 63
61 61 61
63 63 63
71 71 71
53 53 53
51 51 51
52 52 52
59 59 59
44 44 44
42 42 42
43 43 43
48 48 48
35 35 35
33 33 33
34 34 34
39 39 39
28 28 28
27 27 27
27 27 27
31 31 31
23 23 23
22 22 22
22 22 22
26 26 26
19 19 19
18 18 18
19 19 19
22 22 22
16 16 16
16 16 16
16 16 16
19 19 19
14 14 14
14 14 14
14 14 14
16 16 16
12 12 12
12 12 12
12 12 12
14 14 14
10 10 10
9 9 9
9 9 9
10 10 10
7 7 7
6 6 6
6 6 6
6 6 6
3 3 3
2 2 2
1 1 1
0 0 0
0 0 0
0 0 0
0 0 0
0 0 0
0 0 0
0 0 0
0 0 0
0 0 0
0 0 0
0 0 0
0 0 0
0 0 0
222 222 222
220 220 220
229 229 229
255 255 255
207 207 207
205 205 205
213 213 213
242 242 242
192 192 192
190 190 190
197 197 197
225 225 225
178 178 178
176 176 176
184 184 184
209 209 209
166 166 166
165 165 165
172 172 172
196 196 196
156 156 156
155 155 155
162 162 162
185 185 185
148 148 148
147 147 147
154 154 154
175 175 175
140 140 140
139 139 139
146 146 146
166 166 166
133 133 133
132 132 132
137 137 137
156 156 156
125 125 125
124 124 124
129 129 129
147 147 147
116 116 116
115 115 115
120 120 120
136 136 136
108 108 108
107 107 107
111 111 111
126 126 126
99 99 99
97 97 97
101 101 101
115 115 115
89 89 89
88 88 88
91 91 91
103 103 103
80 80 80
78 78 78
80 80 80
91 91 91
70 70 70
69 69 69
71 71 71
81 81 81
63 63 63
61 61 61
63 63 63
72 72 72
55 55 55
53 53 53
55 55 55
62 62 62
47 47 47
46 46 46
47 47 47
53 53 53
40 40 40
39 39 39
40 40 40
45 45 45
34 34 34
33 33 33
34 34 34
39 39 39
29 29 29
28 28 28
29 29 29
33 33 33
25 25 25
25 25 25
26 26 26
30 30 30
23 23 23
23 23 23
23 23 23
27 27 27
21 21 21
21 21 21
21 21 21
24 24 24
19 19 19
18 18 18
19 19 19
22 22 22
17 17 17
16 16 16
16 16 16
19 19 19
14 14 14
13 13 13
13 13 13
14 14 14
10 10 10
9 9 9
8 8 8
9 9 9
5 5 5
4 4 4
3 3 3
3 3 3
0 0 0
0 0 0
0 0 0
0 0 0
0 0 0
0 0 0
0 0 0
0 0 0
231 231 231
229 229 229
239 239 239
255 255 255
216 216 216
214 214 214
222 222 222
253 253 253
200 200 200
198 198 198
207 207 207
235 235 235
186 186 186
185 185 185
193 193 193
219 219 219
174 174 174
173 173 173
181 181 181
206 206 206
164 164 164
163 163 163
171 171 171
195 195 195
156 156 156
155 155 155
162 162 162
185 185 185
148 148 148
147 147 147
154 154 154
175 175 175
140 140 140
139 139 139
145 145 145
166 166 166
132 132 132
131 131 131
137 137 137
156 156 156
124 124 124
123 123 123
128 128 128
145 145 145
115 115 115
114 114 114
118 118 118
135 135 135
106 106 106
105 105 105
109 109 109
123 123 123
96 96 96
95 95 95
98 98 98
111 111 111
86 86 86
85 85 85
87 87 87
99 99 99
77 77 77
75 75 75
78 78 78
89 89 89
68 68 68
67 67 67
69 69 69
78 78 78
60 60 60
58 58 58
60 60 60
68 68 68
52 52 52
51 51 51
52 52 52
59 59 59
45 45 45
44 44 44
45 45 45
51 51 51
39 39 39
38 38 38
39 39 39
45 45 45
34 34 34
33 33 33
34 34 34
39 39 39
30 30 30
30 30 30
31 31 31
35 35 35
27 27 27
27 27 27
28 28 28
32 32 32
25 25 25
25 25 25
26 26 26
29 29 29
23 23 23
23 23 23
23 23 23
26 26 26
20 20 20
20 20 20
20 20 20
23 23 23
17 17 17
16 16 16
17 17 17
19 19 19
13 13 13
12 12 12
12 12 12
13 13 13
8 8 8
7 7 7
6 6 6
7 7 7
2 2 2
1 1 1
0 0 0
0 0 0
0 0 0
0 0 0
0 0 0
0 0 0
249 249 249
247 247 247
255 255 255
255 255 255
233 233 233
231 231 231
241 241 241
255 255 255
217 217 217
215 215 215
224 224 224
255 255 255
202 202 202
200 200 200
209 209 209
238 238 238
189 189 189
188 188 188
196 196 196
224 224 224
179 179 179
178 178 178
186 186 186
212 212 212
170 170 170
169 169 169
177 177 177
201 201 201
161 161 161
161 161 161
168 168 168
191 191 191
153 153 153
152 152 152
159 159 159
181 181 181
145 145 145
144 144 144
150 150 150
171 171 171
136 136 136
135 135 135
141 141 141
160 160 160
127 127 127
126 126 126
131 131 131
148 148 148
117 117 117
116 116 116
120 120 120
137 137 137
107 107 107
106 106 106
109 109 109
124 124 124
97 97 97
95 95 95
98 98 98
112 112 112
86 86 86
85 85 85
87 87 87
100 100 100
77 77 77
75 75 75
77 77 77
88 88 88
67 67 67
65 65 65
67 67 67
76 76 76
58 58 58
57 57 57
58 58 58
67 67 67
51 51 51
49 49 49
51 51 51
58 58 58
44 44 44
43 43 43
45 45 45
51 51 51
39 39 39
38 38 38
40 40 40
46 46 46
35 35 35
35 35 35
36 36 36
41 41 41
32 32 32
32 32 32
33 33 33
38 38 38
30 30 30
29 29 29
30 30 30
35 35 35
27 27 27
27 27 27
28 28 28
31 31 31
24 24 24
24 24 24
24 24 24
28 28 28
21 21 21
20 20 20
20 20 20
23 23 23
16 16 16
15 15 15
15 15 15
17 17 17
11 11 11
10 10 10
9 9 9
10 10 10
5 5 5
3 3 3
2 2 2
2 2 2
0 0 0
0 0 0
0 0 0
0 0 0
255 255 255
255 255 255
255 255 255
255 255 255
255 255 255
255 255 255
255 255 255
255 255 255
249 249 249
247 247 247
255 255 255
255 255 255
232 232 232
230 230 230
240 240 240
255 255 255
218 218 218
216 216 216
226 226 226
255 255 255
206 206 206
205 205 205
214 214 214
244 244 244
195 195 195
194 194 194
203 203 203
232 232 232
186 186 186
185 185 185
193 193 193
220 220 220
177 177 177
176 176 176
184 184 184
209 209 209
167 167 167
166 166 166
173 173 173
197 197 197
157 157 157
156 156 156
162 162 162
185 185 185
147 147 147
145 145 145
151 151 151
172 172 172
136 136 136
134 134 134
140 140 140
159 159 159
125 125 125
123 123 123
128 128 128
145 145 145
113 113 113
111 111 111
115 115 115
131 131 131
101 101 101
99 99 99
102 102 102
116 116 116
89 89 89
87 87 87
90 90 90
102 102 102
78 78 78
76 76 76
78 78 78
88 88 88
67 67 67
65 65 65
67 67 67
77 77 77
59 59 59
57 57 57
59 59 59
67 67 67
51 51 51
50 50 50
52 52 52
59 59 59
46 46 46
45 45 45
46 46 46
53 53 53
41 41 41
40 40 40
42 42 42
48 48 48
38 38 38
37 37 37
39 39 39
44 44 44
34 34 34
34 34 34
35 35 35
40 40 40
32 32 32
31 31 31
32 32 32
37 37 37
28 28 28
28 28 28
28 28 28
32 32 32
24 24 24
23 23 23
24 24 24
27 27 27
19 19 19
18 18 18
18 18 18
20 20 20
13 13 13
12 12 12
11 11 11
12 12 12
6 6 6
4 4 4
3 3 3
3 3 3
0 0 0
0 0 0
0 0 0
0 0 0
252 252 252
250 250 250
255 255 255
255 255 255
237 237 237
236 236 236
246 246 246
255 255 255
223 223 223
221 221 221
230 230 230
255 255 255
208 208 208
207 207 207
216 216 216
246 246 246
196 196 196
195 195 195
204 204 204
232 232 232
185 185 185
185 185 185
193 193 193
220 220 220
177 177 177
176 176 176
184 184 184
210 210 210
169 169 169
168 168 168
176 176 176
200 200 200
161 161 161
160 160 160
168 168 168
191 191 191
153 153 153
152 152 152
159 159 159
181 181 181
145 145 145
144 144 144
150 150 150
171 171 171
136 136 136
135 135 135
141 141 141
160 160 160
127 127 127
126 126 126
131 131 131
149 149 149
118 118 118
117 117 117
121 121 121
138 138 138
108 108 108
106 106 106
110 110 110
125 125 125
98 98 98
96 96 96
99 99 99
113 113 113
87 87 87
85 85 85
88 88 88
100 100 100
76 76 76
75 75 75
77 77 77
87 87 87
67 67 67
65 65 65
68 68 68
78 78 78
60 60 60
59 59 59
61 61 61
69 69 69
54 54 54
53 53 53
55 55 55
62 62 62
48 48 48
48 48 48
50 50 50
57 57 57
44 44 44
44 44 44
45 45 45
52 52 52
41 41 41
40 40 40
42 42 42
48 48 48
38 38 38
37 37 37
39 39 39
44 44 44
35 35 35
34 34 34
36 36 36
41 41 41
32 32 32
31 31 31
32 32 32
36 36 36
28 28 28
27 27 27
28 28 28
31 31 31
23 23 23
22 22 22
23 23 23
26 26 26
18 18 18
17 17 17
17 17 17
19 19 19
12 12 12
11 11 11
10 10 10
11 11 11
5 5 5
4 4 4
3 3 3
3 3 3
255 255 255
255 255 255
255 255 255
255 255 255
247 247 247
245 245 245
255 255 255
255 255 255
232 232 232
230 230 230
240 240 240
255 255 255
218 218 218
216 216 216
226 226 226
255 255 255
205 205 205
204 204 204
213 213 213
243 243 243
195 195 195
194 194 194
203 203 203
231 231 231
186 186 186
185 185 185
194 194 194
221 221 221
178 178 178
177 177 177
185 185 185
211 211 211
170 170 170
169 169 169
177 177 177
202 202 202
162 162 162
161 161 161
168 168 168
192 192 192
154 154 154
153 153 153
160 160 160
182 182 182
145 145 145
144 144 144
150 150 150
171 171 171
136 136 136
135 135 135
141 141 141
160 160 160
127 127 127
125 125 125
130 130 130
148 148 148
117 117 117
115 115 115
119 119 119
136 136 136
106 106 106
104 104 104
108 108 108
122 122 122
95 95 95
93 93 93
96 96 96
109 109 109
84 84 84
82 82 82
85 85 85
96 96 96
74 74 74
72 72 72
75 75 75
86 86 86
66 66 66
65 65 65
67 67 67
77 77 77
59 59 59
58 58 58
60 60 60
69 69 69
53 53 53
53 53 53
55 55 55
63 63 63
49 49 49
48 48 48
50 50 50
57 57 57
45 45 45
45 45 45
46 46 46
53 53 53
42 42 42
41 41 41
43 43 43
49 49 49
39 39 39
38 38 38
40 40 40
45 45 45
35 35 35
35 35 35
36 36 36
41 41 41
31 31 31
30 30 30
31 31 31
35 35 35
27 27 27
26 26 26
26 26 26
30 30 30
21 21 21
20 20 20
20 20 20
23 23 23
15 15 15
14 14 14
14 14 14
15 15 15
9 9 9
7 7 7
6 6 6
6 6 6
255 255 255
255 255 255
255 255 255
255 255 255
255 255 255
255 255 255
255 255 255
255 255 255
251 251 251
249 249 249
255 255 255
255 255 255
236 236 236
234 234 234
245 245 245
255 255 255
222 222 222
221 221 221
231 231 231
255 255 255
211 211 211
210 210 210
220 220 220
251 251 251
202 202 202
201 201 201
211 211 211
240 240 240
193 193 193
193 193 193
202 202 202
230 230 230
185 185 185
185 185 185
193 193 193
220 220 220
177 177 177
176 176 176
184 184 184
210 210 210
168 168 168
167 167 167
175 175 175
199 199 199
159 159 159
158 158 158
165 165 165
188 188 188
150 150 150
149 149 149
155 155 155
176 176 176
140 140 140
139 139 139
144 144 144
164 164 164
129 129 129
128 128 128
133 133 133
151 151 151
118 118 118
116 116 116
120 120 120
137 137 137
106 106 106
104 104 104
108 108 108
123 123 123
95 95 95
93 93 93
96 96 96
109 109 109
84 84 84
82 82 82
85 85 85
97 97 97
75 75 75
73 73 73
76 76 76
86 86 86
67 67 67
65 65 65
68 68 68
77 77 77
60 60 60
59 59 59
61 61 61
70 70 70
55 55 55
54 54 54
56 56 56
64 64 64
50 50 50
50 50 50
52 52 52
59 59 59
47 47 47
46 46 46
48 48 48
55 55 55
43 43 43
43 43 43
44 44 44
51 51 51
40 40 40
39 39 39
40 40 40
46 46 46
35 35 35
34 34 34
35 35 35
40 40 40
30 30 30
29 29 29
30 30 30
34 34 34
25 25 25
24 24 24
24 24 24
27 27 27
19 19 19
17 17 17
17 17 17
19 19 19
12 12 12
10 10 10
9 9 9
10 10 10
255 255 255
255 255 255
255 255 255
255 255 255
255 255 255
255 255 255
255 255 255
255 255 255
255 255 255
255 255 255
255 255 255
255 255 255
255 255 255
255 255 255
255 255 255
255 255 255
255 255 255
254 254 254
255 255 255
255 255 255
243 243 243
242 242 242
253 253 253
255 255 255
232 232 232
231 231 231
242 242 242
255 255 255
222 222 222
222 222 222
232 232 232
255 255 255
213 213 213
213 213 213
222 222 222
253 253 253
204 204 204
203 203 203
212 212 212
241 241 241
194 194 194
193 193 193
202 202 202
229 229 229
184 184 184
183 183 183
191 191 191
217 217 217
173 173 173
172 172 172
179 179 179
203 203 203
162 162 162
160 160 160
167 167 167
189 189 189
150 150 150
148 148 148
154 154 154
175 175 175
137 137 137
135 135 135
140 140 140
159 159 159
124 124 124
122 122 122
126 126 126
143 143 143
111 111 111
109 109 109
113 113 113
128 128 128
99 99 99
97 97 97
100 100 100
114 114 114
87 87 87
86 86 86
89 89 89
101 101 101
78 78 78
76 76 76
79 79 79
90 90 90
69 69 69
68 68 68
71 71 71
81 81 81
63 63 63
62 62 62
65 65 65
74 74 74
58 58 58
57 57 57
60 60 60
68 68 68
54 54 54
53 53 53
56 56 56
63 63 63
50 50 50
49 49 49
51 51 51
58 58 58
46 46 46
45 45 45
46 46 46
53 53 53
41 41 41
40 40 40
41 41 41
46 46 46
35 35 35
34 34 34
35 35 35
39 39 39
29 29 29
27 27 27
27 27 27
31 31 31
22 22 22
20 20 20
20 20 20
22 22 22
14 14 14
12 12 12
11 11 11
12 12 12
255 255 255
255 255 255
255 255 255
255 255 255
255 255 255
255 255 255
255 255 255
255 255 255
254 254 254
253 253 253
255 255 255
255 255 255
241 241 241
239 239 239
250 250 250
255 255 255
228 228 228
228 228 228
238 238 238
255 255 255
218 218 218
217 217 217
227 227 227
255 255 255
209 209 209
209 209 209
218 218 218
249 249 249
201 201 201
201 201 201
210 210 210
239 239 239
193 193 193
193 193 193
202 202 202
230 230 230
186 186 186
185 185 185
194 194 194
220 220 220
178 178 178
177 177 177
185 185 185
211 211 211
169 169 169
169 169 169
176 176 176
200 200 200
161 161 161
160 160 160
167 167 167
190 190 190
151 151 151
150 150 150
157 157 157
178 178 178
142 142 142
140 140 140
146 146 146
166 166 166
131 131 131
129 129 129
134 134 134
152 152 152
120 120 120
118 118 118
122 122 122
139 139 139
108 108 108
106 106 106
110 110 110
125 125 125
97 97 97
95 95 95
98 98 98
112 112 112
86 86 86
84 84 84
87 87 87
100 100 100
77 77 77
75 75 75
78 78 78
89 89 89
69 69 69
68 68 68
71 71 71
81 81 81
63 63 63
62 62 62
64 64 64
74 74 74
58 58 58
57 57 57
60 60 60
68 68 68
54 54 54
53 53 53
56 56 56
63 63 63
50 50 50
49 49 49
51 51 51
58 58 58
46 46 46
45 45 45
47 47 47
53 53 53
41 41 41
40 40 40
42 42 42
47 47 47
36 36 36
35 35 35
36 36 36
41 41 41
31 31 31
29 29 29
30 30 30
34 34 34
25 25 25
23 23 23
24 24 24
27 27 27
18 18 18
17 17 17
17 17 17
19 19 19
255 255 255
255 255 255
255 255 255
255 255 255
255 255 255
255 255 255
255 255 255
255 255 255
255 255 255
255 255 255
255 255 255
255 255 255
250 250 250
249 249 249
255 255 255
255 255 255
238 238 238
237 237 237
248 248 248
255 255 255
227 227 227
227 227 227
238 238 238
255 255 255
218 218 218
218 218 218
229 229 229
255 255 255
211 211 211
210 210 210
220 220 220
251 251 251
203 203 203
203 203 203
212 212 212
242 242 242
195 195 195
195 195 195
204 204 204
232 232 232
187 187 187
187 187 187
195 195 195
222 222 222
179 179 179
178 178 178
186 186 186
212 212 212
170 170 170
169 169 169
177 177 177
201 201 201
161 161 161
160 160 160
167 167 167
190 190 190
151 151 151
150 150 150
156 156 156
177 177 177
140 140 140
139 139 139
144 144 144
164 164 164
129 129 129
127 127 127
132 132 132
150 150 150
117 117 117
115 115 115
119 119 119
136 136 136
105 105 105
103 103 103
107 107 107
122 122 122
94 94 94
93 93 93
96 96 96
109 109 109
84 84 84
83 83 83
86 86 86
98 98 98
76 76 76
75 75 75
78 78 78
89 89 89
69 69 69
68 68 68
71 71 71
81 81 81
64 64 64
63 63 63
66 66 66
75 75 75
59 59 59
59 59 59
61 61 61
69 69 69
55 55 55
54 54 54
56 56 56
64 64 64
50 50 50
49 49 49
51 51 51
58 58 58
45 45 45
44 44 44
45 45 45
51 51 51
39 39 39
38 38 38
39 39 39
45 45 45
34 34 34
32 32 32
33 33 33
38 38 38
28 28 28
26 26 26
27 27 27
30 30 30
21 21 21
20 20 20
20 20 20
22 22 22
255 255 255
255 255 255
255 255 255
255 255 255
255 255 255
255 255 255
255 255 255
255 255 255
255 255 255
255 255 255
255 255 255
255 255 255
255 255 255
255 255 255
255 255 255
255 255 255
255 255 255
255 255 255
255 255 255
255 255 255
246 246 246
245 245 245
255 255 255
255 255 255
237 237 237
236 236 236
248 248 248
255 255 255
228 228 228
228 228 228
239 239 239
255 255 255
220 220 220
220 220 220
231 231 231
255 255 255
212 212 212
212 212 212
222 222 222
253 253 253
204 204 204
203 203 203
213 213 213
242 242 242
195 195 195
195 195 195
204 204 204
232 232 232
186 186 186
185 185 185
194 194 194
220 220 220
177 177 177
176 176 176
183 183 183
208 208 208
166 166 166
165 165 165
172 172 172
195 195 195
155 155 155
153 153 153
159 159 159
181 181 181
143 143 143
141 141 141
146 146 146
166 166 166
130 130 130
128 128 128
133 133 133
151 151 151
118 118 118
116 116 116
120 120 120
136 136 136
106 106 106
104 104 104
108 108 108
123 123 123
95 95 95
94 94 94
97 97 97
111 111 111
86 86 86
85 85 85
88 88 88
100 100 100
79 79 79
78 78 78
81 81 81
92 92 92
72 72 72
71 71 71
74 74 74
85 85 85
67 67 67
66 66 66
69 69 69
78 78 78
61 61 61
61 61 61
63 63 63
72 72 72
56 56 56
55 55 55
57 57 57
64 64 64
50 50 50
49 49 49
50 50 50
57 57 57
43 43 43
42 42 42
43 43 43
49 49 49
37 37 37
36 36 36
37 37 37
42 42 42
31 31 31
30 30 30
30 30 30
34 34 34
25 25 25
23 23 23
23 23 23
26 26 26
255 255 255
255 255 255
255 255 255
255 255 255
255 255 255
255 255 255
255 255 255
255 255 255
255 255 255
255 255 255
255 255 255
255 255 255
255 255 255
255 255 255
255 255 255
255 255 255
255 255 255
255 255 255
255 255 255
255 255 255
255 255 255
255 255 255
255 255 255
255 255 255
255 255 255
255 255 255
255 255 255
255 255 255
255 255 255
255 255 255
255 255 255
255 255 255
253 253 253
253 253 253
255 255 255
255 255 255
244 244 244
243 243 243
255 255 255
255 255 255
234 234 234
234 234 234
245 245 245
255 255 255
224 224 224
224 224 224
234 234 234
255 255 255
214 214 214
213 213 213
223 223 223
254 254 254
203 203 203
202 202 202
211 211 211
240 240 240
192 192 192
190 190 190
198 198 198
225 225 225
179 179 179
177 177 177
184 184 184
209 209 209
165 165 165
163 163 163
169 169 169
192 192 192
151 151 151
148 148 148
154 154 154
175 175 175
136 136 136
134 134 134
139 139 139
158 158 158
123 123 123
121 121 121
126 126 126
143 143 143
111 111 111
109 109 109
114 114 114
129 129 129
101 101 101
99 99 99
103 103 103
118 118 118
92 92 92
91 91 91
95 95 95
108 108 108
85 85 85
84 84 84
87 87 87
100 100 100
78 78 78
77 77 77
80 80 80
92 92 92
72 72 72
71 71 71
73 73 73
83 83 83
65 65 65
64 64 64
66 66 66
75 75 75
58 58 58
56 56 56
58 58 58
66 66 66
50 50 50
49 49 49
50 50 50
57 57 57
43 43 43
41 41 41
42 42 42
48 48 48
36 36 36
34 34 34
35 35 35
40 40 40
29 29 29
27 27 27
27 27 27
30 30 30
255 255 255
255 255 255
255 255 255
255 255 255
255 255 255
255 255 255
255 255 255
255 255 255
255 255 255
255 255 255
255 255 255
255 255 255
255 255 255
255 255 255
255 255 255
255 255 255
255 255 255
255 255 255
255 255 255
255 255 255
250 250 250
250 250 250
255 255 255
255 255 255
242 242 242
242 242 242
254 254 254
255 255 255
234 234 234
234 234 234
246 246 246
255 255 255
227 227 227
227 227 227
238 238 238
255 255 255
220 220 220
220 220 220
230 230 230
255 255 255
212 212 212
212 212 212
222 222 222
253 253 253
204 204 204
204 204 204
213 213 213
243 243 243
196 196 196
195 195 195
204 204 204
233 233 233
187 187 187
186 186 186
195 195 195
222 222 222
178 178 178
177 177 177
184 184 184
209 209 209
167 167 167
166 166 166
173 173 173
196 196 196
156 156 156
154 154 154
160 160 160
182 182 182
143 143 143
141 141 141
147 147 147
167 167 167
131 131 131
129 129 129
134 134 134
152 152 152
119 119 119
117 117 117
122 122 122
138 138 138
108 108 108
106 106 106
110 110 110
126 126 126
98 98 98
97 97 97
101 101 101
115 115 115
90 90 90
89 89 89
93 93 93
106 106 106
83 83 83
82 82 82
85 85 85
97 97 97
76 76 76
75 75 75
78 78 78
89 89 89
70 70 70
69 69 69
71 71 71
81 81 81
63 63 63
62 62 62
64 64 64
73 73 73
56 56 56
55 55 55
56 56 56
64 64 64
49 49 49
47 47 47
49 49 49
55 55 55
42 42 42
41 41 41
42 42 42
48 48 48
36 36 36
35 35 35
36 36 36
41 41 41
30 30 30
29 29 29
29 29 29
33 33 33
255 255 255
255 255 255
255 255 255
255 255 255
255 255 255
255 255 255
255 255 255
255 255 255
255 255 255
255 255 255
255 255 255
255 255 255
255 255 255
255 255 255
255 255 255
255 255 255
255 255 255
255 255 255
255 255 255
255 255 255
255 255 255
255 255 255
255 255 255
255 255 255
251 251 251
251 251 251
255 255 255
255 255 255
244 244 244
244 244 244
255 255 255
255 255 255
237 237 237
237 237 237
248 248 248
255 255 255
229 229 229
229 229 229
241 241 241
255 255 255
222 222 222
222 222 222
233 233 233
255 255 255
214 214 214
214 214 214
224 224 224
255 255 255
206 206 206
206 206 206
215 215 215
245 245 245
197 197 197
197 197 197
206 206 206
234 234 234
188 188 188
187 187 187
195 195 195
222 222 222
177 177 177
176 176 176
183 183 183
208 208 208
166 166 166
164 164 164
171 171 171
194 194 194
153 153 153
151 151 151
157 157 157
179 179 179
141 141 141
139 139 139
144 144 144
164 164 164
128 128 128
126 126 126
131 131 131
149 149 149
117 117 117
115 115 115
120 120 120
136 136 136
107 107 107
105 105 105
109 109 109
125 125 125
98 98 98
97 97 97
101 101 101
115 115 115
90 90 90
89 89 89
93 93 93
106 106 106
83 83 83
82 82 82
85 85 85
97 97 97
76 76 76
75 75 75
78 78 78
88 88 88
69 69 69
67 67 67
70 70 70
79 79 79
61 61 61
60 60 60
61 61 61
70 70 70
53 53 53
52 52 52
53 53 53
61 61 61
46 46 46
45 45 45
46 46 46
52 52 52
39 39 39
38 38 38
39 39 39
44 44 44
33 33 33
32 32 32
33 33 33
37 37 37
255 255 255
255 255 255
255 255 255
255 255 255
255 255 255
255 255 255
255 255 255
255 255 255
255 255 255
255 255 255
255 255 255
255 255 255
255 255 255
255 255 255
255 255 255
255 255 255
255 255 255
255 255 255
255 255 255
255 255 255
255 255 255
255 255 255
255 255 255
255 255 255
255 255 255
255 255 255
255 255 255
255 255 255
255 255 255
255 255 255
255 255 255
255 255 255
255 255 255
255 255 255
255 255 255
255 255 255
248 248 248
248 248 248
255 255 255
255 255 255
240 240 240
240 240 240
252 252 252
255 255 255
232 232 232
232 232 232
243 243 243
255 255 255
224 224 224
223 223 223
234 234 234
255 255 255
215 215 215
214 214 214
224 224 224
254 254 254
205 205 205
204 204 204
213 213 213
242 242 242
194 194 194
192 192 192
201 201 201
228 228 228
182 182 182
180 180 180
187 187 187
213 213 213
168 168 168
166 166 166
173 173 173
197 197 197
155 155 155
153 153 153
159 159 159
181 181 181
142 142 142
140 140 140
145 145 145
165 165 165
129 129 129
128 128 128
133 133 133
151 151 151
118 118 118
117 117 117
122 122 122
138 138 138
109 109 109
108 108 108
112 112 112
128 128 128
101 101 101
99 99 99
103 103 103
118 118 118
93 93 93
92 92 92
95 95 95
108 108 108
85 85 85
84 84 84
87 87 87
99 99 99
77 77 77
75 75 75
78 78 78
89 89 89
68 68 68
67 67 67
69 69 69
78 78 78
60 60 60
58 58 58
60 60 60
68 68 68
52 52 52
50 50 50
51 51 51
59 59 59
44 44 44
42 42 42
43 43 43
49 49 49
37 37 37
35 35 35
36 36 36
41 41 41
255 255 255
255 255 255
255 255 255
255 255 255
255 255 255
255 255 255
255 255 255
255 255 255
255 255 255
255 255 255
255 255 255
255 255 255
255 255 255
255 255 255
255 255 255
255 255 255
255 255 255
255 255 255
255 255 255
255 255 255
255 255 255
255 255 255
255 255 255
255 255 255
255 255 255
255 255 255
255 255 255
255 255 255
255 255 255
255 255 255
255 255 255
255 255 255
255 255 255
255 255 255
255 255 255
255 255 255
255 255 255
255 255 255
255 255 255
255 255 255
255 255 255
255 255 255
255 255 255
255 255 255
255 255 255
255 255 255
255 255 255
255 255 255
255 255 255
255 255 255
255 255 255
255 255 255
246 246 246
245 245 245
255 255 255
255 255 255
235 235 235
234 234 234
244 244 244
255 255 255
222 222 222
221 221 221
230 230 230
255 255 255
208 208 208
207 207 207
215 215 215
244 244 244
194 194 194
191 191 191
199 199 199
226 226 226
178 178 178
176 176 176
183 183 183
208 208 208
163 163 163
161 161 161
167 167 167
190 190 190
149 149 149
147 147 147
153 153 153
174 174 174
137 137 137
135 135 135
140 140 140
160 160 160
126 126 126
124 124 124
130 130 130
148 148 148
116 116 116
115 115 115
120 120 120
136 136 136
108 108 108
106 106 106
111 111 111
126 126 126
99 99 99
97 97 97
101 101 101
115 115 115
90 90 90
88 88 88
91 91 91
103 103 103
80 80 80
78 78 78
81 81 81
92 92 92
70 70 70
68 68 68
70 70 70
80 80 80
60 60 60
59 59 59
60 60 60
68 68 68
51 51 51
49 49 49
50 50 50
57 57 57
42 42 42
41 41 41
42 42 42
48 48 48
255 255 255
255 255 255
255 255 255
255 255 255
255 255 255
255 255 255
255 255 255
255 255 255
255 255 255
255 255 255
255 255 255
255 255 255
255 255 255
255 255 255
255 255 255
255 255 255
255 255 255
255 255 255
255 255 255
255 255 255
255 255 255
255 255 255
255 255 255
255 255 255
255 255 255
255 255 255
255 255 255
255 255 255
255 255 255
255 255 255
255 255 255
255 255 255
255 255 255
255 255 255
255 255 255
255 255 255
252 252 252
252 252 252
255 255 255
255 255 255
245 245 245
245 245 245
255 255 255
255 255 255
238 238 238
238 238 238
250 250 250
255 255 255
230 230 230
230 230 230
241 241 241
255 255 255
222 222 222
222 222 222
232 232 232
255 255 255
213 213 213
213 213 213
222 222 222
253 253 253
203 203 203
202 202 202
211 211 211
240 240 240
192 192 192
191 191 191
199 199 199
226 226 226
180 180 180
178 178 178
185 185 185
211 211 211
167 167 167
165 165 165
171 171 171
195 195 195
154 154 154
152 152 152
158 158 158
180 180 180
141 141 141
140 140 140
145 145 145
165 165 165
130 130 130
128 128 128
134 134 134
152 152 152
120 120 120
119 119 119
124 124 124
141 141 141
111 111 111
110 110 110
115 115 115
130 130 130
103 103 103
102 102 102
106 106 106
120 120 120
95 95 95
93 93 93
97 97 97
110 110 110
86 86 86
84 84 84
87 87 87
99 99 99
77 77 77
75 75 75
78 78 78
88 88 88
68 68 68
66 66 66
68 68 68
77 77 77
58 58 58
57 57 57
58 58 58
66 66 66
50 50 50
48 48 48
49 49 49
56 56 56
41 41 41
40 40 40
41 41 41
47 47 47
255 255 255
255 255 255
255 255 255
255 255 255
255 255 255
255 255 255
255 255 255
255 255 255
255 255 255
255 255 255
255 255 255
255 255 255
255 255 255
255 255 255
255 255 255
255 255 255
255 255 255
255 255 255
255 255 255
255 255 255
255 255 255
255 255 255
255 255 255
255 255 255
255 255 255
255 255 255
255 255 255
255 255 255
255 255 255
255 255 255
255 255 255
255 255 255
255 255 255
255 255 255
255 255 255
255 255 255
255 255 255
255 255 255
255 255 255
255 255 255
254 254 254
255 255 255
255 255 255
255 255 255
247 247 247
247 247 247
255 255 255
255 255 255
240 240 240
240 240 240
251 251 251
255 255 255
232 232 232
232 232 232
243 243 243
255 255 255
223 223 223
222 222 222
233 233 233
255 255 255
213 213 213
212 212 212
222 222 222
252 252 252
202 202 202
201 201 201
209 209 209
238 238 238
190 190 190
188 188 188
196 196 196
223 223 223
176 176 176
175 175 175
182 182 182
207 207 207
163 163 163
161 161 161
168 168 168
191 191 191
150 150 150
149 149 149
155 155 155
176 176 176
139 139 139
137 137 137
143 143 143
163 163 163
128 128 128
127 127 127
132 132 132
151 151 151
119 119 119
118 118 118
123 123 123
140 140 140
110 110 110
109 109 109
114 114 114
129 129 129
102 102 102
100 100 100
104 104 104
118 118 118
93 93 93
91 91 91
94 94 94
107 107 107
83 83 83
81 81 81
84 84 84
95 95 95
73 73 73
71 71 71
74 74 74
84 84 84
63 63 63
62 62 62
63 63 63
72 72 72
54 54 54
52 52 52
54 54 54
61 61 61
45 45 45
44 44 44
45 45 45
52 52 52
255 255 255
255 255 255
255 255 255
255 255 255
255 255 255
255 255 255
255 255 255
255 255 255
255 255 255
255 255 255
255 255 255
255 255 255
255 255 255
255 255 255
255 255 255
255 255 255
255 255 255
255 255 255
255 255 255
255 255 255
255 255 255
255 255 255
255 255 255
255 255 255
255 255 255
255 255 255
255 255 255
255 255 255
255 255 255
255 255 255
255 255 255
255 255 255
255 255 255
255 255 255
255 255 255
255 255 255
255 255 255
255 255 255
255 255 255
255 255 255
255 255 255
255 255 255
255 255 255
255 255 255
255 255 255
255 255 255
255 255 255
255 255 255
255 255 255
255 255 255
255 255 255
255 255 255
250 250 250
250 250 250
255 255 255
255 255 255
241 241 241
240 240 240
252 252 252
255 255 255
231 231 231
230 230 230
240 240 240
255 255 255
219 219 219
218 218 218
227 227 227
255 255 255
206 206 206
205 205 205
213 213 213
242 242 242
192 192 192
190 190 190
198 198 198
225 225 225
178 178 178
176 176 176
183 183 183
209 209 209
165 165 165
163 163 163
169 169 169
193 193 193
152 152 152
151 151 151
157 157 157
179 179 179
141 141 141
140 140 140
146 146 146
166 166 166
131 131 131
130 130 130
135 135 135
154 154 154
122 122 122
120 120 120
125 125 125
142 142 142
112 112 112
111 111 111
115 115 115
131 131 131
102 102 102
101 101 101
104 104 104
118 118 118
92 92 92
90 90 90
93 93 93
106 106 106
81 81 81
80 80 80
82 82 82
93 93 93
71 71 71
69 69 69
71 71 71
80 80 80
61 61 61
59 59 59
60 60 60
69 69 69
51 51 51
50 50 50
51 51 51
58 58 58
255 255 255
255 255 255
255 255 255
255 255 255
255 255 255
255 255 255
255 255 255
255 255 255
255 255 255
255 255 255
255 255 255
255 255 255
255 255 255
255 255 255
255 255 255
255 255 255
255 255 255
255 255 255
255 255 255
255 255 255
255 255 255
255 255 255
255 255 255
255 255 255
255 255 255
255 255 255
255 255 255
255 255 255
255 255 255
255 255 255
255 255 255
255 255 255
255 255 255
255 255 255
255 255 255
255 255 255
255 255 255
255 255 255
255 255 255
255 255 255
255 255 255
255 255 255
255 255 255
255 255 255
255 255 255
255 255 255
255 255 255
255 255 255
255 255 255
255 255 255
255 255 255
255 255 255
255 255 255
255 255 255
255 255 255
255 255 255
255 255 255
255 255 255
255 255 255
255 255 255
255 255 255
255 255 255
255 255 255
255 255 255
251 251 251
249 249 249
255 255 255
255 255 255
236 236 236
234 234 234
244 244 244
255 255 255
220 220 220
218 218 218
227 227 227
255 255 255
204 204 204
202 202 202
210 210 210
239 239 239
189 189 189
187 187 187
195 195 195
221 221 221
175 175 175
173 173 173
180 180 180
205 205 205
162 162 162
161 161 161
167 167 167
191 191 191
151 151 151
149 149 149
156 156 156
177 177 177
140 140 140
139 139 139
144 144 144
164 164 164
129 129 129
128 128 128
133 133 133
151 151 151
118 118 118
116 116 116
120 120 120
137 137 137
106 106 106
104 104 104
108 108 108
122 122 122
94 94 94
92 92 92
95 95 95
108 108 108
82 82 82
80 80 80
83 83 83
94 94 94
71 71 71
69 69 69
71 71 71
80 80 80
60 60 60
58 58 58
60 60 60
68 68 68
255 255 255
255 255 255
255 255 255
255 255 255
255 255 255
255 255 255
255 255 255
255 255 255
255 255 255
255 255 255
255 255 255
255 255 255
255 255 255
255 255 255
255 255 255
255 255 255
255 255 255
255 255 255
255 255 255
255 255 255
255 255 255
255 255 255
255 255 255
255 255 255
255 255 255
255 255 255
255 255 255
255 255 255
255 255 255
255 255 255
255 255 255
255 255 255
255 255 255
255 255 255
255 255 255
255 255 255
255 255 255
255 255 255
255 255 255
255 255 255
255 255 255
255 255 255
255 255 255
255 255 255
255 255 255
255 255 255
255 255 255
255 255 255
255 255 255
255 255 255
255 255 255
255 255 255
253 253 253
253 253 253
255 255 255
255 255 255
245 245 245
245 245 245
255 255 255
255 255 255
236 236 236
235 235 235
246 246 246
255 255 255
226 226 226
225 225 225
235 235 235
255 255 255
214 214 214
212 212 212
222 222 222
252 252 252
201 201 201
199 199 199
208 208 208
236 236 236
187 187 187
186 186 186
193 193 193
220 220 220
174 174 174
172 172 172
180 180 180
204 204 204
162 162 162
160 160 160
167 167 167
190 190 190
151 151 151
149 149 149
156 156 156
177 177 177
140 140 140
139 139 139
145 145 145
165 165 165
131 131 131
129 129 129
135 135 135
153 153 153
121 121 121
120 120 120
124 124 124
141 141 141
111 111 111
110 110 110
114 114 114
129 129 129
101 101 101
99 99 99
102 102 102
116 116 116
90 90 90
88 88 88
91 91 91
103 103 103
79 79 79
77 77 77
79 79 79
90 90 90
68 68 68
66 66 66
68 68 68
78 78 78
58 58 58
57 57 57
58 58 58
66 66 66
255 255 255
255 255 255
255 255 255
255 255 255
255 255 255
255 255 255
255 255 255
255 255 255
255 255 255
255 255 255
255 255 255
255 255 255
255 255 255
255 255 255
255 255 255
255 255 255
255 255 255
255 255 255
255 255 255
255 255 255
255 255 255
255 255 255
255 255 255
255 255 255
255 255 255
255 255 255
255 255 255
255 255 255
255 255 255
255 255 255
255 255 255
255 255 255
255 255 255
255 255 255
255 255 255
255 255 255
255 255 255
255 255 255
255 255 255
255 255 255
255 255 255
255 255 255
255 255 255
255 255 255
255 255 255
255 255 255
255 255 255
255 255 255
255 255 255
255 255 255
255 255 255
255 255 255
255 255 255
255 255 255
255 255 255
255 255 255
253 253 253
253 253 253
255 255 255
255 255 255
245 245 245
244 244 244
255 255 255
255 255 255
235 235 235
234 234 234
244 244 244
255 255 255
223 223 223
222 222 222
231 231 231
255 255 255
210 210 210
208 208 208
217 217 217
247 247 247
197 197 197
195 195 195
203 203 203
231 231 231
183 183 183
181 181 181
189 189 189
215 215 215
170 170 170
169 169 169
176 176 176
200 200 200
159 159 159
158 158 158
164 164 164
187 187 187
149 149 149
147 147 147
153 153 153
175 175 175
139 139 139
137 137 137
143 143 143
162 162 162
129 129 129
127 127 127
132 132 132
150 150 150
118 118 118
117 117 117
121 121 121
137 137 137
107 107 107
106 106 106
109 109 109
124 124 124
96 96 96
94 94 94
97 97 97
110 110 110
85 85 85
83 83 83
85 85 85
97 97 97
74 74 74
72 72 72
74 74 74
84 84 84
64 64 64
62 62 62
63 63 63
72 72 72
255 255 255
255 255 255
255 255 255
255 255 255
255 255 255
255 255 255
255 255 255
255 255 255
255 255 255
255 255 255
255 255 255
255 255 255
255 255 255
255 255 255
255 255 255
255 255 255
255 255 255
255 255 255
255 255 255
255 255 255
255 255 255
255 255 255
255 255 255
255 255 255
255 255 255
255 255 255
255 255 255
255 255 255
255 255 255
255 255 255
255 255 255
255 255 255
255 255 255
255 255 255
255 255 255
255 255 255
255 255 255
255 255 255
255 255 255
255 255 255
255 255 255
255 255 255
255 255 255
255 255 255
255 255 255
255 255 255
255 255 255
255 255 255
255 255 255
255 255 255
255 255 255
255 255 255
255 255 255
255 255 255
255 255 255
255 255 255
255 255 255
255 255 255
255 255 255
255 255 255
255 255 255
255 255 255
255 255 255
255 255 255
253 253 253
252 252 252
255 255 255
255 255 255
240 240 240
239 239 239
250 250 250
255 255 255
227 227 227
225 225 225
235 235 235
255 255 255
213 213 213
211 211 211
220 220 220
250 250 250
199 199 199
197 197 197
205 205 205
233 233 233
185 185 185
183 183 183
191 191 191
218 218 218
173 173 173
171 171 171
179 179 179
204 204 204
162 162 162
160 160 160
167 167 167
190 190 190
151 151 151
150 150 150
156 156 156
177 177 177
140 140 140
139 139 139
145 145 145
164 164 164
129 129 129
128 128 128
133 133 133
151 151 151
118 118 118
116 116 116
120 120 120
136 136 136
106 106 106
104 104 104
107 107 107
122 122 122
94 94 94
92 92 92
94 94 94
107 107 107
82 82 82
80 80 80
82 82 82
93 93 93
71 71 71
69 69 69
71 71 71
80 80 80
255 255 255
255 255 255
255 255 255
255 255 255
255 255 255
255 255 255
255 255 255
255 255 255
255 255 255
255 255 255
255 255 255
255 255 255
255 255 255
255 255 255
255 255 255
255 255 255
255 255 255
255 255 255
255 255 255
255 255 255
255 255 255
255 255 255
255 255 255
255 255 255
255 255 255
255 255 255
255 255 255
255 255 255
255 255 255
255 255 255
255 255 255
255 255 255
255 255 255
255 255 255
255 255 255
255 255 255
255 255 255
255 255 255
255 255 255
255 255 255
255 255 255
255 255 255
255 255 255
255 255 255
255 255 255
255 255 255
255 255 255
255 255 255
255 255 255
255 255 255
255 255 255
255 255 255
255 255 255
255 255 255
255 255 255
255 255 255
255 255 255
255 255 255
255 255 255
255 255 255
255 255 255
255 255 255
255 255 255
255 255 255
255 255 255
255 255 255
255 255 255
255 255 255
255 255 255
255 255 255
255 255 255
255 255 255
255 255 255
255 255 255
255 255 255
255 255 255
243 243 243
241 241 241
251 251 251
255 255 255
227 227 227
225 225 225
234 234 234
255 255 255
212 212 212
210 210 210
219 219 219
249 249 249
198 198 198
196 196 196
205 205 205
233 233 233
185 185 185
184 184 184
192 192 192
218 218 218
173 173 173
172 172 172
179 179 179
203 203 203
161 161 161
160 160 160
166 166 166
189 189 189
149 149 149
147 147 147
152 152 152
173 173 173
136 136 136
134 134 134
138 138 138
157 157 157
122 122 122
120 120 120
124 124 124
140 140 140
108 108 108
106 106 106
109 109 109
124 124 124
95 95 95
92 92 92
95 95 95
108 108 108
82 82 82
80 80 80
82 82 82
93 93 93
255 255 255
255 255 255
255 255 255
255 255 255
255 255 255
255 255 255
255 255 255
255 255 255
255 255 255
255 255 255
255 255 255
255 255 255
255 255 255
255 255 255
255 255 255
255 255 255
255 255 255
255 255 255
255 255 255
255 255 255
255 255 255
255 255 255
255 255 255
255 255 255
255 255 255
255 255 255
255 255 255
255 255 255
255 255 255
255 255 255
255 255 255
255 255 255
255 255 255
255 255 255
255 255 255
255 255 255
255 255 255
255 255 255
255 255 255
255 255 255
255 255 255
255 255 255
255 255 255
255 255 255
255 255 255
255 255 255
255 255 255
255 255 255
255 255 255
255 255 255
255 255 255
255 255 255
255 255 255
255 255 255
255 255 255
255 255 255
255 255 255
255 255 255
255 255 255
255 255 255
255 255 255
255 255 255
255 255 255
255 255 255
254 254 254
253 253 253
255 255 255
255 255 255
243 243 243
242 242 242
253 253 253
255 255 255
231 231 231
229 229 229
239 239 239
255 255 255
218 218 218
216 216 216
225 225 225
255 255 255
204 204 204
203 203 203
211 211 211
241 241 241
191 191 191
190 190 190
198 198 198
226 226 226
180 180 180
178 178 178
186 186 186
212 212 212
169 169 169
167 167 167
175 175 175
199 199 199
158 158 158
157 157 157
163 163 163
186 186 186
148 148 148
146 146 146
152 152 152
173 173 173
137 137 137
135 135 135
141 141 141
160 160 160
126 126 126
124 124 124
128 128 128
146 146 146
114 114 114
112 112 112
116 116 116
131 131 131
102 102 102
100 100 100
103 103 103
117 117 117
90 90 90
88 88 88
90 90 90
103 103 103
78 78 78
76 76 76
79 79 79
89 89 89
255 255 255
255 255 255
255 255 255
255 255 255
255 255 255
255 255 255
255 255 255
255 255 255
255 255 255
255 255 255
255 255 255
255 255 255
255 255 255
255 255 255
255 255 255
255 255 255
255 255 255
255 255 255
255 255 255
255 255 255
255 255 255
255 255 255
255 255 255
255 255 255
255 255 255
255 255 255
255 255 255
255 255 255
255 255 255
255 255 255
255 255 255
255 255 255
255 255 255
255 255 255
255 255 255
255 255 255
255 255 255
255 255 255
255 255 255
255 255 255
255 255 255
255 255 255
255 255 255
255 255 255
255 255 255
255 255 255
255 255 255
255 255 255
255 255 255
255 255 255
255 255 255
255 255 255
255 255 255
255 255 255
255 255 255
255 255 255
255 255 255
255 255 255
255 255 255
255 255 255
255 255 255
255 255 255
255 255 255
255 255 255
255 255 255
255 255 255
255 255 255
255 255 255
251 251 251
250 250 250
255 255 255
255 255 255
239 239 239
238 238 238
248 248 248
255 255 255
226 226 226
224 224 224
234 234 234
255 255 255
212 212 212
211 211 211
220 220 220
250 250 250
199 199 199
198 198 198
207 207 207
235 235 235
187 187 187
186 186 186
194 194 194
221 221 221
176 176 176
175 175 175
183 183 183
208 208 208
166 166 166
164 164 164
171 171 171
195 195 195
155 155 155
154 154 154
160 160 160
182 182 182
144 144 144
143 143 143
148 148 148
168 168 168
133 133 133
131 131 131
136 136 136
154 154 154
121 121 121
119 119 119
123 123 123
139 139 139
108 108 108
106 106 106
110 110 110
124 124 124
96 96 96
94 94 94
97 97 97
110 110 110
84 84 84
82 82 82
84 84 84
96 96 96
255 255 255
255 255 255
255 255 255
255 255 255
255 255 255
255 255 255
255 255 255
255 255 255
255 255 255
255 255 255
255 255 255
255 255 255
255 255 255
255 255 255
255 255 255
255 255 255
255 255 255
255 255 255
255 255 255
255 255 255
255 255 255
255 255 255
255 255 255
255 255 255
255 255 255
255 255 255
255 255 255
255 255 255
255 255 255
255 255 255
255 255 255
255 255 255
255 255 255
255 255 255
255 255 255
255 255 255
255 255 255
255 255 255
255 255 255
255 255 255
255 255 255
255 255 255
255 255 255
255 255 255
255 255 255
255 255 255
255 255 255
255 255 255
255 255 255
255 255 255
255 255 255
255 255 255
255 255 255
255 255 255
255 255 255
255 255 255
255 255 255
255 255 255
255 255 255
255 255 255
255 255 255
255 255 255
255 255 255
255 255 255
255 255 255
255 255 255
255 255 255
255 255 255
255 255 255
255 255 255
255 255 255
255 255 255
255 255 255
255 255 255
255 255 255
255 255 255
242 242 242
241 241 241
252 252 252
255 255 255
229 229 229
227 227 227
237 237 237
255 255 255
215 215 215
214 214 214
223 223 223
254 254 254
202 202 202
201 201 201
210 210 210
239 239 239
191 191 191
189 189 189
198 198 198
225 225 225
179 179 179
178 178 178
186 186 186
211 211 211
168 168 168
167 167 167
174 174 174
197 197 197
157 157 157
155 155 155
161 161 161
183 183 183
144 144 144
143 143 143
148 148 148
168 168 168
132 132 132
130 130 130
134 134 134
152 152 152
119 119 119
116 116 116
120 120 120
137 137 137
105 105 105
103 103 103
106 106 106
121 121 121
93 93 93
90 90 90
93 93 93
106 106 106
255 255 255
255 255 255
255 255 255
255 255 255
255 255 255
255 255 255
255 255 255
255 255 255
255 255 255
255 255 255
255 255 255
255 255 255
255 255 255
255 255 255
255 255 255
255 255 255
255 255 255
255 255 255
255 255 255
255 255 255
255 255 255
255 255 255
255 255 255
255 255 255
255 255 255
255 255 255
255 255 255
255 255 255
255 255 255
255 255 255
255 255 255
255 255 255
255 255 255
255 255 255
255 255 255
255 255 255
255 255 255
255 255 255
255 255 255
255 255 255
255 255 255
255 255 255
255 255 255
255 255 255
255 255 255
255 255 255
255 255 255
255 255 255
255 255 255
255 255 255
255 255 255
255 255 255
255 255 255
255 255 255
255 255 255
255 255 255
255 255 255
255 255 255
255 255 255
255 255 255
255 255 255
255 255 255
255 255 255
255 255 255
255 255 255
255 255 255
255 255 255
255 255 255
255 255 255
255 255 255
255 255 255
255 255 255
255 255 255
255 255 255
255 255 255
255 255 255
255 255 255
255 255 255
255 255 255
255 255 255
255 255 255
255 255 255
255 255 255
255 255 255
245 245 245
244 244 244
254 254 254
255 255 255
231 231 231
230 230 230
240 240 240
255 255 255
218 218 218
216 216 216
226 226 226
255 255 255
205 205 205
204 204 204
212 212 212
242 242 242
192 192 192
191 191 191
199 199 199
226 226 226
179 179 179
177 177 177
185 185 185
210 210 210
166 166 166
163 163 163
170 170 170
193 193 193
151 151 151
149 149 149
154 154 154
175 175 175
136 136 136
134 134 134
138 138 138
157 157 157
121 121 121
119 119 119
123 123 123
139 139 139
107 107 107
104 104 104
107 107 107
122 122 122
255 255 255
255 255 255
255 255 255
255 255 255
255 255 255
255 255 255
255 255 255
255 255 255
255 255 255
255 255 255
255 255 255
255 255 255
255 255 255
255 255 255
255 255 255
255 255 255
255 255 255
255 255 255
255 255 255
255 255 255
255 255 255
255 255 255
255 255 255
255 255 255
255 255 255
255 255 255
255 255 255
255 255 255
255 255 255
255 255 255
255 255 255
255 255 255
255 255 255
255 255 255
255 255 255
255 255 255
255 255 255
255 255 255
255 255 255
255 255 255
255 255 255
255 255 255
255 255 255
255 255 255
255 255 255
255 255 255
255 255 255
255 255 255
255 255 255
255 255 255
255 255 255
255 255 255
255 255 255
255 255 255
255 255 255
255 255 255
255 255 255
255 255 255
255 255 255
255 255 255
255 255 255
255 255 255
255 255 255
255 255 255
255 255 255
255 255 255
255 255 255
255 255 255
255 255 255
255 255 255
255 255 255
255 255 255
255 255 255
254 254 254
255 255 255
255 255 255
242 242 242
241 241 241
252 252 252
255 255 255
230 230 230
229 229 229
239 239 239
255 255 255
217 217 217
216 216 216
226 226 226
255 255 255
205 205 205
204 204 204
213 213 213
243 243 243
194 194 194
193 193 193
202 202 202
229 229 229
183 183 183
182 182 182
190 190 190
216 216 216
173 173 173
171 171 171
179 179 179
203 203 203
162 162 162
160 160 160
167 167 167
190 190 190
150 150 150
149 149 149
154 154 154
175 175 175
138 138 138
136 136 136
141 141 141
160 160 160
125 125 125
123 123 123
128 128 128
145 145 145
113 113 113
110 110 110
114 114 114
130 130 130
100 100 100
98 98 98
101 101 101
114 114 114
255 255 255
255 255 255
255 255 255
255 255 255
255 255 255
255 255 255
255 255 255
255 255 255
255 255 255
255 255 255
255 255 255
255 255 255
255 255 255
255 255 255
255 255 255
255 255 255
255 255 255
255 255 255
255 255 255
255 255 255
255 255 255
255 255 255
255 255 255
255 255 255
255 255 255
255 255 255
255 255 255
255 255 255
255 255 255
255 255 255
255 255 255
255 255 255
255 255 255
255 255 255
255 255 255
255 255 255
255 255 255
255 255 255
255 255 255
255 255 255
255 255 255
255 255 255
255 255 255
255 255 255
255 255 255
255 255 255
255 255 255
255 255 255
255 255 255
255 255 255
255 255 255
255 255 255
255 255 255
255 255 255
255 255 255
255 255 255
255 255 255
255 255 255
255 255 255
255 255 255
255 255 255
255 255 255
255 255 255
255 255 255
255 255 255
255 255 255
255 255 255
255 255 255
255 255 255
255 255 255
255 255 255
255 255 255
255 255 255
255 255 255
255 255 255
255 255 255
249 249 249
248 248 248
255 255 255
255 255 255
237 237 237
236 236 236
246 246 246
255 255 255
224 224 224
223 223 223
233 233 233
255 255 255
213 213 213
211 211 211
221 221 221
252 252 252
201 201 201
200 200 200
209 209 209
238 238 238
190 190 190
189 189 189
198 198 198
225 225 225
180 180 180
178 178 178
186 186 186
212 212 212
169 169 169
167 167 167
174 174 174
198 198 198
157 157 157
155 155 155
162 162 162
184 184 184
145 145 145
143 143 143
148 148 148
169 169 169
132 132 132
130 130 130
135 135 135
153 153 153
119 119 119
117 117 117
121 121 121
137 137 137
106 106 106
104 104 104
107 107 107
121 121 121
255 255 255
255 255 255
255 255 255
255 255 255
255 255 255
255 255 255
255 255 255
255 255 255
255 255 255
255 255 255
255 255 255
255 255 255
255 255 255
255 255 255
255 255 255
255 255 255
255 255 255
255 255 255
255 255 255
255 255 255
255 255 255
255 255 255
255 255 255
255 255 255
255 255 255
255 255 255
255 255 255
255 255 255
255 255 255
255 255 255
255 255 255
255 255 255
255 255 255
255 255 255
255 255 255
255 255 255
255 255 255
255 255 255
255 255 255
255 255 255
255 255 255
255 255 255
255 255 255
255 255 255
255 255 255
255 255 255
255 255 255
255 255 255
255 255 255
255 255 255
255 255 255
255 255 255
255 255 255
255 255 255
255 255 255
255 255 255
255 255 255
255 255 255
255 255 255
255 255 255
255 255 255
255 255 255
255 255 255
255 255 255
255 255 255
255 255 255
255 255 255
255 255 255
255 255 255
255 255 255
255 255 255
255 255 255
255 255 255
255 255 255
255 255 255
255 255 255
255 255 255
255 255 255
255 255 255
255 255 255
253 253 253
252 252 252
255 255 255
255 255 255
240 240 240
239 239 239
250 250 250
255 255 255
228 228 228
227 227 227
237 237 237
255 255 255
216 216 216
215 215 215
225 225 225
255 255 255
205 205 205
204 204 204
213 213 213
242 242 242
193 193 193
192 192 192
200 200 200
228 228 228
182 182 182
180 180 180
188 188 188
214 214 214
170 170 170
168 168 168
175 175 175
199 199 199
157 157 157
155 155 155
161 161 161
183 183 183
144 144 144
141 141 141
147 147 147
166 166 166
130 130 130
127 127 127
132 132 132
150 150 150
116 116 116
113 113 113
117 117 117
133 133 133
255 255 255
255 255 255
255 255 255
255 255 255
255 255 255
255 255 255
255 255 255
255 255 255
255 255 255
255 255 255
255 255 255
255 255 255
255 255 255
255 255 255
255 255 255
255 255 255
255 255 255
255 255 255
255 255 255
255 255 255
255 255 255
255 255 255
255 255 255
255 255 255
255 255 255
255 255 255
255 255 255
255 255 255
255 255 255
255 255 255
255 255 255
255 255 255
255 255 255
255 255 255
255 255 255
255 255 255
255 255 255
255 255 255
255 255 255
255 255 255
255 255 255
255 255 255
255 255 255
255 255 255
255 255 255
255 255 255
255 255 255
255 255 255
255 255 255
255 255 255
255 255 255
255 255 255
255 255 255
255 255 255
255 255 255
255 255 255
255 255 255
255 255 255
255 255 255
255 255 255
255 255 255
255 255 255
255 255 255
255 255 255
255 255 255
255 255 255
255 255 255
255 255 255
255 255 255
255 255 255
255 255 255
255 255 255
255 255 255
255 255 255
255 255 255
255 255 255
255 255 255
255 255 255
255 255 255
255 255 255
255 255 255
255 255 255
255 255 255
255 255 255
255 255 255
255 255 255
255 255 255
255 255 255
255 255 255
255 255 255
255 255 255
255 255 255
247 247 247
246 246 246
255 255 255
255 255 255
234 234 234
232 232 232
243 243 243
255 255 255
221 221 221
219 219 219
229 229 229
255 255 255
208 208 208
206 206 206
215 215 215
244 244 244
194 194 194
192 192 192
200 200 200
227 227 227
180 180 180
178 178 178
184 184 184
209 209 209
165 165 165
162 162 162
168 168 168
191 191 191
149 149 149
146 146 146
151 151 151
172 172 172
133 133 133
130 130 130
134 134 134
153 153 153
255 255 255
255 255 255
255 255 255
255 255 255
255 255 255
255 255 255
255 255 255
255 255 255
255 255 255
255 255 255
255 255 255
255 255 255
255 255 255
255 255 255
255 255 255
255 255 255
255 255 255
255 255 255
255 255 255
255 255 255
255 255 255
255 255 255
255 255 255
255 255 255
255 255 255
255 255 255
255 255 255
255 255 255
255 255 255
255 255 255
255 255 255
255 255 255
255 255 255
255 255 255
255 255 255
255 255 255
255 255 255
255 255 255
255 255 255
255 255 255
255 255 255
255 255 255
255 255 255
255 255 255
255 255 255
255 255 255
255 255 255
255 255 255
255 255 255
255 255 255
255 255 255
255 255 255
255 255 255
255 255 255
255 255 255
255 255 255
255 255 255
255 255 255
255 255 255
255 255 255
255 255 255
255 255 255
255 255 255
255 255 255
255 255 255
255 255 255
255 255 255
255 255 255
255 255 255
255 255 255
255 255 255
255 255 255
255 255 255
255 255 255
255 255 255
255 255 255
255 255 255
255 255 255
255 255 255
255 255 255
250 250 250
249 249 249
255 255 255
255 255 255
239 239 239
238 238 238
248 248 248
255 255 255
227 227 227
226 226 226
237 237 237
255 255 255
216 216 216
215 215 215
225 225 225
255 255 255
205 205 205
204 204 204
214 214 214
243 243 243
195 195 195
194 194 194
202 202 202
230 230 230
184 184 184
183 183 183
191 191 191
217 217 217
173 173 173
171 171 171
179 179 179
203 203 203
161 161 161
160 160 160
166 166 166
188 188 188
149 149 149
147 147 147
152 152 152
173 173 173
135 135 135
133 133 133
138 138 138
157 157 157
122 122 122
119 119 119
123 123 123
140 140 140
255 255 255
255 255 255
255 255 255
255 255 255
255 255 255
255 255 255
255 255 255
255 255 255
255 255 255
255 255 255
255 255 255
255 255 255
255 255 255
255 255 255
255 255 255
255 255 255
255 255 255
255 255 255
255 255 255
255 255 255
255 255 255
255 255 255
255 255 255
255 255 255
255 255 255
255 255 255
255 255 255
255 255 255
255 255 255
255 255 255
255 255 255
255 255 255
255 255 255
255 255 255
255 255 255
255 255 255
255 255 255
255 255 255
255 255 255
255 255 255
255 255 255
255 255 255
255 255 255
255 255 255
255 255 255
255 255 255
255 255 255
255 255 255
255 255 255
255 255 255
255 255 255
255 255 255
255 255 255
255 255 255
255 255 255
255 255 255
255 255 255
255 255 255
255 255 255
255 255 255
255 255 255
255 255 255
255 255 255
255 255 255
255 255 255
255 255 255
255 255 255
255 255 255
255 255 255
255 255 255
255 255 255
255 255 255
255 255 255
255 255 255
255 255 255
255 255 255
255 255 255
255 255 255
255 255 255
255 255 255
255 255 255
255 255 255
255 255 255
255 255 255
245 245 245
244 244 244
255 255 255
255 255 255
234 234 234
233 233 233
243 243 243
255 255 255
223 223 223
222 222 222
232 232 232
255 255 255
212 212 212
211 211 211
220 220 220
251 251 251
201 201 201
200 200 200
209 209 209
238 238 238
190 190 190
189 189 189
197 197 197
225 225 225
179 179 179
178 178 178
186 186 186
211 211 211
168 168 168
166 166 166
173 173 173
196 196 196
155 155 155
153 153 153
159 159 159
181 181 181
142 142 142
140 140 140
145 145 145
164 164 164
128 128 128
126 126 126
130 130 130
147 147 147
255 255 255
255 255 255
255 255 255
255 255 255
255 255 255
255 255 255
255 255 255
255 255 255
255 255 255
255 255 255
255 255 255
255 255 255
255 255 255
255 255 255
255 255 255
255 255 255
255 255 255
255 255 255
255 255 255
255 255 255
255 255 255
255 255 255
255 255 255
255 255 255
255 255 255
255 255 255
255 255 255
255 255 255
255 255 255
255 255 255
255 255 255
255 255 255
255 255 255
255 255 255
255 255 255
255 255 255
255 255 255
255 255 255
255 255 255
255 255 255
255 255 255
255 255 255
255 255 255
255 255 255
255 255 255
255 255 255
255 255 255
255 255 255
255 255 255
255 255 255
255 255 255
255 255 255
255 255 255
255 255 255
255 255 255
255 255 255
255 255 255
255 255 255
255 255 255
255 255 255
255 255 255
255 255 255
255 255 255
255 255 255
255 255 255
255 255 255
255 255 255
255 255 255
255 255 255
255 255 255
255 255 255
255 255 255
255 255 255
255 255 255
255 255 255
255 255 255
255 255 255
255 255 255
255 255 255
255 255 255
255 255 255
255 255 255
255 255 255
255 255 255
255 255 255
255 255 255
255 255 255
255 255 255
249 249 249
248 248 248
255 255 255
255 255 255
238 238 238
237 237 237
248 248 248
255 255 255
227 227 227
226 226 226
236 236 236
255 255 255
215 215 215
214 214 214
224 224 224
255 255 255
204 204 204
203 203 203
212 212 212
241 241 241
193 193 193
191 191 191
199 199 199
227 227 227
181 181 181
179 179 179
186 186 186
212 212 212
168 168 168
166 166 166
172 172 172
195 195 195
154 154 154
151 151 151
157 157 157
178 178 178
139 139 139
136 136 136
141 141 141
160 160 160
255 255 255
255 255 255
255 255 255
255 255 255
255 255 255
255 255 255
255 255 255
255 255 255
255 255 255
255 255 255
255 255 255
255 255 255
255 255 255
255 255 255
255 255 255
255 255 255
255 255 255
255 255 255
255 255 255
255 255 255
255 255 255
255 255 255
255 255 255
255 255 255
255 255 255
255 255 255
255 255 255
255 255 255
255 255 255
255 255 255
255 255 255
255 255 255
255 255 255
255 255 255
255 255 255
255 255 255
255 255 255
255 255 255
255 255 255
255 255 255
255 255 255
255 255 255
255 255 255
255 255 255
255 255 255
255 255 255
255 255 255
255 255 255
255 255 255
255 255 255
255 255 255
255 255 255
255 255 255
255 255 255
255 255 255
255 255 255
255 255 255
255 255 255
255 255 255
255 255 255
255 255 255
255 255 255
255 255 255
255 255 255
255 255 255
255 255 255
255 255 255
255 255 255
255 255 255
255 255 255
255 255 255
255 255 255
255 255 255
255 255 255
255 255 255
255 255 255
255 255 255
255 255 255
255 255 255
255 255 255
255 255 255
255 255 255
255 255 255
255 255 255
255 255 255
255 255 255
255 255 255
255 255 255
255 255 255
255 255 255
255 255 255
255 255 255
255 255 255
255 255 255
255 255 255
255 255 255
255 255 255
255 255 255
255 255 255
255 255 255
246 246 246
245 245 245
255 255 255
255 255 255
233 233 233
232 232 232
242 242 242
255 255 255
220 220 220
218 218 218
228 228 228
255 255 255
206 206 206
204 204 204
213 213 213
242 242 242
192 192 192
189 189 189
197 197 197
223 223 223
176 176 176
173 173 173
180 180 180
204 204 204
159 159 159
156 156 156
162 162 162
183 183 183
255 255 255
255 255 255
255 255 255
255 255 255
255 255 255
255 255 255
255 255 255
255 255 255
255 255 255
255 255 255
255 255 255
255 255 255
255 255 255
255 255 255
255 255 255
255 255 255
255 255 255
255 255 255
255 255 255
255 255 255
255 255 255
255 255 255
255 255 255
255 255 255
255 255 255
255 255 255
255 255 255
255 255 255
255 255 255
255 255 255
255 255 255
255 255 255
255 255 255
255 255 255
255 255 255
255 255 255
255 255 255
255 255 255
255 255 255
255 255 255
255 255 255
255 255 255
255 255 255
255 255 255
255 255 255
255 255 255
255 255 255
255 255 255
255 255 255
255 255 255
255 255 255
255 255 255
255 255 255
255 255 255
255 255 255
255 255 255
255 255 255
255 255 255
255 255 255
255 255 255
255 255 255
255 255 255
255 255 255
255 255 255
255 255 255
255 255 255
255 255 255
255 255 255
255 255 255
255 255 255
255 255 255
255 255 255
255 255 255
255 255 255
255 255 255
255 255 255
255 255 255
255 255 255
255 255 255
255 255 255
255 255 255
255 255 255
255 255 255
255 255 255
255 255 255
254 254 254
255 255 255
255 255 255
245 245 245
244 244 244
255 255 255
255 255 255
234 234 234
234 234 234
244 244 244
255 255 255
224 224 224
223 223 223
233 233 233
255 255 255
214 214 214
213 213 213
222 222 222
253 253 253
203 203 203
202 202 202
212 212 212
241 241 241
193 193 193
192 192 192
200 200 200
228 228 228
182 182 182
181 181 181
188 188 188
214 214 214
170 170 170
169 169 169
175 175 175
199 199 199
157 157 157
155 155 155
161 161 161
183 183 183
143 143 143
141 141 141
146 146 146
165 165 165
255 255 255
255 255 255
255 255 255
255 255 255
255 255 255
255 255 255
255 255 255
255 255 255
255 255 255
255 255 255
255 255 255
255 255 255
255 255 255
255 255 255
255 255 255
255 255 255
255 255 255
255 255 255
255 255 255
255 255 255
255 255 255
255 255 255
255 255 255
255 255 255
255 255 255
255 255 255
255 255 255
255 255 255
255 255 255
255 255 255
255 255 255
255 255 255
255 255 255
255 255 255
255 255 255
255 255 255
255 255 255
255 255 255
255 255 255
255 255 255
255 255 255
255 255 255
255 255 255
255 255 255
255 255 255
255 255 255
255 255 255
255 255 255
255 255 255
255 255 255
255 255 255
255 255 255
255 255 255
255 255 255
255 255 255
255 255 255
255 255 255
255 255 255
255 255 255
255 255 255
255 255 255
255 255 255
255 255 255
255 255 255
255 255 255
255 255 255
255 255 255
255 255 255
255 255 255
255 255 255
255 255 255
255 255 255
255 255 255
255 255 255
255 255 255
255 255 255
255 255 255
255 255 255
255 255 255
255 255 255
255 255 255
255 255 255
255 255 255
255 255 255
255 255 255
255 255 255
255 255 255
255 255 255
250 250 250
250 250 250
255 255 255
255 255 255
240 240 240
239 239 239
250 250 250
255 255 255
230 230 230
229 229 229
239 239 239
255 255 255
219 219 219
219 219 219
229 229 229
255 255 255
209 209 209
208 208 208
218 218 218
248 248 248
199 199 199
198 198 198
207 207 207
235 235 235
188 188 188
187 187 187
195 195 195
222 222 222
176 176 176
175 175 175
182 182 182
207 207 207
163 163 163
161 161 161
168 168 168
190 190 190
149 149 149
147 147 147
152 152 152
173 173 173
255 255 255
255 255 255
255 255 255
255 255 255
255 255 255
255 255 255
255 255 255
255 255 255
255 255 255
255 255 255
255 255 255
255 255 255
255 255 255
255 255 255
255 255 255
255 255 255
255 255 255
255 255 255
255 255 255
255 255 255
255 255 255
255 255 255
255 255 255
255 255 255
255 255 255
255 255 255
255 255 255
255 255 255
255 255 255
255 255 255
255 255 255
255 255 255
255 255 255
255 255 255
255 255 255
255 255 255
255 255 255
255 255 255
255 255 255
255 255 255
255 255 255
255 255 255
255 255 255
255 255 255
255 255 255
255 255 255
255 255 255
255 255 255
255 255 255
255 255 255
255 255 255
255 255 255
255 255 255
255 255 255
255 255 255
255 255 255
255 255 255
255 255 255
255 255 255
255 255 255
255 255 255
255 255 255
255 255 255
255 255 255
255 255 255
255 255 255
255 255 255
255 255 255
255 255 255
255 255 255
255 255 255
255 255 255
255 255 255
255 255 255
255 255 255
255 255 255
255 255 255
255 255 255
255 255 255
255 255 255
255 255 255
255 255 255
255 255 255
255 255 255
255 255 255
255 255 255
255 255 255
255 255 255
255 255 255
255 255 255
255 255 255
255 255 255
255 255 255
255 255 255
255 255 255
255 255 255
245 245 245
244 244 244
255 255 255
255 255 255
234 234 234
233 233 233
244 244 244
255 255 255
223 223 223
223 223 223
233 233 233
255 255 255
213 213 213
212 212 212
221 221 221
252 252 252
202 202 202
200 200 200
209 209 209
238 238 238
190 190 190
188 188 188
196 196 196
222 222 222
176 176 176
174 174 174
180 180 180
205 205 205
161 161 161
158 158 158
164 164 164
186 186 186
255 255 255
255 255 255
255 255 255
255 255 255
255 255 255
255 255 255
255 255 255
255 255 255
255 255 255
255 255 255
255 255 255
255 255 255
255 255 255
255 255 255
255 255 255
255 255 255
255 255 255
255 255 255
255 255 255
255 255 255
255 255 255
255 255 255
255 255 255
255 255 255
255 255 255
255 255 255
255 255 255
255 255 255
255 255 255
255 255 255
255 255 255
255 255 255
255 255 255
255 255 255
255 255 255
255 255 255
255 255 255
255 255 255
255 255 255
255 255 255
255 255 255
255 255 255
255 255 255
255 255 255
255 255 255
255 255 255
255 255 255
255 255 255
255 255 255
255 255 255
255 255 255
255 255 255
255 255 255
255 255 255
255 255 255
255 255 255
255 255 255
255 255 255
255 255 255
255 255 255
255 255 255
255 255 255
255 255 255
255 255 255
255 255 255
255 255 255
255 255 255
255 255 255
255 255 255
255 255 255
255 255 255
255 255 255
255 255 255
255 255 255
255 255 255
255 255 255
255 255 255
255 255 255
255 255 255
255 255 255
255 255 255
255 255 255
255 255 255
255 255 255
255 255 255
255 255 255
255 255 255
255 255 255
255 255 255
255 255 255
255 255 255
255 255 255
255 255 255
255 255 255
255 255 255
255 255 255
255 255 255
255 255 255
255 255 255
255 255 255
255 255 255
255 255 255
255 255 255
255 255 255
255 255 255
254 254 254
255 255 255
255 255 255
243 243 243
242 242 242
252 252 252
255 255 255
230 230 230
229 229 229
239 239 239
255 255 255
216 216 216
214 214 214
223 223 223
254 254 254
201 201 201
199 199 199
206 206 206
234 234 234
184 184 184
181 181 181
188 188 188
213 213 213
255 255 255
255 255 255
255 255 255
255 255 255
255 255 255
255 255 255
255 255 255
255 255 255
255 255 255
255 255 255
255 255 255
255 255 255
255 255 255
255 255 255
255 255 255
255 255 255
255 255 255
255 255 255
255 255 255
255 255 255
255 255 255
255 255 255
255 255 255
255 255 255
255 255 255
255 255 255
255 255 255
255 255 255
255 255 255
255 255 255
255 255 255
255 255 255
255 255 255
255 255 255
255 255 255
255 255 255
255 255 255
255 255 255
255 255 255
255 255 255
255 255 255
255 255 255
255 255 255
255 255 255
255 255 255
255 255 255
255 255 255
255 255 255
255 255 255
255 255 255
255 255 255
255 255 255
255 255 255
255 255 255
255 255 255
255 255 255
255 255 255
255 255 255
255 255 255
255 255 255
255 255 255
255 255 255
255 255 255
255 255 255
255 255 255
255 255 255
255 255 255
255 255 255
255 255 255
255 255 255
255 255 255
255 255 255
255 255 255
255 255 255
255 255 255
255 255 255
255 255 255
255 255 255
255 255 255
255 255 255
255 255 255
255 255 255
255 255 255
255 255 255
255 255 255
255 255 255
255 255 255
255 255 255
255 255 255
255 255 255
255 255 255
255 255 255
248 248 248
248 248 248
255 255 255
255 255 255
239 239 239
238 238 238
250 250 250
255 255 255
229 229 229
229 229 229
239 239 239
255 255 255
220 220 220
219 219 219
229 229 229
255 255 255
210 210 210
210 210 210
219 219 219
249 249 249
200 200 200
199 199 199
208 208 208
237 237 237
190 190 190
188 188 188
196 196 196
223 223 223
177 177 177
175 175 175
182 182 182
207 207 207
163 163 163
161 161 161
167 167 167
189 189 189
255 255 255
255 255 255
255 255 255
255 255 255
255 255 255
255 255 255
255 255 255
255 255 255
255 255 255
255 255 255
255 255 255
255 255 255
255 255 255
255 255 255
255 255 255
255 255 255
255 255 255
255 255 255
255 255 255
255 255 255
255 255 255
255 255 255
255 255 255
255 255 255
255 255 255
255 255 255
255 255 255
255 255 255
255 255 255
255 255 255
255 255 255
255 255 255
255 255 255
255 255 255
255 255 255
255 255 255
255 255 255
255 255 255
255 255 255
255 255 255
255 255 255
255 255 255
255 255 255
255 255 255
255 255 255
255 255 255
255 255 255
255 255 255
255 255 255
255 255 255
255 255 255
255 255 255
255 255 255
255 255 255
255 255 255
255 255 255
255 255 255
255 255 255
255 255 255
255 255 255
255 255 255
255 255 255
255 255 255
255 255 255
255 255 255
255 255 255
255 255 255
255 255 255
255 255 255
255 255 255
255 255 255
255 255 255
255 255 255
255 255 255
255 255 255
255 255 255
255 255 255
255 255 255
255 255 255
255 255 255
255 255 255
255 255 255
255 255 255
255 255 255
255 255 255
255 255 255
255 255 255
255 255 255
255 255 255
255 255 255
255 255 255
255 255 255
253 253 253
253 253 253
255 255 255
255 255 255
244 244 244
244 244 244
255 255 255
255 255 255
234 234 234
234 234 234
245 245 245
255 255 255
225 225 225
225 225 225
235 235 235
255 255 255
216 216 216
215 215 215
225 225 225
255 255 255
206 206 206
205 205 205
214 214 214
244 244 244
195 195 195
194 194 194
202 202 202
230 230 230
183 183 183
181 181 181
188 188 188
214 214 214
169 169 169
166 166 166
173 173 173
196 196 196
255 255 255
255 255 255
255 255 255
255 255 255
255 255 255
255 255 255
255 255 255
255 255 255
255 255 255
255 255 255
255 255 255
255 255 255
255 255 255
255 255 255
255 255 255
255 255 255
255 255 255
255 255 255
255 255 255
255 255 255
255 255 255
255 255 255
255 255 255
255 255 255
255 255 255
255 255 255
255 255 255
255 255 255
255 255 255
255 255 255
255 255 255
255 255 255
255 255 255
255 255 255
255 255 255
255 255 255
255 255 255
255 255 255
255 255 255
255 255 255
255 255 255
255 255 255
255 255 255
255 255 255
255 255 255
255 255 255
255 255 255
255 255 255
255 255 255
255 255 255
255 255 255
255 255 255
255 255 255
255 255 255
255 255 255
255 255 255
255 255 255
255 255 255
255 255 255
255 255 255
255 255 255
255 255 255
255 255 255
255 255 255
255 255 255
255 255 255
255 255 255
255 255 255
255 255 255
255 255 255
255 255 255
255 255 255
255 255 255
255 255 255
255 255 255
255 255 255
255 255 255
255 255 255
255 255 255
255 255 255
255 255 255
255 255 255
255 255 255
255 255 255
255 255 255
255 255 255
255 255 255
255 255 255
255 255 255
255 255 255
255 255 255
255 255 255
255 255 255
255 255 255
255 255 255
255 255 255
255 255 255
255 255 255
255 255 255
255 255 255
249 249 249
249 249 249
255 255 255
255 255 255
240 240 240
239 239 239
250 250 250
255 255 255
230 230 230
229 229 229
240 240 240
255 255 255
220 220 220
219 219 219
229 229 229
255 255 255
209 209 209
208 208 208
216 216 216
246 246 246
196 196 196
194 194 194
202 202 202
229 229 229
181 181 181
179 179 179
185 185 185
210 210 210
255 255 255
255 255 255
255 255 255
255 255 255
255 255 255
255 255 255
255 255 255
255 255 255
255 255 255
255 255 255
255 255 255
255 255 255
255 255 255
255 255 255
255 255 255
255 255 255
255 255 255
255 255 255
255 255 255
255 255 255
255 255 255
255 255 255
255 255 255
255 255 255
255 255 255
255 255 255
255 255 255
255 255 255
255 255 255
255 255 255
255 255 255
255 255 255
255 255 255
255 255 255
255 255 255
255 255 255
255 255 255
255 255 255
255 255 255
255 255 255
255 255 255
255 255 255
255 255 255
255 255 255
255 255 255
255 255 255
255 255 255
255 255 255
255 255 255
255 255 255
255 255 255
255 255 255
255 255 255
255 255 255
255 255 255
255 255 255
255 255 255
255 255 255
255 255 255
255 255 255
255 255 255
255 255 255
255 255 255
255 255 255
255 255 255
255 255 255
255 255 255
255 255 255
255 255 255
255 255 255
255 255 255
255 255 255
255 255 255
255 255 255
255 255 255
255 255 255
255 255 255
255 255 255
255 255 255
255 255 255
255 255 255
255 255 255
255 255 255
255 255 255
255 255 255
255 255 255
255 255 255
255 255 255
255 255 255
255 255 255
255 255 255
255 255 255
255 255 255
255 255 255
255 255 255
255 255 255
255 255 255
255 255 255
255 255 255
255 255 255
255 255 255
255 255 255
255 255 255
255 255 255
255 255 255
255 255 255
255 255 255
255 255 255
255 255 255
255 255 255
255 255 255
255 255 255
251 251 251
250 250 250
255 255 255
255 255 255
238 238 238
237 237 237
247 247 247
255 255 255
224 224 224
222 222 222
230 230 230
255 255 255
207 207 207
204 204 204
212 212 212
240 240 240
255 255 255
255 255 255
255 255 255
255 255 255
255 255 255
255 255 255
255 255 255
255 255 255
255 255 255
255 255 255
255 255 255
255 255 255
255 255 255
255 255 255
255 255 255
255 255 255
255 255 255
255 255 255
255 255 255
255 255 255
255 255 255
255 255 255
255 255 255
255 255 255
255 255 255
255 255 255
255 255 255
255 255 255
255 255 255
255 255 255
255 255 255
255 255 255
255 255 255
255 255 255
255 255 255
255 255 255
255 255 255
255 255 255
255 255 255
255 255 255
255 255 255
255 255 255
255 255 255
255 255 255
255 255 255
255 255 255
255 255 255
255 255 255
255 255 255
255 255 255
255 255 255
255 255 255
255 255 255
255 255 255
255 255 255
255 255 255
255 255 255
255 255 255
255 255 255
255 255 255
255 255 255
255 255 255
255 255 255
255 255 255
255 255 255
255 255 255
255 255 255
255 255 255
255 255 255
255 255 255
255 255 255
255 255 255
255 255 255
255 255 255
255 255 255
255 255 255
255 255 255
255 255 255
255 255 255
255 255 255
255 255 255
255 255 255
255 255 255
255 255 255
255 255 255
255 255 255
255 255 255
255 255 255
255 255 255
255 255 255
255 255 255
255 255 255
255 255 255
255 255 255
255 255 255
255 255 255
252 252 252
251 251 251
255 255 255
255 255 255
242 242 242
242 242 242
254 254 254
255 255 255
234 234 234
233 233 233
245 245 245
255 255 255
225 225 225
225 225 225
235 235 235
255 255 255
216 216 216
216 216 216
226 226 226
255 255 255
206 206 206
205 205 205
214 214 214
243 243 243
195 195 195
193 193 193
201 201 201
228 228 228
181 181 181
179 179 179
185 185 185
210 210 210
255 255 255
255 255 255
255 255 255
255 255 255
255 255 255
255 255 255
255 255 255
255 255 255
255 255 255
255 255 255
255 255 255
255 255 255
255 255 255
255 255 255
255 255 255
255 255 255
255 255 255
255 255 255
255 255 255
255 255 255
255 255 255
255 255 255
255 255 255
255 255 255
255 255 255
255 255 255
255 255 255
255 255 255
255 255 255
255 255 255
255 255 255
255 255 255
255 255 255
255 255 255
255 255 255
255 255 255
255 255 255
255 255 255
255 255 255
255 255 255
255 255 255
255 255 255
255 255 255
255 255 255
255 255 255
255 255 255
255 255 255
255 255 255
255 255 255
255 255 255
255 255 255
255 255 255
255 255 255
255 255 255
255 255 255
255 255 255
255 255 255
255 255 255
255 255 255
255 255 255
255 255 255
255 255 255
255 255 255
255 255 255
255 255 255
255 255 255
255 255 255
255 255 255
255 255 255
255 255 255
255 255 255
255 255 255
255 255 255
255 255 255
255 255 255
255 255 255
255 255 255
255 255 255
255 255 255
255 255 255
255 255 255
255 255 255
255 255 255
255 255 255
255 255 255
255 255 255
255 255 255
255 255 255
255 255 255
255 255 255
255 255 255
255 255 255
255 255 255
255 255 255
255 255 255
255 255 255
255 255 255
255 255 255
255 255 255
255 255 255
248 248 248
247 247 247
255 255 255
255 255 255
239 239 239
239 239 239
250 250 250
255 255 255
230 230 230
230 230 230
241 241 241
255 255 255
222 222 222
221 221 221
231 231 231
255 255 255
212 212 212
211 211 211
220 220 220
250 250 250
200 200 200
198 198 198
207 207 207
235 235 235
186 186 186
184 184 184
191 191 191
217 217 217
255 255 255
255 255 255
255 255 255
255 255 255
255 255 255
255 255 255
255 255 255
255 255 255
255 255 255
255 255 255
255 255 255
255 255 255
255 255 255
255 255 255
255 255 255
255 255 255
255 255 255
255 255 255
255 255 255
255 255 255
255 255 255
255 255 255
255 255 255
255 255 255
255 255 255
255 255 255
255 255 255
255 255 255
255 255 255
255 255 255
255 255 255
255 255 255
255 255 255
255 255 255
255 255 255
255 255 255
255 255 255
255 255 255
255 255 255
255 255 255
255 255 255
255 255 255
255 255 255
255 255 255
255 255 255
255 255 255
255 255 255
255 255 255
255 255 255
255 255 255
255 255 255
255 255 255
255 255 255
255 255 255
255 255 255
255 255 255
255 255 255
255 255 255
255 255 255
255 255 255
255 255 255
255 255 255
255 255 255
255 255 255
255 255 255
255 255 255
255 255 255
255 255 255
255 255 255
255 255 255
255 255 255
255 255 255
255 255 255
255 255 255
255 255 255
255 255 255
255 255 255
255 255 255
255 255 255
255 255 255
255 255 255
255 255 255
255 255 255
255 255 255
255 255 255
255 255 255
255 255 255
255 255 255
255 255 255
255 255 255
255 255 255
255 255 255
255 255 255
255 255 255
255 255 255
255 255 255
255 255 255
255 255 255
255 255 255
255 255 255
255 255 255
255 255 255
255 255 255
255 255 255
254 254 254
254 254 254
255 255 255
255 255 255
245 245 245
245 245 245
255 255 255
255 255 255
236 236 236
236 236 236
247 247 247
255 255 255
226 226 226
225 225 225
235 235 235
255 255 255
214 214 214
212 212 212
221 221 221
251 251 251
199 199 199
197 197 197
204 204 204
232 232 232
255 255 255
255 255 255
255 255 255
255 255 255
255 255 255
255 255 255
255 255 255
255 255 255
255 255 255
255 255 255
255 255 255
255 255 255
255 255 255
255 255 255
255 255 255
255 255 255
255 255 255
255 255 255
255 255 255
255 255 255
255 255 255
255 255 255
255 255 255
255 255 255
255 255 255
255 255 255
255 255 255
255 255 255
255 255 255
255 255 255
255 255 255
255 255 255
255 255 255
255 255 255
255 255 255
255 255 255
255 255 255
255 255 255
255 255 255
255 255 255
255 255 255
255 255 255
255 255 255
255 255 255
255 255 255
255 255 255
255 255 255
255 255 255
255 255 255
255 255 255
255 255 255
255 255 255
255 255 255
255 255 255
255 255 255
255 255 255
255 255 255
255 255 255
255 255 255
255 255 255
255 255 255
255 255 255
255 255 255
255 255 255
255 255 255
255 255 255
255 255 255
255 255 255
255 255 255
255 255 255
255 255 255
255 255 255
255 255 255
255 255 255
255 255 255
255 255 255
255 255 255
255 255 255
255 255 255
255 255 255
255 255 255
255 255 255
255 255 255
255 255 255
255 255 255
255 255 255
255 255 255
255 255 255
255 255 255
255 255 255
255 255 255
255 255 255
255 255 255
255 255 255
255 255 255
255 255 255
255 255 255
255 255 255
255 255 255
255 255 255
255 255 255
255 255 255
255 255 255
255 255 255
255 255 255
255 255 255
255 255 255
255 255 255
255 255 255
255 255 255
255 255 255
255 255 255
255 255 255
255 255 255
255 255 255
255 255 255
255 255 255
255 255 255
255 255 255
255 255 255
244 244 244
242 242 242
252 252 252
255 255 255
227 227 227
224 224 224
233 233 233
255 255 255
255 255 255
255 255 255
255 255 255
255 255 255
255 255 255
255 255 255
255 255 255
255 255 255
255 255 255
255 255 255
255 255 255
255 255 255
255 255 255
255 255 255
255 255 255
255 255 255
255 255 255
255 255 255
255 255 255
255 255 255
255 255 255
255 255 255
255 255 255
255 255 255
255 255 255
255 255 255
255 255 255
255 255 255
255 255 255
255 255 255
255 255 255
255 255 255
255 255 255
255 255 255
255 255 255
255 255 255
255 255 255
255 255 255
255 255 255
255 255 255
255 255 255
255 255 255
255 255 255
255 255 255
255 255 255
255 255 255
255 255 255
255 255 255
255 255 255
255 255 255
255 255 255
255 255 255
255 255 255
255 255 255
255 255 255
255 255 255
255 255 255
255 255 255
255 255 255
255 255 255
255 255 255
255 255 255
255 255 255
255 255 255
255 255 255
255 255 255
255 255 255
255 255 255
255 255 255
255 255 255
255 255 255
255 255 255
255 255 255
255 255 255
255 255 255
255 255 255
255 255 255
255 255 255
255 255 255
255 255 255
255 255 255
255 255 255
255 255 255
255 255 255
255 255 255
255 255 255
255 255 255
255 255 255
255 255 255
255 255 255
255 255 255
255 255 255
255 255 255
255 255 255
255 255 255
255 255 255
255 255 255
255 255 255
255 255 255
255 255 255
255 255 255
255 255 255
255 255 255
255 255 255
247 247 247
247 247 247
255 255 255
255 255 255
239 239 239
239 239 239
251 251 251
255 255 255
231 231 231
231 231 231
242 242 242
255 255 255
222 222 222
221 221 221
231 231 231
255 255 255
210 210 210
209 209 209
217 217 217
247 247 247
196 196 196
194 194 194
202 202 202
229 229 229
255 255 255
255 255 255
255 255 255
255 255 255
255 255 255
255 255 255
255 255 255
255 255 255
255 255 255
255 255 255
255 255 255
255 255 255
255 255 255
255 255 255
255 255 255
255 255 255
255 255 255
255 255 255
255 255 255
255 255 255
255 255 255
255 255 255
255 255 255
255 255 255
255 255 255
255 255 255
255 255 255
255 255 255
255 255 255
255 255 255
255 255 255
255 255 255
255 255 255
255 255 255
255 255 255
255 255 255
255 255 255
255 255 255
255 255 255
255 255 255
255 255 255
255 255 255
255 255 255
255 255 255
255 255 255
255 255 255
255 255 255
255 255 255
255 255 255
255 255 255
255 255 255
255 255 255
255 255 255
255 255 255
255 255 255
255 255 255
255 255 255
255 255 255
255 255 255
255 255 255
255 255 255
255 255 255
255 255 255
255 255 255
255 255 255
255 255 255
255 255 255
255 255 255
255 255 255
255 255 255
255 255 255
255 255 255
255 255 255
255 255 255
255 255 255
255 255 255
255 255 255
255 255 255
255 255 255
255 255 255
255 255 255
255 255 255
255 255 255
255 255 255
255 255 255
255 255 255
255 255 255
255 255 255
255 255 255
255 255 255
255 255 255
255 255 255
255 255 255
255 255 255
255 255 255
255 255 255
255 255 255
255 255 255
255 255 255
255 255 255
255 255 255
255 255 255
255 255 255
255 255 255
253 253 253
253 253 253
255 255 255
255 255 255
245 245 245
245 245 245
255 255 255
255 255 255
237 237 237
236 236 236
247 247 247
255 255 255
227 227 227
226 226 226
236 236 236
255 255 255
216 216 216
214 214 214
223 223 223
253 253 253
202 202 202
199 199 199
207 207 207
235 235 235
255 255 255
255 255 255
255 255 255
255 255 255
255 255 255
255 255 255
255 255 255
255 255 255
255 255 255
255 255 255
255 255 255
255 255 255
255 255 255
255 255 255
255 255 255
255 255 255
255 255 255
255 255 255
255 255 255
255 255 255
255 255 255
255 255 255
255 255 255
255 255 255
255 255 255
255 255 255
255 255 255
255 255 255
255 255 255
255 255 255
255 255 255
255 255 255
255 255 255
255 255 255
255 255 255
255 255 255
255 255 255
255 255 255
255 255 255
255 255 255
255 255 255
255 255 255
255 255 255
255 255 255
255 255 255
255 255 255
255 255 255
255 255 255
255 255 255
255 255 255
255 255 255
255 255 255
255 255 255
255 255 255
255 255 255
255 255 255
255 255 255
255 255 255
255 255 255
255 255 255
255 255 255
255 255 255
255 255 255
255 255 255
255 255 255
255 255 255
255 255 255
255 255 255
255 255 255
255 255 255
255 255 255
255 255 255
255 255 255
255 255 255
255 255 255
255 255 255
255 255 255
255 255 255
255 255 255
255 255 255
255 255 255
255 255 255
255 255 255
255 255 255
255 255 255
255 255 255
255 255 255
255 255 255
255 255 255
255 255 255
255 255 255
255 255 255
255 255 255
255 255 255
255 255 255
255 255 255
255 255 255
255 255 255
255 255 255
255 255 255
255 255 255
255 255 255
255 255 255
255 255 255
255 255 255
255 255 255
255 255 255
255 255 255
255 255 255
255 255 255
255 255 255
255 255 255
252 252 252
252 252 252
255 255 255
255 255 255
242 242 242
241 241 241
252 252 252
255 255 255
230 230 230
229 229 229
238 238 238
255 255 255
215 215 215
213 213 213
221 221 221
251 251 251
255 255 255
255 255 255
255 255 255
255 255 255
255 255 255
255 255 255
255 255 255
255 255 255
255 255 255
255 255 255
255 255 255
255 255 255
255 255 255
255 255 255
255 255 255
255 255 255
255 255 255
255 255 255
255 255 255
255 255 255
255 255 255
255 255 255
255 255 255
255 255 255
255 255 255
255 255 255
255 255 255
255 255 255
255 255 255
255 255 255
255 255 255
255 255 255
255 255 255
255 255 255
255 255 255
255 255 255
255 255 255
255 255 255
255 255 255
255 255 255
255 255 255
255 255 255
255 255 255
255 255 255
255 255 255
255 255 255
255 255 255
255 255 255
255 255 255
255 255 255
255 255 255
255 255 255
255 255 255
255 255 255
255 255 255
255 255 255
255 255 255
255 255 255
255 255 255
255 255 255
255 255 255
255 255 255
255 255 255
255 255 255
255 255 255
255 255 255
255 255 255
255 255 255
255 255 255
255 255 255
255 255 255
255 255 255
255 255 255
255 255 255
255 255 255
255 255 255
255 255 255
255 255 255
255 255 255
255 255 255
255 255 255
255 255 255
255 255 255
255 255 255
255 255 255
255 255 255
255 255 255
255 255 255
255 255 255
255 255 255
255 255 255
255 255 255
255 255 255
255 255 255
255 255 255
255 255 255
255 255 255
255 255 255
255 255 255
255 255 255
255 255 255
255 255 255
255 255 255
255 255 255
255 255 255
255 255 255
255 255 255
255 255 255
255 255 255
255 255 255
255 255 255
255 255 255
255 255 255
255 255 255
255 255 255
255 255 255
255 255 255
255 255 255
255 255 255
255 255 255
255 255 255
255 255 255
255 255 255
255 255 255
246 246 246
243 243 243
253 253 253
255 255 255
255 255 255
255 255 255
255 255 255
255 255 255
255 255 255
255 255 255
255 255 255
255 255 255
255 255 255
255 255 255
255 255 255
255 255 255
255 255 255
255 255 255
255 255 255
255 255 255
255 255 255
255 255 255
255 255 255
255 255 255
255 255 255
255 255 255
255 255 255
255 255 255
255 255 255
255 255 255
255 255 255
255 255 255
255 255 255
255 255 255
255 255 255
255 255 255
255 255 255
255 255 255
255 255 255
255 255 255
255 255 255
255 255 255
255 255 255
255 255 255
255 255 255
255 255 255
255 255 255
255 255 255
255 255 255
255 255 255
255 255 255
255 255 255
255 255 255
255 255 255
255 255 255
255 255 255
255 255 255
255 255 255
255 255 255
255 255 255
255 255 255
255 255 255
255 255 255
255 255 255
255 255 255
255 255 255
255 255 255
255 255 255
255 255 255
255 255 255
255 255 255
255 255 255
255 255 255
255 255 255
255 255 255
255 255 255
255 255 255
255 255 255
255 255 255
255 255 255
255 255 255
255 255 255
255 255 255
255 255 255
255 255 255
255 255 255
255 255 255
255 255 255
255 255 255
255 255 255
255 255 255
255 255 255
255 255 255
255 255 255
255 255 255
255 255 255
255 255 255
255 255 255
255 255 255
255 255 255
255 255 255
255 255 255
255 255 255
255 255 255
255 255 255
255 255 255
255 255 255
255 255 255
255 255 255
255 255 255
255 255 255
255 255 255
254 254 254
254 254 254
255 255 255
255 255 255
246 246 246
246 246 246
255 255 255
255 255 255
237 237 237
236 236 236
247 247 247
255 255 255
226 226 226
224 224 224
234 234 234
255 255 255
211 211 211
209 209 209
217 217 217
247 247 247
255 255 255
255 255 255
255 255 255
255 255 255
255 255 255
255 255 255
255 255 255
255 255 255
255 255 255
255 255 255
255 255 255
255 255 255
255 255 255
255 255 255
255 255 255
255 255 255
255 255 255
255 255 255
255 255 255
255 255 255
255 255 255
255 255 255
255 255 255
255 255 255
255 255 255
255 255 255
255 255 255
255 255 255
255 255 255
255 255 255
255 255 255
255 255 255
255 255 255
255 255 255
255 255 255
255 255 255
255 255 255
255 255 255
255 255 255
255 255 255
255 255 255
255 255 255
255 255 255
255 255 255
255 255 255
255 255 255
255 255 255
255 255 255
255 255 255
255 255 255
255 255 255
255 255 255
255 255 255
255 255 255
255 255 255
255 255 255
255 255 255
255 255 255
255 255 255
255 255 255
255 255 255
255 255 255
255 255 255
255 255 255
255 255 255
255 255 255
255 255 255
255 255 255
255 255 255
255 255 255
255 255 255
255 255 255
255 255 255
255 255 255
255 255 255
255 255 255
255 255 255
255 255 255
255 255 255
255 255 255
255 255 255
255 255 255
255 255 255
255 255 255
255 255 255
255 255 255
255 255 255
255 255 255
255 255 255
255 255 255
255 255 255
255 255 255
255 255 255
255 255 255
255 255 255
255 255 255
255 255 255
255 255 255
255 255 255
255 255 255
255 255 255
255 255 255
255 255 255
255 255 255
255 255 255
255 255 255
255 255 255
255 255 255
255 255 255
255 255 255
255 255 255
255 255 255
252 252 252
252 252 252
255 255 255
255 255 255
243 243 243
242 242 242
253 253 253
255 255 255
231 231 231
229 229 229
239 239 239
255 255 255
217 217 217
214 214 214
223 223 223
253 253 253
255 255 255
255 255 255
255 255 255
255 255 255
255 255 255
255 255 255
255 255 255
255 255 255
255 255 255
255 255 255
255 255 255
255 255 255
255 255 255
255 255 255
255 255 255
255 255 255
255 255 255
255 255 255
255 255 255
255 255 255
255 255 255
255 255 255
255 255 255
255 255 255
255 255 255
255 255 255
255 255 255
255 255 255
255 255 255
255 255 255
255 255 255
255 255 255
255 255 255
255 255 255
255 255 255
255 255 255
255 255 255
255 255 255
255 255 255
255 255 255
255 255 255
255 255 255
255 255 255
255 255 255
255 255 255
255 255 255
255 255 255
255 255 255
255 255 255
255 255 255
255 255 255
255 255 255
255 255 255
255 255 255
255 255 255
255 255 255
255 255 255
255 255 255
255 255 255
255 255 255
255 255 255
255 255 255
255 255 255
255 255 255
255 255 255
255 255 255
255 255 255
255 255 255
255 255 255
255 255 255
255 255 255
255 255 255
255 255 255
255 255 255
255 255 255
255 255 255
255 255 255
255 255 255
255 255 255
255 255 255
255 255 255
255 255 255
255 255 255
255 255 255
255 255 255
255 255 255
255 255 255
255 255 255
255 255 255
255 255 255
255 255 255
255 255 255
255 255 255
255 255 255
255 255 255
255 255 255
255 255 255
255 255 255
255 255 255
255 255 255
255 255 255
255 255 255
255 255 255
255 255 255
255 255 255
255 255 255
255 255 255
255 255 255
255 255 255
255 255 255
255 255 255
255 255 255
255 255 255
255 255 255
255 255 255
255 255 255
255 255 255
255 255 255
255 255 255
255 255 255
246 246 246
245 245 245
255 255 255
255 255 255
231 231 231
229 229 229
238 238 238
255 255 255
255 255 255
255 255 255
255 255 255
255 255 255
255 255 255
255 255 255
255 255 255
255 255 255
255 255 255
255 255 255
255 255 255
255 255 255
255 255 255
255 255 255
255 255 255
255 255 255
255 255 255
255 255 255
255 255 255
255 255 255
255 255 255
255 255 255
255 255 255
255 255 255
255 255 255
255 255 255
255 255 255
255 255 255
255 255 255
255 255 255
255 255 255
255 255 255
255 255 255
255 255 255
255 255 255
255 255 255
255 255 255
255 255 255
255 255 255
255 255 255
255 255 255
255 255 255
255 255 255
255 255 255
255 255 255
255 255 255
255 255 255
255 255 255
255 255 255
255 255 255
255 255 255
255 255 255
255 255 255
255 255 255
255 255 255
255 255 255
255 255 255
255 255 255
255 255 255
255 255 255
255 255 255
255 255 255
255 255 255
255 255 255
255 255 255
255 255 255
255 255 255
255 255 255
255 255 255
255 255 255
255 255 255
255 255 255
255 255 255
255 255 255
255 255 255
255 255 255
255 255 255
255 255 255
255 255 255
255 255 255
255 255 255
255 255 255
255 255 255
255 255 255
255 255 255
255 255 255
255 255 255
255 255 255
255 255 255
255 255 255
255 255 255
255 255 255
255 255 255
255 255 255
255 255 255
255 255 255
255 255 255
255 255 255
255 255 255
255 255 255
255 255 255
255 255 255
255 255 255
255 255 255
255 255 255
255 255 255
255 255 255
255 255 255
255 255 255
255 255 255
255 255 255
255 255 255
255 255 255
255 255 255
255 255 255
255 255 255
255 255 255
255 255 255
255 255 255
255 255 255
255 255 255
255 255 255
255 255 255
255 255 255
255 255 255
255 255 255
255 255 255
255 255 255
255 255 255
255 255 255
255 255 255
255 255 255
255 255 255
255 255 255
255 255 255
255 255 255
255 255 255
255 255 255
255 255 255
255 255 255
255 255 255
255 255 255
255 255 255
255 255 255
255 255 255
255 255 255
255 255 255
255 255 255
255 255 255
255 255 255
255 255 255
255 255 255
255 255 255
255 255 255
255 255 255
255 255 255
255 255 255
255 255 255
255 255 255
255 255 255
255 255 255
255 255 255
255 255 255
255 255 255
255 255 255
255 255 255
255 255 255
255 255 255
255 255 255
255 255 255
255 255 255
255 255 255
255 255 255
255 255 255
255 255 255
255 255 255
255 255 255
255 255 255
255 255 255
255 255 255
255 255 255
255 255 255
255 255 255
255 255 255
255 255 255
255 255 255
255 255 255
255 255 255
255 255 255
255 255 255
255 255 255
255 255 255
255 255 255
255 255 255
255 255 255
255 255 255
255 255 255
255 255 255
255 255 255
255 255 255
255 255 255
255 255 255
255 255 255
255 255 255
255 255 255
255 255 255
255 255 255
255 255 255
255 255 255
255 255 255
255 255 255
255 255 255
255 255 255
255 255 255
255 255 255
255 255 255
255 255 255
255 255 255
255 255 255
255 255 255
255 255 255
255 255 255
255 255 255
255 255 255
255 255 255
255 255 255
255 255 255
255 255 255
255 255 255
255 255 255
255 255 255
255 255 255
255 255 255
255 255 255
255 255 255
255 255 255
255 255 255
255 255 255
255 255 255
255 255 255
255 255 255
255 255 255
255 255 255
255 255 255
252 252 252
251 251 251
255 255 255
255 255 255
240 240 240
239 239 239
249 249 249
255 255 255
226 226 226
224 224 224
233 233 233
255 255 255
255 255 255
255 255 255
255 255 255
255 255 255
255 255 255
255 255 255
255 255 255
255 255 255
255 255 255
255 255 255
255 255 255
255 255 255
255 255 255
255 255 255
255 255 255
255 255 255
255 255 255
255 255 255
255 255 255
255 255 255
255 255 255
255 255 255
255 255 255
255 255 255
255 255 255
255 255 255
255 255 255
255 255 255
255 255 255
255 255 255
255 255 255
255 255 255
255 255 255
255 255 255
255 255 255
255 255 255
255 255 255
255 255 255
255 255 255
255 255 255
255 255 255
255 255 255
255 255 255
255 255 255
255 255 255
255 255 255
255 255 255
255 255 255
255 255 255
255 255 255
255 255 255
255 255 255
255 255 255
255 255 255
255 255 255
255 255 255
255 255 255
255 255 255
255 255 255
255 255 255
255 255 255
255 255 255
255 255 255
255 255 255
255 255 255
255 255 255
255 255 255
255 255 255
255 255 255
255 255 255
255 255 255
255 255 255
255 255 255
255 255 255
255 255 255
255 255 255
255 255 255
255 255 255
255 255 255
255 255 255
255 255 255
255 255 255
255 255 255
255 255 255
255 255 255
255 255 255
255 255 255
255 255 255
255 255 255
255 255 255
255 255 255
255 255 255
255 255 255
255 255 255
255 255 255
255 255 255
255 255 255
255 255 255
255 255 255
255 255 255
255 255 255
255 255 255
255 255 255
255 255 255
255 255 255
255 255 255
255 255 255
255 255 255
255 255 255
255 255 255
255 255 255
255 255 255
255 255 255
255 255 255
255 255 255
255 255 255
255 255 255
255 255 255
255 255 255
255 255 255
245 245 245
244 244 244
255 255 255
255 255 255
231 231 231
229 229 229
238 238 238
255 255 255
255 255 255
255 255 255
255 255 255
255 255 255
255 255 255
255 255 255
255 255 255
255 255 255
255 255 255
255 255 255
255 255 255
255 255 255
255 255 255
255 255 255
255 255 255
255 255 255
255 255 255
255 255 255
255 255 255
255 255 255
255 255 255
255 255 255
255 255 255
255 255 255
255 255 255
255 255 255
255 255 255
255 255 255
255 255 255
255 255 255
255 255 255
255 255 255
255 255 255
255 255 255
255 255 255
255 255 255
255 255 255
255 255 255
255 255 255
255 255 255
255 255 255
255 255 255
255 255 255
255 255 255
255 255 255
255 255 255
255 255 255
255 255 255
255 255 255
255 255 255
255 255 255
255 255 255
255 255 255
255 255 255
255 255 255
255 255 255
255 255 255
255 255 255
255 255 255
255 255 255
255 255 255
255 255 255
255 255 255
255 255 255
255 255 255
255 255 255
255 255 255
255 255 255
255 255 255
255 255 255
255 255 255
255 255 255
255 255 255
255 255 255
255 255 255
255 255 255
255 255 255
255 255 255
255 255 255
255 255 255
255 255 255
255 255 255
255 255 255
255 255 255
255 255 255
255 255 255
255 255 255
255 255 255
255 255 255
255 255 255
255 255 255
255 255 255
255 255 255
255 255 255
255 255 255
255 255 255
255 255 255
255 255 255
255 255 255
255 255 255
255 255 255
255 255 255
255 255 255
255 255 255
255 255 255
255 255 255
255 255 255
255 255 255
255 255 255
255 255 255
255 255 255
255 255 255
255 255 255
255 255 255
255 255 255
255 255 255
255 255 255
255 255 255
255 255 255
255 255 255
255 255 255
255 255 255
255 255 255
255 255 255
246 246 246
243 243 243
253 253 253
255 255 255
255 255 255
255 255 255
255 255 255
255 255 255
255 255 255
255 255 255
255 255 255
255 255 255
255 255 255
255 255 255
255 255 255
255 255 255
255 255 255
255 255 255
255 255 255
255 255 255
255 255 255
255 255 255
255 255 255
255 255 255
255 255 255
255 255 255
255 255 255
255 255 255
255 255 255
255 255 255
255 255 255
255 255 255
255 255 255
255 255 255
255 255 255
255 255 255
255 255 255
255 255 255
255 255 255
255 255 255
255 255 255
255 255 255
255 255 255
255 255 255
255 255 255
255 255 255
255 255 255
255 255 255
255 255 255
255 255 255
255 255 255
255 255 255
255 255 255
255 255 255
255 255 255
255 255 255
255 255 255
255 255 255
255 255 255
255 255 255
255 255 255
255 255 255
255 255 255
255 255 255
255 255 255
255 255 255
255 255 255
255 255 255
255 255 255
255 255 255
255 255 255
255 255 255
255 255 255
255 255 255
255 255 255
255 255 255
255 255 255
255 255 255
255 255 255
255 255 255
255 255 255
255 255 255
255 255 255
255 255 255
255 255 255
255 255 255
255 255 255
255 255 255
255 255 255
255 255 255
255 255 255
255 255 255
255 255 255
255 255 255
255 255 255
255 255 255
255 255 255
255 255 255
255 255 255
255 255 255
255 255 255
255 255 255
255 255 255
255 255 255
255 255 255
255 255 255
255 255 255
255 255 255
255 255 255
255 255 255
255 255 255
255 255 255
255 255 255
255 255 255
255 255 255
255 255 255
255 255 255
255 255 255
255 255 255
255 255 255
255 255 255
255 255 255
255 255 255
255 255 255
255 255 255
255 255 255
255 255 255
255 255 255
255 255 255
255 255 255
255 255 255
255 255 255
255 255 255
255 255 255
255 255 255
255 255 255
255 255 255
255 255 255
255 255 255
255 255 255
255 255 255
255 255 255
255 255 255
255 255 255
255 255 255
255 255 255
255 255 255
255 255 255
255 255 255
255 255 255
255 255 255
255 255 255
255 255 255
255 255 255
255 255 255
255 255 255
255 255 255
255 255 255
255 255 255
255 255 255
255 255 255
255 255 255
255 255 255
255 255 255
255 255 255
255 255 255
255 255 255
255 255 255
255 255 255
255 255 255
255 255 255
255 255 255
255 255 255
255 255 255
255 255 255
255 255 255
255 255 255
255 255 255
255 255 255
255 255 255
255 255 255
255 255 255
255 255 255
255 255 255
255 255 255
255 255 255
255 255 255
255 255 255
255 255 255
255 255 255
255 255 255
255 255 255
255 255 255
255 255 255
255 255 255
255 255 255
255 255 255
255 255 255
255 255 255
255 255 255
255 255 255
255 255 255
255 255 255
255 255 255
255 255 255
255 255 255
255 255 255
255 255 255
255 255 255
255 255 255
255 255 255
255 255 255
255 255 255
255 255 255
255 255 255
255 255 255
255 255 255
255 255 255
255 255 255
255 255 255
255 255 255
255 255 255
255 255 255
255 255 255
255 255 255
255 255 255
255 255 255
255 255 255
255 255 255
255 255 255
255 255 255
255 255 255
255 255 255
255 255 255
255 255 255
255 255 255
255 255 255
255 255 255
255 255 255
255 255 255
255 255 255
255 255 255
255 255 255
255 255 255
255 255 255
255 255 255
255 255 255
255 255 255
255 255 255
255 255 255
255 255 255
255 255 255
254 254 254
252 252 252
255 255 255
255 255 255
239 239 239
237 237 237
246 246 246
255 255 255
255 255 255
255 255 255
255 255 255
255 255 255
255 255 255
255 255 255
255 255 255
255 255 255
255 255 255
255 255 255
255 255 255
255 255 255
255 255 255
255 255 255
255 255 255
255 255 255
255 255 255
255 255 255
255 255 255
255 255 255
255 255 255
255 255 255
255 255 255
255 255 255
255 255 255
255 255 255
255 255 255
255 255 255
255 255 255
255 255 255
255 255 255
255 255 255
255 255 255
255 255 255
255 255 255
255 255 255
255 255 255
255 255 255
255 255 255
255 255 255
255 255 255
255 255 255
255 255 255
255 255 255
255 255 255
255 255 255
255 255 255
255 255 255
255 255 255
255 255 255
255 255 255
255 255 255
255 255 255
255 255 255
255 255 255
255 255 255
255 255 255
255 255 255
255 255 255
255 255 255
255 255 255
255 255 255
255 255 255
255 255 255
255 255 255
255 255 255
255 255 255
255 255 255
255 255 255
255 255 255
255 255 255
255 255 255
255 255 255
255 255 255
255 255 255
255 255 255
255 255 255
255 255 255
255 255 255
255 255 255
255 255 255
255 255 255
255 255 255
255 255 255
255 255 255
255 255 255
255 255 255
255 255 255
255 255 255
255 255 255
255 255 255
255 255 255
255 255 255
255 255 255
255 255 255
255 255 255
255 255 255
255 255 255
255 255 255
255 255 255
255 255 255
255 255 255
255 255 255
255 255 255
255 255 255
255 255 255
255 255 255
255 255 255
255 255 255
255 255 255
255 255 255
255 255 255
255 255 255
255 255 255
255 255 255
255 255 255
255 255 255
255 255 255
255 255 255
255 255 255
255 255 255
255 255 255
255 255 255
255 255 255
244 244 244
242 242 242
251 251 251
255 255 255
255 255 255
255 255 255
255 255 255
255 255 255
255 255 255
255 255 255
255 255 255
255 255 255
255 255 255
255 255 255
255 255 255
255 255 255
255 255 255
255 255 255
255 255 255
255 255 255
255 255 255
255 255 255
255 255 255
255 255 255
255 255 255
255 255 255
255 255 255
255 255 255
255 255 255
255 255 255
255 255 255
255 255 255
255 255 255
255 255 255
255 255 255
255 255 255
255 255 255
255 255 255
255 255 255
255 255 255
255 255 255
255 255 255
255 255 255
255 255 255
255 255 255
255 255 255
255 255 255
255 255 255
255 255 255
255 255 255
255 255 255
255 255 255
255 255 255
255 255 255
255 255 255
255 255 255
255 255 255
255 255 255
255 255 255
255 255 255
255 255 255
255 255 255
255 255 255
255 255 255
255 255 255
255 255 255
255 255 255
255 255 255
255 255 255
255 255 255
255 255 255
255 255 255
255 255 255
255 255 255
255 255 255
255 255 255
255 255 255
255 255 255
255 255 255
255 255 255
255 255 255
255 255 255
255 255 255
255 255 255
255 255 255
255 255 255
255 255 255
255 255 255
255 255 255
255 255 255
255 255 255
255 255 255
255 255 255
255 255 255
255 255 255
255 255 255
255 255 255
255 255 255
255 255 255
255 255 255
255 255 255
255 255 255
255 255 255
255 255 255
255 255 255
255 255 255
255 255 255
255 255 255
255 255 255
255 255 255
255 255 255
255 255 255
255 255 255
255 255 255
255 255 255
255 255 255
255 255 255
255 255 255
255 255 255
255 255 255
255 255 255
255 255 255
255 255 255
255 255 255
255 255 255
255 255 255
255 255 255
255 255 255
255 255 255
255 255 255
255 255 255
255 255 255
255 255 255
255 255 255
255 255 255
255 255 255
255 255 255
255 255 255
255 255 255
255 255 255
255 255 255
255 255 255
255 255 255
255 255 255
255 255 255
255 255 255
255 255 255
255 255 255
255 255 255
255 255 255
255 255 255
255 255 255
255 255 255
255 255 255
255 255 255
255 255 255
255 255 255
255 255 255
255 255 255
255 255 255
255 255 255
255 255 255
255 255 255
255 255 255
255 255 255
255 255 255
255 255 255
255 255 255
255 255 255
255 255 255
255 255 255
255 255 255
255 255 255
255 255 255
255 255 255
255 255 255
255 255 255
255 255 255
255 255 255
255 255 255
255 255 255
255 255 255
255 255 255
255 255 255
255 255 255
255 255 255
255 255 255
255 255 255
255 255 255
255 255 255
255 255 255
255 255 255
255 255 255
255 255 255
255 255 255
255 255 255
255 255 255
255 255 255
255 255 255
255 255 255
255 255 255
255 255 255
255 255 255
255 255 255
255 255 255
255 255 255
255 255 255
255 255 255
255 255 255
255 255 255
255 255 255
255 255 255
255 255 255
255 255 255
255 255 255
255 255 255
255 255 255
255 255 255
255 255 255
255 255 255
255 255 255
255 255 255
255 255 255
255 255 255
255 255 255
255 255 255
255 255 255
255 255 255
255 255 255
255 255 255
255 255 255
255 255 255
255 255 255
255 255 255
255 255 255
255 255 255
255 255 255
255 255 255
255 255 255
255 255 255
255 255 255
255 255 255
255 255 255
255 255 255
255 255 255
255 255 255
255 255 255
255 255 255
255 255 255
255 255 255
255 255 255
255 255 255
255 255 255
255 255 255
255 255 255
255 255 255
255 255 255
255 255 255
255 255 255
255 255 255
255 255 255
255 255 255
255 255 255
255 255 255
255 255 255
255 255 255
255 255 255
255 255 255
255 255 255
255 255 255
255 255 255
255 255 255
255 255 255
255 255 255
255 255 255
255 255 255
255 255 255
255 255 255
255 255 255
255 255 255
255 255 255
255 255 255
255 255 255
255 255 255
255 255 255
255 255 255
255 255 255
255 255 255
255 255 255
255 255 255
255 255 255
255 255 255
255 255 255
255 255 255
255 255 255
255 255 255
255 255 255
255 255 255
255 255 255
255 255 255
255 255 255
255 255 255
255 255 255
255 255 255
255 255 255
255 255 255
255 255 255
255 255 255
255 255 255
255 255 255
255 255 255
255 255 255
255 255 255
255 255 255
255 255 255
255 255 255
255 255 255
255 255 255
255 255 255
255 255 255
255 255 255
255 255 255
255 255 255
255 255 255
255 255 255
255 255 255
255 255 255
255 255 255
255 255 255
255 255 255
255 255 255
255 255 255
255 255 255
255 255 255
255 255 255
255 255 255
255 255 255
255 255 255
255 255 255
255 255 255
255 255 255
255 255 255
255 255 255
255 255 255
255 255 255
255 255 255
255 255 255
255 255 255
255 255 255
255 255 255
255 255 255
255 255 255
255 255 255
255 255 255
255 255 255
255 255 255
255 255 255
255 255 255
255 255 255
255 255 255
255 255 255
255 255 255
255 255 255
255 255 255
255 255 255
255 255 255
255 255 255
255 255 255
255 255 255
255 255 255
255 255 255
255 255 255
255 255 255
255 255 255
255 255 255
255 255 255
255 255 255
255 255 255
255 255 255
255 255 255
255 255 255
255 255 255
255 255 255
255 255 255
251 251 251
249 249 249
255 255 255
255 255 255
255 255 255
255 255 255
255 255 255
255 255 255
255 255 255
255 255 255
255 255 255
255 255 255
255 255 255
255 255 255
255 255 255
255 255 255
255 255 255
255 255 255
255 255 255
255 255 255
255 255 255
255 255 255
255 255 255
255 255 255
255 255 255
255 255 255
255 255 255
255 255 255
255 255 255
255 255 255
255 255 255
255 255 255
255 255 255
255 255 255
255 255 255
255 255 255
255 255 255
255 255 255
255 255 255
255 255 255
255 255 255
255 255 255
255 255 255
255 255 255
255 255 255
255 255 255
255 255 255
255 255 255
255 255 255
255 255 255
255 255 255
255 255 255
255 255 255
255 255 255
255 255 255
255 255 255
255 255 255
255 255 255
255 255 255
255 255 255
255 255 255
255 255 255
255 255 255
255 255 255
255 255 255
255 255 255
255 255 255
255 255 255
255 255 255
255 255 255
255 255 255
255 255 255
255 255 255
255 255 255
255 255 255
255 255 255
255 255 255
255 255 255
255 255 255
255 255 255
255 255 255
255 255 255
255 255 255
255 255 255
255 255 255
255 255 255
255 255 255
255 255 255
255 255 255
255 255 255
255 255 255
255 255 255
255 255 255
255 255 255
255 255 255
255 255 255
255 255 255
255 255 255
255 255 255
255 255 255
255 255 255
255 255 255
255 255 255
255 255 255
255 255 255
255 255 255
255 255 255
255 255 255
255 255 255
255 255 255
255 255 255
255 255 255
255 255 255
255 255 255
255 255 255
255 255 255
255 255 255
255 255 255
255 255 255
255 255 255
255 255 255
255 255 255
255 255 255
255 255 255
255 255 255
255 255 255
255 255 255
255 255 255
255 255 255
253 253 253
255 255 255
255 255 255
255 255 255
255 255 255
255 255 255
255 255 255
255 255 255
255 255 255
255 255 255
255 255 255
255 255 255
255 255 255
255 255 255
255 255 255
255 255 255
255 255 255
255 255 255
255 255 255
255 255 255
255 255 255
255 255 255
255 255 255
255 255 255
255 255 255
255 255 255
255 255 255
255 255 255
255 255 255
255 255 255
255 255 255
255 255 255
255 255 255
255 255 255
255 255 255
255 255 255
255 255 255
255 255 255
255 255 255
255 255 255
255 255 255
255 255 255
255 255 255
255 255 255
255 255 255
255 255 255
255 255 255
255 255 255
255 255 255
255 255 255
255 255 255
255 255 255
255 255 255
255 255 255
255 255 255
255 255 255
255 255 255
255 255 255
255 255 255
255 255 255
255 255 255
255 255 255
255 255 255
255 255 255
255 255 255
255 255 255
255 255 255
255 255 255
255 255 255
255 255 255
255 255 255
255 255 255
255 255 255
255 255 255
255 255 255
255 255 255
255 255 255
255 255 255
255 255 255
255 255 255
255 255 255
255 255 255
255 255 255
255 255 255
255 255 255
255 255 255
255 255 255
255 255 255
255 255 255
255 255 255
255 255 255
255 255 255
255 255 255
255 255 255
255 255 255
255 255 255
255 255 255
255 255 255
255 255 255
255 255 255
255 255 255
255 255 255
255 255 255
255 255 255
255 255 255
255 255 255
255 255 255
255 255 255
255 255 255
255 255 255
255 255 255
255 255 255
255 255 255
255 255 255
255 255 255
255 255 255
255 255 255
255 255 255
255 255 255
255 255 255
255 255 255
255 255 255
255 255 255
255 255 255
255 255 255
255 255 255
255 255 255
255 255 255
255 255 255
255 255 255
255 255 255
255 255 255
255 255 255
255 255 255
255 255 255
255 255 255
255 255 255
255 255 255
255 255 255
255 255 255
255 255 255
255 255 255
255 255 255
255 255 255
255 255 255
255 255 255
255 255 255
255 255 255
255 255 255
255 255 255
255 255 255
255 255 255
255 255 255
255 255 255
255 255 255
255 255 255
255 255 255
255 255 255
255 255 255
255 255 255
255 255 255
255 255 255
255 255 255
255 255 255
255 255 255
255 255 255
255 255 255
255 255 255
255 255 255
255 255 255
255 255 255
255 255 255
255 255 255
255 255 255
255 255 255
255 255 255
255 255 255
255 255 255
255 255 255
255 255 255
255 255 255
255 255 255
255 255 255
255 255 255
255 255 255
255 255 255
255 255 255
255 255 255
255 255 255
255 255 255
255 255 255
255 255 255
255 255 255
255 255 255
255 255 255
255 255 255
255 255 255
255 255 255
255 255 255
255 255 255
255 255 255
255 255 255
255 255 255
255 255 255
255 255 255
255 255 255
255 255 255
255 255 255
255 255 255
255 255 255
255 255 255
255 255 255
255 255 255
255 255 255
255 255 255
255 255 255
255 255 255
255 255 255
255 255 255
255 255 255
255 255 255
255 255 255
255 255 255
255 255 255
255 255 255
255 255 255
255 255 255
255 255 255
255 255 255
255 255 255
255 255 255
255 255 255
255 255 255
255 255 255
255 255 255
255 255 255
255 255 255
255 255 255
255 255 255
255 255 255
255 255 255
255 255 255
255 255 255
255 255 255
255 255 255
255 255 255
255 255 255
255 255 255
255 255 255
255 255 255
255 255 255
255 255 255
255 255 255
255 255 255
255 255 255
255 255 255
255 255 255
255 255 255
255 255 255
